P3
200 200
255
19 38 0
20 39 0
20 40 0
20 41 0
21 42 0
21 44 0
21 45 0
22 46 0
22 47 0
22 48 0
23 50 0
23 51 0
24 52 0
24 53 0
24 55 0
25 56 0
25 57 0
26 58 0
26 59 0
26 61 0
27 62 0
27 63 0
27 65 0
28 66 0
28 67 0
29 68 0
29 70 0
29 71 0
30 72 0
30 74 0
31 75 0
31 76 0
31 78 0
32 79 0
32 80 0
33 82 0
33 83 0
34 84 0
34 86 0
34 87 0
35 88 0
35 90 0
36 91 0
36 93 0
36 94 0
37 95 0
37 97 0
38 98 0
38 100 0
39 101 0
39 102 0
39 104 0
40 105 0
40 106 0
41 108 0
41 109 0
41 111 0
42 112 0
42 114 0
43 115 0
43 116 0
44 118 0
44 119 0
44 121 0
45 122 0
45 123 0
46 125 0
46 126 0
47 128 0
47 129 0
47 130 0
48 132 0
48 133 0
49 135 0
49 136 0
49 137 0
50 139 0
50 140 0
51 142 0
51 143 0
51 144 0
52 146 0
52 147 0
53 148 0
53 150 0
53 151 0
54 152 0
54 154 0
55 155 0
55 156 0
55 158 0
56 159 0
56 160 0
56 162 0
57 163 0
57 164 0
58 165 0
58 167 0
58 168 0
59 169 0
59 170 0
59 172 0
60 173 0
60 174 0
60 175 0
61 176 0
61 178 0
61 179 0
62 180 0
62 181 0
62 182 0
63 183 0
63 185 0
63 186 0
64 187 0
64 188 0
64 189 0
65 190 0
65 191 0
65 192 0
65 193 0
66 194 0
66 195 0
66 196 0
67 197 0
67 198 0
67 199 0
67 200 0
68 201 0
68 202 0
68 203 0
68 204 0
69 205 0
69 206 0
69 206 0
69 207 0
69 208 0
70 209 0
70 210 0
70 211 0
70 211 0
71 212 0
71 213 0
71 214 0
71 215 0
71 215 0
71 216 0
72 217 0
72 217 0
72 218 0
72 219 0
72 219 0
73 220 0
73 221 0
73 221 0
73 222 0
73 223 0
73 223 0
73 224 0
74 224 0
74 225 0
74 225 0
74 226 0
74 227 0
74 227 0
74 228 0
74 228 0
75 229 0
75 229 0
75 230 0
75 230 0
75 230 0
75 231 0
75 231 0
75 232 0
75 232 0
75 233 0
76 233 0
76 233 0
76 234 0
76 234 0
76 234 0
76 235 0
76 235 0
76 235 0
76 236 0
76 236 0
76 236 0
76 237 0
76 237 0
76 237 0
76 238 0
77 238 0
77 238 0
77 238 0
77 239 0
77 239 0
77 239 0
77 239 0
77 239 0
20 37 0
20 38 0
21 39 0
21 40 0
21 42 0
22 43 0
22 44 0
23 45 0
23 46 0
23 48 0
24 49 0
24 50 0
24 51 0
25 52 0
25 54 0
26 55 0
26 56 0
26 57 0
27 59 0
27 60 0
28 61 0
28 62 0
28 64 0
29 65 0
29 66 0
30 68 0
30 69 0
30 70 0
31 72 0
31 73 0
32 74 0
32 76 0
32 77 0
33 78 0
33 80 0
34 81 0
34 82 0
35 84 0
35 85 0
35 86 0
36 88 0
36 89 0
37 90 0
37 92 0
37 93 0
38 95 0
38 96 0
39 97 0
39 99 0
40 100 0
40 102 0
40 103 0
41 104 0
41 106 0
42 107 0
42 109 0
43 110 0
43 111 0
43 113 0
44 114 0
44 116 0
45 117 0
45 119 0
46 120 0
46 121 0
46 123 0
47 124 0
47 126 0
48 127 0
48 128 0
49 130 0
49 131 0
49 133 0
50 134 0
50 135 0
51 137 0
51 138 0
51 140 0
52 141 0
52 142 0
53 144 0
53 145 0
53 146 0
54 148 0
54 149 0
55 151 0
55 152 0
55 153 0
56 155 0
56 156 0
57 157 0
57 159 0
57 160 0
58 161 0
58 162 0
58 164 0
59 165 0
59 166 0
60 168 0
60 169 0
60 170 0
61 171 0
61 172 0
61 174 0
62 175 0
62 176 0
62 177 0
63 178 0
63 180 0
63 181 0
64 182 0
64 183 0
64 184 0
65 185 0
65 186 0
65 188 0
65 189 0
66 190 0
66 191 0
66 192 0
67 193 0
67 194 0
67 195 0
67 196 0
68 197 0
68 198 0
68 199 0
69 200 0
69 201 0
69 202 0
69 203 0
70 204 0
70 204 0
70 205 0
70 206 0
70 207 0
71 208 0
71 209 0
71 210 0
71 210 0
72 211 0
72 212 0
72 213 0
72 214 0
72 214 0
73 215 0
73 216 0
73 216 0
73 217 0
73 218 0
73 219 0
74 219 0
74 220 0
74 221 0
74 221 0
74 222 0
74 222 0
74 223 0
75 224 0
75 224 0
75 225 0
75 225 0
75 226 0
75 226 0
75 227 0
76 227 0
76 228 0
76 228 0
76 229 0
76 229 0
76 230 0
76 230 0
76 231 0
76 231 0
76 232 0
77 232 0
77 232 0
77 233 0
77 233 0
77 234 0
77 234 0
77 234 0
77 235 0
77 235 0
77 235 0
77 236 0
77 236 0
77 236 0
77 236 0
77 237 0
77 237 0
78 237 0
78 238 0
78 238 0
78 238 0
78 238 0
78 239 0
78 239 0
78 239 0
78 239 0
21 36 0
21 37 0
22 38 0
22 40 0
22 41 0
23 42 0
23 43 0
23 44 0
24 45 0
24 47 0
25 48 0
25 49 0
25 50 0
26 52 0
26 53 0
27 54 0
27 55 0
27 57 0
28 58 0
28 59 0
29 60 0
29 62 0
29 63 0
30 64 0
30 65 0
31 67 0
31 68 0
31 69 0
32 71 0
32 72 0
33 73 0
33 75 0
33 76 0
34 77 0
34 79 0
35 80 0
35 81 0
36 83 0
36 84 0
36 86 0
37 87 0
37 88 0
38 90 0
38 91 0
39 92 0
39 94 0
39 95 0
40 97 0
40 98 0
41 99 0
41 101 0
42 102 0
42 104 0
42 105 0
43 107 0
43 108 0
44 109 0
44 111 0
45 112 0
45 114 0
45 115 0
46 116 0
46 118 0
47 119 0
47 121 0
48 122 0
48 124 0
48 125 0
49 126 0
49 128 0
50 129 0
50 131 0
51 132 0
51 133 0
51 135 0
52 136 0
52 138 0
53 139 0
53 140 0
53 142 0
54 143 0
54 145 0
55 146 0
55 147 0
55 149 0
56 150 0
56 151 0
57 153 0
57 154 0
57 155 0
58 157 0
58 158 0
59 159 0
59 161 0
59 162 0
60 163 0
60 165 0
60 166 0
61 167 0
61 168 0
61 170 0
62 171 0
62 172 0
63 173 0
63 175 0
63 176 0
64 177 0
64 178 0
64 179 0
65 180 0
65 182 0
65 183 0
66 184 0
66 185 0
66 186 0
66 187 0
67 188 0
67 189 0
67 190 0
68 192 0
68 193 0
68 194 0
68 195 0
69 196 0
69 197 0
69 198 0
70 199 0
70 200 0
70 201 0
70 201 0
71 202 0
71 203 0
71 204 0
71 205 0
71 206 0
72 207 0
72 208 0
72 209 0
72 209 0
73 210 0
73 211 0
73 212 0
73 213 0
73 213 0
74 214 0
74 215 0
74 216 0
74 216 0
74 217 0
74 218 0
75 218 0
75 219 0
75 220 0
75 220 0
75 221 0
75 222 0
76 222 0
76 223 0
76 223 0
76 224 0
76 225 0
76 225 0
76 226 0
76 226 0
77 227 0
77 227 0
77 228 0
77 228 0
77 229 0
77 229 0
77 230 0
77 230 0
77 231 0
77 231 0
78 231 0
78 232 0
78 232 0
78 233 0
78 233 0
78 233 0
78 234 0
78 234 0
78 234 0
78 235 0
78 235 0
78 235 0
78 236 0
78 236 0
78 236 0
78 237 0
79 237 0
79 237 0
79 237 0
79 238 0
79 238 0
79 238 0
79 238 0
79 239 0
79 239 0
79 239 0
22 35 0
22 36 0
22 38 0
23 39 0
23 40 0
24 41 0
24 42 0
24 43 0
25 45 0
25 46 0
25 47 0
26 48 0
26 49 0
27 51 0
27 52 0
27 53 0
28 54 0
28 56 0
29 57 0
29 58 0
29 59 0
30 61 0
30 62 0
31 63 0
31 65 0
31 66 0
32 67 0
32 69 0
33 70 0
33 71 0
34 73 0
34 74 0
34 75 0
35 77 0
35 78 0
36 79 0
36 81 0
37 82 0
37 83 0
37 85 0
38 86 0
38 88 0
39 89 0
39 90 0
40 92 0
40 93 0
40 94 0
41 96 0
41 97 0
42 99 0
42 100 0
43 102 0
43 103 0
43 104 0
44 106 0
44 107 0
45 109 0
45 110 0
46 111 0
46 113 0
47 114 0
47 116 0
47 117 0
48 119 0
48 120 0
49 121 0
49 123 0
50 124 0
50 126 0
50 127 0
51 129 0
51 130 0
52 131 0
52 133 0
53 134 0
53 136 0
53 137 0
54 138 0
54 140 0
55 141 0
55 143 0
55 144 0
56 145 0
56 147 0
57 148 0
57 150 0
57 151 0
58 152 0
58 154 0
59 155 0
59 156 0
59 158 0
60 159 0
60 160 0
61 162 0
61 163 0
61 164 0
62 165 0
62 167 0
62 168 0
63 169 0
63 170 0
63 172 0
64 173 0
64 174 0
64 175 0
65 177 0
65 178 0
66 179 0
66 180 0
66 181 0
66 182 0
67 184 0
67 185 0
67 186 0
68 187 0
68 188 0
68 189 0
69 190 0
69 191 0
69 192 0
69 193 0
70 194 0
70 195 0
70 196 0
71 197 0
71 198 0
71 199 0
71 200 0
72 201 0
72 202 0
72 203 0
72 204 0
73 205 0
73 206 0
73 207 0
73 207 0
73 208 0
74 209 0
74 210 0
74 211 0
74 212 0
74 212 0
75 213 0
75 214 0
75 215 0
75 215 0
75 216 0
76 217 0
76 217 0
76 218 0
76 219 0
76 219 0
76 220 0
76 221 0
77 221 0
77 222 0
77 223 0
77 223 0
77 224 0
77 224 0
77 225 0
78 225 0
78 226 0
78 226 0
78 227 0
78 228 0
78 228 0
78 228 0
78 229 0
78 229 0
78 230 0
79 230 0
79 231 0
79 231 0
79 232 0
79 232 0
79 232 0
79 233 0
79 233 0
79 233 0
79 234 0
79 234 0
79 234 0
79 235 0
79 235 0
79 235 0
79 236 0
80 236 0
80 236 0
80 237 0
80 237 0
80 237 0
80 237 0
80 238 0
80 238 0
80 238 0
80 238 0
80 239 0
80 239 0
23 34 0
23 35 0
23 37 0
24 38 0
24 39 0
24 40 0
25 41 0
25 42 0
26 44 0
26 45 0
26 46 0
27 47 0
27 49 0
28 50 0
28 51 0
28 52 0
29 54 0
29 55 0
30 56 0
30 57 0
30 59 0
31 60 0
31 61 0
32 62 0
32 64 0
32 65 0
33 66 0
33 68 0
34 69 0
34 70 0
35 72 0
35 73 0
35 74 0
36 76 0
36 77 0
37 78 0
37 80 0
38 81 0
38 83 0
38 84 0
39 85 0
39 87 0
40 88 0
40 90 0
41 91 0
41 92 0
41 94 0
42 95 0
42 97 0
43 98 0
43 99 0
44 101 0
44 102 0
45 104 0
45 105 0
45 107 0
46 108 0
46 109 0
47 111 0
47 112 0
48 114 0
48 115 0
49 117 0
49 118 0
49 119 0
50 121 0
50 122 0
51 124 0
51 125 0
52 127 0
52 128 0
52 129 0
53 131 0
53 132 0
54 134 0
54 135 0
55 136 0
55 138 0
55 139 0
56 141 0
56 142 0
57 144 0
57 145 0
57 146 0
58 148 0
58 149 0
59 150 0
59 152 0
59 153 0
60 154 0
60 156 0
61 157 0
61 158 0
61 160 0
62 161 0
62 162 0
63 164 0
63 165 0
63 166 0
64 168 0
64 169 0
64 170 0
65 171 0
65 173 0
65 174 0
66 175 0
66 176 0
66 177 0
67 179 0
67 180 0
67 181 0
68 182 0
68 183 0
68 184 0
69 185 0
69 187 0
69 188 0
70 189 0
70 190 0
70 191 0
70 192 0
71 193 0
71 194 0
71 195 0
72 196 0
72 197 0
72 198 0
72 199 0
73 200 0
73 201 0
73 202 0
73 203 0
74 204 0
74 205 0
74 205 0
74 206 0
74 207 0
75 208 0
75 209 0
75 210 0
75 211 0
75 211 0
76 212 0
76 213 0
76 214 0
76 214 0
76 215 0
77 216 0
77 217 0
77 217 0
77 218 0
77 219 0
77 219 0
78 220 0
78 221 0
78 221 0
78 222 0
78 222 0
78 223 0
78 224 0
78 224 0
79 225 0
79 225 0
79 226 0
79 226 0
79 227 0
79 227 0
79 228 0
79 228 0
79 229 0
79 229 0
80 230 0
80 230 0
80 231 0
80 231 0
80 231 0
80 232 0
80 232 0
80 233 0
80 233 0
80 233 0
80 234 0
80 234 0
80 234 0
80 235 0
80 235 0
81 235 0
81 236 0
81 236 0
81 236 0
81 236 0
81 237 0
81 237 0
81 237 0
81 237 0
81 238 0
81 238 0
81 238 0
81 238 0
81 239 0
23 33 0
24 35 0
24 36 0
25 37 0
25 38 0
25 39 0
26 40 0
26 42 0
26 43 0
27 44 0
27 45 0
28 46 0
28 48 0
28 49 0
29 50 0
29 51 0
30 53 0
30 54 0
31 55 0
31 56 0
31 58 0
32 59 0
32 60 0
33 62 0
33 63 0
33 64 0
34 66 0
34 67 0
35 68 0
35 70 0
36 71 0
36 72 0
36 74 0
37 75 0
37 76 0
38 78 0
38 79 0
39 80 0
39 82 0
39 83 0
40 85 0
40 86 0
41 87 0
41 89 0
42 90 0
42 92 0
43 93 0
43 94 0
43 96 0
44 97 0
44 99 0
45 100 0
45 101 0
46 103 0
46 104 0
47 106 0
47 107 0
47 109 0
48 110 0
48 112 0
49 113 0
49 114 0
50 116 0
50 117 0
51 119 0
51 120 0
51 122 0
52 123 0
52 124 0
53 126 0
53 127 0
54 129 0
54 130 0
54 132 0
55 133 0
55 134 0
56 136 0
56 137 0
57 139 0
57 140 0
57 142 0
58 143 0
58 144 0
59 146 0
59 147 0
60 148 0
60 150 0
60 151 0
61 153 0
61 154 0
62 155 0
62 157 0
62 158 0
63 159 0
63 161 0
63 162 0
64 163 0
64 165 0
65 166 0
65 167 0
65 168 0
66 170 0
66 171 0
66 172 0
67 173 0
67 175 0
67 176 0
68 177 0
68 178 0
68 179 0
69 181 0
69 182 0
69 183 0
70 184 0
70 185 0
70 186 0
71 187 0
71 188 0
71 190 0
71 191 0
72 192 0
72 193 0
72 194 0
73 195 0
73 196 0
73 197 0
73 198 0
74 199 0
74 200 0
74 201 0
74 202 0
75 203 0
75 203 0
75 204 0
75 205 0
76 206 0
76 207 0
76 208 0
76 209 0
76 209 0
77 210 0
77 211 0
77 212 0
77 213 0
77 213 0
77 214 0
78 215 0
78 216 0
78 216 0
78 217 0
78 218 0
78 218 0
79 219 0
79 220 0
79 220 0
79 221 0
79 222 0
79 222 0
79 223 0
80 223 0
80 224 0
80 224 0
80 225 0
80 226 0
80 226 0
80 227 0
80 227 0
80 228 0
80 228 0
81 229 0
81 229 0
81 229 0
81 230 0
81 230 0
81 231 0
81 231 0
81 232 0
81 232 0
81 232 0
81 233 0
81 233 0
81 233 0
81 234 0
81 234 0
82 234 0
82 235 0
82 235 0
82 235 0
82 236 0
82 236 0
82 236 0
82 236 0
82 237 0
82 237 0
82 237 0
82 237 0
82 238 0
82 238 0
82 238 0
82 238 0
24 32 0
25 34 0
25 35 0
25 36 0
26 37 0
26 38 0
27 39 0
27 41 0
27 42 0
28 43 0
28 44 0
29 46 0
29 47 0
29 48 0
30 49 0
30 50 0
31 52 0
31 53 0
31 54 0
32 56 0
32 57 0
33 58 0
33 59 0
34 61 0
34 62 0
34 63 0
35 65 0
35 66 0
36 67 0
36 69 0
37 70 0
37 71 0
37 73 0
38 74 0
38 75 0
39 77 0
39 78 0
40 80 0
40 81 0
41 82 0
41 84 0
41 85 0
42 87 0
42 88 0
43 89 0
43 91 0
44 92 0
44 94 0
45 95 0
45 96 0
45 98 0
46 99 0
46 101 0
47 102 0
47 104 0
48 105 0
48 106 0
49 108 0
49 109 0
49 111 0
50 112 0
50 114 0
51 115 0
51 117 0
52 118 0
52 120 0
53 121 0
53 122 0
53 124 0
54 125 0
54 127 0
55 128 0
55 130 0
56 131 0
56 132 0
57 134 0
57 135 0
57 137 0
58 138 0
58 140 0
59 141 0
59 142 0
60 144 0
60 145 0
60 147 0
61 148 0
61 149 0
62 151 0
62 152 0
62 153 0
63 155 0
63 156 0
64 157 0
64 159 0
64 160 0
65 161 0
65 163 0
65 164 0
66 165 0
66 167 0
67 168 0
67 169 0
67 170 0
68 172 0
68 173 0
68 174 0
69 175 0
69 177 0
69 178 0
70 179 0
70 180 0
70 181 0
71 183 0
71 184 0
71 185 0
72 186 0
72 187 0
72 188 0
72 189 0
73 190 0
73 191 0
73 192 0
74 193 0
74 194 0
74 195 0
74 196 0
75 197 0
75 198 0
75 199 0
75 200 0
76 201 0
76 202 0
76 203 0
76 204 0
77 205 0
77 206 0
77 207 0
77 208 0
77 208 0
78 209 0
78 210 0
78 211 0
78 212 0
78 212 0
79 213 0
79 214 0
79 215 0
79 215 0
79 216 0
79 217 0
80 217 0
80 218 0
80 219 0
80 219 0
80 220 0
80 221 0
80 221 0
81 222 0
81 223 0
81 223 0
81 224 0
81 224 0
81 225 0
81 225 0
81 226 0
81 226 0
81 227 0
82 227 0
82 228 0
82 228 0
82 229 0
82 229 0
82 230 0
82 230 0
82 230 0
82 231 0
82 231 0
82 232 0
82 232 0
82 232 0
82 233 0
83 233 0
83 233 0
83 234 0
83 234 0
83 234 0
83 235 0
83 235 0
83 235 0
83 236 0
83 236 0
83 236 0
83 236 0
83 237 0
83 237 0
83 237 0
83 237 0
83 238 0
83 238 0
83 238 0
25 32 0
26 33 0
26 34 0
26 35 0
27 36 0
27 37 0
27 39 0
28 40 0
28 41 0
29 42 0
29 43 0
29 45 0
30 46 0
30 47 0
31 48 0
31 50 0
32 51 0
32 52 0
32 53 0
33 55 0
33 56 0
34 57 0
34 59 0
35 60 0
35 61 0
35 62 0
36 64 0
36 65 0
37 66 0
37 68 0
38 69 0
38 70 0
38 72 0
39 73 0
39 75 0
40 76 0
40 77 0
41 79 0
41 80 0
42 81 0
42 83 0
42 84 0
43 86 0
43 87 0
44 89 0
44 90 0
45 91 0
45 93 0
46 94 0
46 96 0
47 97 0
47 99 0
47 100 0
48 101 0
48 103 0
49 104 0
49 106 0
50 107 0
50 109 0
51 110 0
51 112 0
52 113 0
52 114 0
52 116 0
53 117 0
53 119 0
54 120 0
54 122 0
55 123 0
55 125 0
56 126 0
56 128 0
56 129 0
57 130 0
57 132 0
58 133 0
58 135 0
59 136 0
59 138 0
60 139 0
60 140 0
60 142 0
61 143 0
61 145 0
62 146 0
62 147 0
62 149 0
63 150 0
63 152 0
64 153 0
64 154 0
64 156 0
65 157 0
65 158 0
66 160 0
66 161 0
66 162 0
67 164 0
67 165 0
68 166 0
68 168 0
68 169 0
69 170 0
69 171 0
69 173 0
70 174 0
70 175 0
70 176 0
71 177 0
71 179 0
71 180 0
72 181 0
72 182 0
72 183 0
73 184 0
73 186 0
73 187 0
74 188 0
74 189 0
74 190 0
74 191 0
75 192 0
75 193 0
75 194 0
75 195 0
76 196 0
76 197 0
76 198 0
76 199 0
77 200 0
77 201 0
77 202 0
77 203 0
78 204 0
78 205 0
78 206 0
78 206 0
79 207 0
79 208 0
79 209 0
79 210 0
79 211 0
79 211 0
80 212 0
80 213 0
80 214 0
80 214 0
80 215 0
80 216 0
81 217 0
81 217 0
81 218 0
81 219 0
81 219 0
81 220 0
81 220 0
82 221 0
82 222 0
82 222 0
82 223 0
82 223 0
82 224 0
82 225 0
82 225 0
83 226 0
83 226 0
83 227 0
83 227 0
83 228 0
83 228 0
83 229 0
83 229 0
83 229 0
83 230 0
83 230 0
83 231 0
83 231 0
83 231 0
84 232 0
84 232 0
84 233 0
84 233 0
84 233 0
84 234 0
84 234 0
84 234 0
84 235 0
84 235 0
84 235 0
84 235 0
84 236 0
84 236 0
84 236 0
84 236 0
84 237 0
84 237 0
84 237 0
84 237 0
84 238 0
84 238 0
26 31 0
26 32 0
27 33 0
27 34 0
28 35 0
28 36 0
28 38 0
29 39 0
29 40 0
30 41 0
30 42 0
30 44 0
31 45 0
31 46 0
32 47 0
32 49 0
32 50 0
33 51 0
33 52 0
34 54 0
34 55 0
35 56 0
35 58 0
35 59 0
36 60 0
36 62 0
37 63 0
37 64 0
38 66 0
38 67 0
39 68 0
39 70 0
39 71 0
40 72 0
40 74 0
41 75 0
41 76 0
42 78 0
42 79 0
43 81 0
43 82 0
44 83 0
44 85 0
44 86 0
45 88 0
45 89 0
46 91 0
46 92 0
47 93 0
47 95 0
48 96 0
48 98 0
49 99 0
49 101 0
49 102 0
50 104 0
50 105 0
51 106 0
51 108 0
52 109 0
52 111 0
53 112 0
53 114 0
54 115 0
54 117 0
55 118 0
55 120 0
55 121 0
56 123 0
56 124 0
57 125 0
57 127 0
58 128 0
58 130 0
59 131 0
59 133 0
59 134 0
60 136 0
60 137 0
61 138 0
61 140 0
62 141 0
62 143 0
62 144 0
63 145 0
63 147 0
64 148 0
64 150 0
65 151 0
65 152 0
65 154 0
66 155 0
66 157 0
67 158 0
67 159 0
67 161 0
68 162 0
68 163 0
68 164 0
69 166 0
69 167 0
70 168 0
70 170 0
70 171 0
71 172 0
71 173 0
71 175 0
72 176 0
72 177 0
72 178 0
73 179 0
73 181 0
73 182 0
74 183 0
74 184 0
74 185 0
75 186 0
75 187 0
75 189 0
75 190 0
76 191 0
76 192 0
76 193 0
77 194 0
77 195 0
77 196 0
77 197 0
78 198 0
78 199 0
78 200 0
78 201 0
79 202 0
79 203 0
79 203 0
79 204 0
79 205 0
80 206 0
80 207 0
80 208 0
80 209 0
80 209 0
81 210 0
81 211 0
81 212 0
81 213 0
81 213 0
81 214 0
82 215 0
82 216 0
82 216 0
82 217 0
82 218 0
82 218 0
82 219 0
83 220 0
83 220 0
83 221 0
83 221 0
83 222 0
83 223 0
83 223 0
83 224 0
84 224 0
84 225 0
84 225 0
84 226 0
84 226 0
84 227 0
84 227 0
84 228 0
84 228 0
84 229 0
84 229 0
84 230 0
84 230 0
85 230 0
85 231 0
85 231 0
85 232 0
85 232 0
85 232 0
85 233 0
85 233 0
85 233 0
85 234 0
85 234 0
85 234 0
85 235 0
85 235 0
85 235 0
85 235 0
85 236 0
85 236 0
85 236 0
85 236 0
85 237 0
85 237 0
85 237 0
85 237 0
85 238 0
27 30 0
27 31 0
28 32 0
28 33 0
28 34 0
29 35 0
29 37 0
30 38 0
30 39 0
30 40 0
31 42 0
31 43 0
32 44 0
32 45 0
33 46 0
33 48 0
33 49 0
34 50 0
34 52 0
35 53 0
35 54 0
36 55 0
36 57 0
36 58 0
37 59 0
37 61 0
38 62 0
38 63 0
39 65 0
39 66 0
40 67 0
40 69 0
40 70 0
41 71 0
41 73 0
42 74 0
42 76 0
43 77 0
43 78 0
44 80 0
44 81 0
45 83 0
45 84 0
46 85 0
46 87 0
46 88 0
47 90 0
47 91 0
48 93 0
48 94 0
49 96 0
49 97 0
50 98 0
50 100 0
51 101 0
51 103 0
52 104 0
52 106 0
53 107 0
53 109 0
53 110 0
54 112 0
54 113 0
55 114 0
55 116 0
56 117 0
56 119 0
57 120 0
57 122 0
58 123 0
58 125 0
58 126 0
59 128 0
59 129 0
60 131 0
60 132 0
61 133 0
61 135 0
62 136 0
62 138 0
62 139 0
63 141 0
63 142 0
64 143 0
64 145 0
65 146 0
65 148 0
65 149 0
66 150 0
66 152 0
67 153 0
67 155 0
67 156 0
68 157 0
68 159 0
69 160 0
69 161 0
69 163 0
70 164 0
70 165 0
71 167 0
71 168 0
71 169 0
72 170 0
72 172 0
72 173 0
73 174 0
73 175 0
73 177 0
74 178 0
74 179 0
74 180 0
75 181 0
75 183 0
75 184 0
76 185 0
76 186 0
76 187 0
76 188 0
77 189 0
77 190 0
77 191 0
78 192 0
78 193 0
78 195 0
78 196 0
79 197 0
79 198 0
79 199 0
79 199 0
80 200 0
80 201 0
80 202 0
80 203 0
80 204 0
81 205 0
81 206 0
81 207 0
81 208 0
82 208 0
82 209 0
82 210 0
82 211 0
82 212 0
82 212 0
83 213 0
83 214 0
83 215 0
83 215 0
83 216 0
83 217 0
83 217 0
84 218 0
84 219 0
84 219 0
84 220 0
84 221 0
84 221 0
84 222 0
84 222 0
85 223 0
85 223 0
85 224 0
85 225 0
85 225 0
85 226 0
85 226 0
85 227 0
85 227 0
85 228 0
85 228 0
85 228 0
86 229 0
86 229 0
86 230 0
86 230 0
86 231 0
86 231 0
86 231 0
86 232 0
86 232 0
86 232 0
86 233 0
86 233 0
86 233 0
86 234 0
86 234 0
86 234 0
86 235 0
86 235 0
86 235 0
86 235 0
86 236 0
86 236 0
86 236 0
86 236 0
86 237 0
86 237 0
86 237 0
86 237 0
28 29 0
28 30 0
29 31 0
29 32 0
29 33 0
30 35 0
30 36 0
31 37 0
31 38 0
31 39 0
32 41 0
32 42 0
33 43 0
33 44 0
34 46 0
34 47 0
34 48 0
35 49 0
35 51 0
36 52 0
36 53 0
37 54 0
37 56 0
37 57 0
38 58 0
38 60 0
39 61 0
39 62 0
40 64 0
40 65 0
41 66 0
41 68 0
42 69 0
42 71 0
42 72 0
43 73 0
43 75 0
44 76 0
44 78 0
45 79 0
45 80 0
46 82 0
46 83 0
47 85 0
47 86 0
48 87 0
48 89 0
49 90 0
49 92 0
49 93 0
50 95 0
50 96 0
51 98 0
51 99 0
52 101 0
52 102 0
53 103 0
53 105 0
54 106 0
54 108 0
55 109 0
55 111 0
56 112 0
56 114 0
56 115 0
57 117 0
57 118 0
58 120 0
58 121 0
59 123 0
59 124 0
60 126 0
60 127 0
61 128 0
61 130 0
62 131 0
62 133 0
62 134 0
63 136 0
63 137 0
64 139 0
64 140 0
65 141 0
65 143 0
65 144 0
66 146 0
66 147 0
67 149 0
67 150 0
68 151 0
68 153 0
68 154 0
69 155 0
69 157 0
70 158 0
70 160 0
70 161 0
71 162 0
71 164 0
71 165 0
72 166 0
72 167 0
73 169 0
73 170 0
73 171 0
74 173 0
74 174 0
74 175 0
75 176 0
75 177 0
75 179 0
76 180 0
76 181 0
76 182 0
77 183 0
77 184 0
77 186 0
78 187 0
78 188 0
78 189 0
78 190 0
79 191 0
79 192 0
79 193 0
79 194 0
80 195 0
80 196 0
80 197 0
80 198 0
81 199 0
81 200 0
81 201 0
81 202 0
82 203 0
82 204 0
82 205 0
82 206 0
82 206 0
83 207 0
83 208 0
83 209 0
83 210 0
83 211 0
84 211 0
84 212 0
84 213 0
84 214 0
84 214 0
84 215 0
84 216 0
85 216 0
85 217 0
85 218 0
85 218 0
85 219 0
85 220 0
85 220 0
85 221 0
86 222 0
86 222 0
86 223 0
86 223 0
86 224 0
86 224 0
86 225 0
86 225 0
86 226 0
86 226 0
86 227 0
87 227 0
87 228 0
87 228 0
87 229 0
87 229 0
87 229 0
87 230 0
87 230 0
87 231 0
87 231 0
87 231 0
87 232 0
87 232 0
87 232 0
87 233 0
87 233 0
87 233 0
87 234 0
87 234 0
87 234 0
87 235 0
87 235 0
87 235 0
87 235 0
87 236 0
87 236 0
87 236 0
87 236 0
87 237 0
87 237 0
87 237 0
29 28 0
29 29 0
29 30 0
30 31 0
30 32 0
31 34 0
31 35 0
31 36 0
32 37 0
32 38 0
33 40 0
33 41 0
34 42 0
34 43 0
34 45 0
35 46 0
35 47 0
36 48 0
36 50 0
37 51 0
37 52 0
38 54 0
38 55 0
38 56 0
39 58 0
39 59 0
40 60 0
40 62 0
41 63 0
41 64 0
42 66 0
42 67 0
43 68 0
43 70 0
43 71 0
44 72 0
44 74 0
45 75 0
45 77 0
46 78 0
46 80 0
47 81 0
47 82 0
48 84 0
48 85 0
49 87 0
49 88 0
50 90 0
50 91 0
51 92 0
51 94 0
52 95 0
52 97 0
52 98 0
53 100 0
53 101 0
54 103 0
54 104 0
55 106 0
55 107 0
56 109 0
56 110 0
57 112 0
57 113 0
58 115 0
58 116 0
59 117 0
59 119 0
60 120 0
60 122 0
60 123 0
61 125 0
61 126 0
62 128 0
62 129 0
63 131 0
63 132 0
64 134 0
64 135 0
65 137 0
65 138 0
65 139 0
66 141 0
66 142 0
67 144 0
67 145 0
68 147 0
68 148 0
68 149 0
69 151 0
69 152 0
70 154 0
70 155 0
70 156 0
71 158 0
71 159 0
72 160 0
72 162 0
72 163 0
73 164 0
73 166 0
74 167 0
74 168 0
74 170 0
75 171 0
75 172 0
75 173 0
76 175 0
76 176 0
76 177 0
77 178 0
77 179 0
77 181 0
78 182 0
78 183 0
78 184 0
79 185 0
79 186 0
79 187 0
79 189 0
80 190 0
80 191 0
80 192 0
81 193 0
81 194 0
81 195 0
81 196 0
82 197 0
82 198 0
82 199 0
82 200 0
82 201 0
83 202 0
83 203 0
83 203 0
83 204 0
84 205 0
84 206 0
84 207 0
84 208 0
84 209 0
85 209 0
85 210 0
85 211 0
85 212 0
85 213 0
85 213 0
85 214 0
86 215 0
86 215 0
86 216 0
86 217 0
86 217 0
86 218 0
86 219 0
87 219 0
87 220 0
87 221 0
87 221 0
87 222 0
87 222 0
87 223 0
87 224 0
87 224 0
87 225 0
87 225 0
88 226 0
88 226 0
88 227 0
88 227 0
88 227 0
88 228 0
88 228 0
88 229 0
88 229 0
88 230 0
88 230 0
88 230 0
88 231 0
88 231 0
88 232 0
88 232 0
88 232 0
88 233 0
88 233 0
88 233 0
88 233 0
88 234 0
88 234 0
88 234 0
88 235 0
88 235 0
88 235 0
88 235 0
88 236 0
88 236 0
88 236 0
88 236 0
88 236 0
88 237 0
29 27 0
30 28 0
30 29 0
31 30 0
31 31 0
32 33 0
32 34 0
32 35 0
33 36 0
33 37 0
34 39 0
34 40 0
35 41 0
35 42 0
35 44 0
36 45 0
36 46 0
37 47 0
37 49 0
38 50 0
38 51 0
39 53 0
39 54 0
39 55 0
40 57 0
40 58 0
41 59 0
41 61 0
42 62 0
42 63 0
43 65 0
43 66 0
44 67 0
44 69 0
45 70 0
45 72 0
45 73 0
46 74 0
46 76 0
47 77 0
47 79 0
48 80 0
48 81 0
49 83 0
49 84 0
50 86 0
50 87 0
51 89 0
51 90 0
52 92 0
52 93 0
53 95 0
53 96 0
54 97 0
54 99 0
55 100 0
55 102 0
56 103 0
56 105 0
57 106 0
57 108 0
57 109 0
58 111 0
58 112 0
59 114 0
59 115 0
60 117 0
60 118 0
61 120 0
61 121 0
62 123 0
62 124 0
63 126 0
63 127 0
64 129 0
64 130 0
65 132 0
65 133 0
65 134 0
66 136 0
66 137 0
67 139 0
67 140 0
68 142 0
68 143 0
68 145 0
69 146 0
69 147 0
70 149 0
70 150 0
71 152 0
71 153 0
71 154 0
72 156 0
72 157 0
73 158 0
73 160 0
73 161 0
74 163 0
74 164 0
75 165 0
75 166 0
75 168 0
76 169 0
76 170 0
76 172 0
77 173 0
77 174 0
77 175 0
78 177 0
78 178 0
78 179 0
79 180 0
79 181 0
79 182 0
80 184 0
80 185 0
80 186 0
81 187 0
81 188 0
81 189 0
81 190 0
82 191 0
82 192 0
82 193 0
82 195 0
83 196 0
83 197 0
83 198 0
83 198 0
84 199 0
84 200 0
84 201 0
84 202 0
84 203 0
85 204 0
85 205 0
85 206 0
85 207 0
85 207 0
86 208 0
86 209 0
86 210 0
86 211 0
86 211 0
86 212 0
87 213 0
87 214 0
87 214 0
87 215 0
87 216 0
87 217 0
87 217 0
88 218 0
88 219 0
88 219 0
88 220 0
88 220 0
88 221 0
88 222 0
88 222 0
88 223 0
88 223 0
89 224 0
89 224 0
89 225 0
89 225 0
89 226 0
89 226 0
89 227 0
89 227 0
89 228 0
89 228 0
89 229 0
89 229 0
89 229 0
89 230 0
89 230 0
89 231 0
89 231 0
89 231 0
89 232 0
89 232 0
89 232 0
89 233 0
89 233 0
89 233 0
89 233 0
89 234 0
89 234 0
89 234 0
89 235 0
89 235 0
89 235 0
89 235 0
89 236 0
89 236 0
89 236 0
89 236 0
89 236 0
30 26 0
31 27 0
31 28 0
32 29 0
32 30 0
32 32 0
33 33 0
33 34 0
34 35 0
34 36 0
35 38 0
35 39 0
35 40 0
36 41 0
36 43 0
37 44 0
37 45 0
38 47 0
38 48 0
39 49 0
39 50 0
40 52 0
40 53 0
40 54 0
41 56 0
41 57 0
42 58 0
42 60 0
43 61 0
43 62 0
44 64 0
44 65 0
45 67 0
45 68 0
46 69 0
46 71 0
47 72 0
47 73 0
48 75 0
48 76 0
49 78 0
49 79 0
49 81 0
50 82 0
50 84 0
51 85 0
51 86 0
52 88 0
52 89 0
53 91 0
53 92 0
54 94 0
54 95 0
55 97 0
55 98 0
56 100 0
56 101 0
57 103 0
57 104 0
58 106 0
58 107 0
59 109 0
59 110 0
60 112 0
60 113 0
61 115 0
61 116 0
62 118 0
62 119 0
63 120 0
63 122 0
63 123 0
64 125 0
64 126 0
65 128 0
65 129 0
66 131 0
66 132 0
67 134 0
67 135 0
68 137 0
68 138 0
68 140 0
69 141 0
69 143 0
70 144 0
70 145 0
71 147 0
71 148 0
72 150 0
72 151 0
72 152 0
73 154 0
73 155 0
74 157 0
74 158 0
74 159 0
75 161 0
75 162 0
76 163 0
76 165 0
76 166 0
77 167 0
77 169 0
77 170 0
78 171 0
78 172 0
78 174 0
79 175 0
79 176 0
79 177 0
80 179 0
80 180 0
80 181 0
81 182 0
81 183 0
81 184 0
82 186 0
82 187 0
82 188 0
82 189 0
83 190 0
83 191 0
83 192 0
84 193 0
84 194 0
84 195 0
84 196 0
85 197 0
85 198 0
85 199 0
85 200 0
85 201 0
86 202 0
86 203 0
86 204 0
86 205 0
86 205 0
87 206 0
87 207 0
87 208 0
87 209 0
87 210 0
87 210 0
88 211 0
88 212 0
88 213 0
88 213 0
88 214 0
88 215 0
89 216 0
89 216 0
89 217 0
89 218 0
89 218 0
89 219 0
89 219 0
89 220 0
89 221 0
89 221 0
90 222 0
90 222 0
90 223 0
90 223 0
90 224 0
90 225 0
90 225 0
90 226 0
90 226 0
90 226 0
90 227 0
90 227 0
90 228 0
90 228 0
90 229 0
90 229 0
90 229 0
90 230 0
91 230 0
91 231 0
91 231 0
91 231 0
91 232 0
91 232 0
91 232 0
91 233 0
91 233 0
91 233 0
91 233 0
91 234 0
91 234 0
91 234 0
91 235 0
91 235 0
91 235 0
91 235 0
90 235 0
90 236 0
90 236 0
90 236 0
31 25 0
32 26 0
32 27 0
33 28 0
33 30 0
33 31 0
34 32 0
34 33 0
35 34 0
35 36 0
36 37 0
36 38 0
36 39 0
37 40 0
37 42 0
38 43 0
38 44 0
39 46 0
39 47 0
40 48 0
40 49 0
41 51 0
41 52 0
41 53 0
42 55 0
42 56 0
43 57 0
43 59 0
44 60 0
44 61 0
45 63 0
45 64 0
46 66 0
46 67 0
47 68 0
47 70 0
48 71 0
48 73 0
49 74 0
49 75 0
50 77 0
50 78 0
51 80 0
51 81 0
52 83 0
52 84 0
53 86 0
53 87 0
54 88 0
54 90 0
55 91 0
55 93 0
56 94 0
56 96 0
56 97 0
57 99 0
57 100 0
58 102 0
58 103 0
59 105 0
59 106 0
60 108 0
60 109 0
61 111 0
61 112 0
62 114 0
62 115 0
63 117 0
63 118 0
64 120 0
64 121 0
65 123 0
65 124 0
66 126 0
66 127 0
67 129 0
67 130 0
68 132 0
68 133 0
68 135 0
69 136 0
69 138 0
70 139 0
70 140 0
71 142 0
71 143 0
72 145 0
72 146 0
72 148 0
73 149 0
73 150 0
74 152 0
74 153 0
75 155 0
75 156 0
75 157 0
76 159 0
76 160 0
77 161 0
77 163 0
77 164 0
78 165 0
78 167 0
78 168 0
79 169 0
79 171 0
79 172 0
80 173 0
80 174 0
80 176 0
81 177 0
81 178 0
81 179 0
82 180 0
82 182 0
82 183 0
83 184 0
83 185 0
83 186 0
84 187 0
84 188 0
84 190 0
84 191 0
85 192 0
85 193 0
85 194 0
85 195 0
86 196 0
86 197 0
86 198 0
86 199 0
87 200 0
87 201 0
87 202 0
87 202 0
87 203 0
88 204 0
88 205 0
88 206 0
88 207 0
88 208 0
89 208 0
89 209 0
89 210 0
89 211 0
89 212 0
89 212 0
89 213 0
90 214 0
90 215 0
90 215 0
90 216 0
90 217 0
90 217 0
90 218 0
90 219 0
90 219 0
91 220 0
91 220 0
91 221 0
91 222 0
91 222 0
91 223 0
91 223 0
91 224 0
91 224 0
91 225 0
91 225 0
91 226 0
91 226 0
91 227 0
92 227 0
92 228 0
92 228 0
92 228 0
92 229 0
92 229 0
92 230 0
92 230 0
92 230 0
92 231 0
92 231 0
92 231 0
92 232 0
92 232 0
92 232 0
92 233 0
92 233 0
92 233 0
92 233 0
92 234 0
92 234 0
92 234 0
92 234 0
92 235 0
92 235 0
92 235 0
92 235 0
92 236 0
91 236 0
32 24 0
33 25 0
33 26 0
33 27 0
34 29 0
34 30 0
35 31 0
35 32 0
36 33 0
36 35 0
37 36 0
37 37 0
37 38 0
38 39 0
38 41 0
39 42 0
39 43 0
40 45 0
40 46 0
41 47 0
41 48 0
42 50 0
42 51 0
42 52 0
43 54 0
43 55 0
44 56 0
44 58 0
45 59 0
45 61 0
46 62 0
46 63 0
47 65 0
47 66 0
48 67 0
48 69 0
49 70 0
49 72 0
50 73 0
50 75 0
51 76 0
51 77 0
52 79 0
52 80 0
53 82 0
53 83 0
54 85 0
54 86 0
55 88 0
55 89 0
56 91 0
56 92 0
57 94 0
57 95 0
58 97 0
58 98 0
59 99 0
59 101 0
60 102 0
60 104 0
61 105 0
61 107 0
62 108 0
62 110 0
63 112 0
63 113 0
64 115 0
64 116 0
65 118 0
65 119 0
66 121 0
66 122 0
67 124 0
67 125 0
67 127 0
68 128 0
68 129 0
69 131 0
69 132 0
70 134 0
70 135 0
71 137 0
71 138 0
72 140 0
72 141 0
72 143 0
73 144 0
73 146 0
74 147 0
74 148 0
75 150 0
75 151 0
75 153 0
76 154 0
76 155 0
77 157 0
77 158 0
77 160 0
78 161 0
78 162 0
79 164 0
79 165 0
79 166 0
80 168 0
80 169 0
80 170 0
81 171 0
81 173 0
82 174 0
82 175 0
82 176 0
83 178 0
83 179 0
83 180 0
83 181 0
84 182 0
84 184 0
84 185 0
85 186 0
85 187 0
85 188 0
86 189 0
86 190 0
86 191 0
86 192 0
87 193 0
87 194 0
87 195 0
87 196 0
88 197 0
88 198 0
88 199 0
88 200 0
88 201 0
89 202 0
89 203 0
89 204 0
89 205 0
89 206 0
90 207 0
90 207 0
90 208 0
90 209 0
90 210 0
90 211 0
90 211 0
91 212 0
91 213 0
91 214 0
91 214 0
91 215 0
91 216 0
91 216 0
91 217 0
92 218 0
92 218 0
92 219 0
92 219 0
92 220 0
92 221 0
92 221 0
92 222 0
92 222 0
92 223 0
92 223 0
92 224 0
93 224 0
93 225 0
93 225 0
93 226 0
93 226 0
93 227 0
93 227 0
93 228 0
93 228 0
93 228 0
93 229 0
93 229 0
93 230 0
93 230 0
93 230 0
93 231 0
93 231 0
93 231 0
93 232 0
93 232 0
93 232 0
93 233 0
93 233 0
93 233 0
93 233 0
93 234 0
93 234 0
93 234 0
93 234 0
93 235 0
93 235 0
93 235 0
93 235 0
93 235 0
33 23 0
33 24 0
34 25 0
34 26 0
35 28 0
35 29 0
36 30 0
36 31 0
37 32 0
37 34 0
37 35 0
38 36 0
38 37 0
39 39 0
39 40 0
40 41 0
40 42 0
41 44 0
41 45 0
42 46 0
42 47 0
43 49 0
43 50 0
44 51 0
44 53 0
44 54 0
45 55 0
45 57 0
46 58 0
46 60 0
47 61 0
47 62 0
48 64 0
48 65 0
49 67 0
49 68 0
50 69 0
50 71 0
51 72 0
51 74 0
52 75 0
52 77 0
53 78 0
53 79 0
54 81 0
54 82 0
55 84 0
55 85 0
56 87 0
56 88 0
57 90 0
57 91 0
58 93 0
58 94 0
59 96 0
59 97 0
60 99 0
60 100 0
61 102 0
61 103 0
62 105 0
62 106 0
63 108 0
63 109 0
64 111 0
64 112 0
65 114 0
65 115 0
66 117 0
66 118 0
67 120 0
67 121 0
68 123 0
68 124 0
69 126 0
69 127 0
70 129 0
70 130 0
71 132 0
71 133 0
72 135 0
72 136 0
72 138 0
73 139 0
73 141 0
74 142 0
74 144 0
75 145 0
75 146 0
76 148 0
76 149 0
76 151 0
77 152 0
77 154 0
78 155 0
78 156 0
78 158 0
79 159 0
79 160 0
80 162 0
80 163 0
80 164 0
81 166 0
81 167 0
82 168 0
82 170 0
82 171 0
83 172 0
83 173 0
83 175 0
84 176 0
84 177 0
84 178 0
85 180 0
85 181 0
85 182 0
85 183 0
86 184 0
86 185 0
86 187 0
87 188 0
87 189 0
87 190 0
87 191 0
88 192 0
88 193 0
88 194 0
88 195 0
89 196 0
89 197 0
89 198 0
89 199 0
90 200 0
90 201 0
90 202 0
90 203 0
90 204 0
91 204 0
91 205 0
91 206 0
91 207 0
91 208 0
91 209 0
92 209 0
92 210 0
92 211 0
92 212 0
92 212 0
92 213 0
92 214 0
92 215 0
93 215 0
93 216 0
93 217 0
93 217 0
93 218 0
93 219 0
93 219 0
93 220 0
93 220 0
93 221 0
93 221 0
94 222 0
94 223 0
94 223 0
94 224 0
94 224 0
94 225 0
94 225 0
94 226 0
94 226 0
94 226 0
94 227 0
94 227 0
94 228 0
94 228 0
94 229 0
94 229 0
94 229 0
94 230 0
94 230 0
94 230 0
94 231 0
94 231 0
94 231 0
94 232 0
94 232 0
94 232 0
94 233 0
94 233 0
94 233 0
94 233 0
94 234 0
94 234 0
94 234 0
94 234 0
94 234 0
94 235 0
94 235 0
94 235 0
34 22 0
34 23 0
35 24 0
35 25 0
36 27 0
36 28 0
37 29 0
37 30 0
38 31 0
38 33 0
38 34 0
39 35 0
39 36 0
40 38 0
40 39 0
41 40 0
41 41 0
42 43 0
42 44 0
43 45 0
43 47 0
44 48 0
44 49 0
45 50 0
45 52 0
46 53 0
46 55 0
46 56 0
47 57 0
47 59 0
48 60 0
48 61 0
49 63 0
49 64 0
50 66 0
50 67 0
51 68 0
51 70 0
52 71 0
52 73 0
53 74 0
53 76 0
54 77 0
55 79 0
55 80 0
56 81 0
56 83 0
57 84 0
57 86 0
58 87 0
58 89 0
59 90 0
59 92 0
60 93 0
60 95 0
61 96 0
61 98 0
62 99 0
62 101 0
63 102 0
63 104 0
64 105 0
64 107 0
65 108 0
65 110 0
66 111 0
66 113 0
67 114 0
67 116 0
68 118 0
68 119 0
69 121 0
69 122 0
70 124 0
70 125 0
71 127 0
71 128 0
72 130 0
72 131 0
72 133 0
73 134 0
73 136 0
74 137 0
74 139 0
75 140 0
75 141 0
76 143 0
76 144 0
77 146 0
77 147 0
77 149 0
78 150 0
78 152 0
79 153 0
79 154 0
79 156 0
80 157 0
80 158 0
81 160 0
81 161 0
81 163 0
82 164 0
82 165 0
83 167 0
83 168 0
83 169 0
84 170 0
84 172 0
84 173 0
85 174 0
85 175 0
85 177 0
86 178 0
86 179 0
86 180 0
87 181 0
87 183 0
87 184 0
88 185 0
88 186 0
88 187 0
88 188 0
89 189 0
89 190 0
89 192 0
89 193 0
90 194 0
90 195 0
90 196 0
90 197 0
91 198 0
91 199 0
91 200 0
91 200 0
91 201 0
92 202 0
92 203 0
92 204 0
92 205 0
92 206 0
92 207 0
93 207 0
93 208 0
93 209 0
93 210 0
93 211 0
93 211 0
93 212 0
94 213 0
94 214 0
94 214 0
94 215 0
94 216 0
94 216 0
94 217 0
94 218 0
94 218 0
94 219 0
95 219 0
95 220 0
95 221 0
95 221 0
95 222 0
95 222 0
95 223 0
95 223 0
95 224 0
95 224 0
95 225 0
95 225 0
95 226 0
95 226 0
95 227 0
95 227 0
95 227 0
95 228 0
95 228 0
95 229 0
95 229 0
95 229 0
95 230 0
95 230 0
95 230 0
95 231 0
95 231 0
95 231 0
95 232 0
95 232 0
95 232 0
95 232 0
95 233 0
95 233 0
95 233 0
95 233 0
95 234 0
95 234 0
95 234 0
95 234 0
95 235 0
95 235 0
35 21 0
35 22 0
36 23 0
36 24 0
37 26 0
37 27 0
38 28 0
38 29 0
38 30 0
39 32 0
39 33 0
40 34 0
40 35 0
41 37 0
41 38 0
42 39 0
42 40 0
43 42 0
43 43 0
44 44 0
44 46 0
45 47 0
45 48 0
46 50 0
46 51 0
47 52 0
47 54 0
48 55 0
48 56 0
49 58 0
49 59 0
50 60 0
50 62 0
51 63 0
51 65 0
52 66 0
52 67 0
53 69 0
53 70 0
54 72 0
54 73 0
55 75 0
55 76 0
56 78 0
56 79 0
57 81 0
57 82 0
58 83 0
58 85 0
59 86 0
59 88 0
60 89 0
60 91 0
61 92 0
61 94 0
62 95 0
62 97 0
63 98 0
63 100 0
64 102 0
64 103 0
65 105 0
65 106 0
66 108 0
66 109 0
67 111 0
67 112 0
68 114 0
68 115 0
69 117 0
69 118 0
70 120 0
70 121 0
71 123 0
71 124 0
72 126 0
72 127 0
73 129 0
73 130 0
74 132 0
74 133 0
75 135 0
75 136 0
76 138 0
76 139 0
77 141 0
77 142 0
77 144 0
78 145 0
78 147 0
79 148 0
79 149 0
80 151 0
80 152 0
80 154 0
81 155 0
81 157 0
82 158 0
82 159 0
82 161 0
83 162 0
83 163 0
84 165 0
84 166 0
84 167 0
85 169 0
85 170 0
85 171 0
86 172 0
86 174 0
86 175 0
87 176 0
87 177 0
87 179 0
88 180 0
88 181 0
88 182 0
89 183 0
89 185 0
89 186 0
89 187 0
90 188 0
90 189 0
90 190 0
91 191 0
91 192 0
91 193 0
91 194 0
91 195 0
92 196 0
92 197 0
92 198 0
92 199 0
93 200 0
93 201 0
93 202 0
93 203 0
93 204 0
93 205 0
94 205 0
94 206 0
94 207 0
94 208 0
94 209 0
94 209 0
95 210 0
95 211 0
95 212 0
95 213 0
95 213 0
95 214 0
95 215 0
95 215 0
95 216 0
96 217 0
96 217 0
96 218 0
96 218 0
96 219 0
96 220 0
96 220 0
96 221 0
96 221 0
96 222 0
96 222 0
96 223 0
96 223 0
96 224 0
96 224 0
96 225 0
96 225 0
96 226 0
96 226 0
96 227 0
97 227 0
97 227 0
97 228 0
97 228 0
97 229 0
97 229 0
97 229 0
96 230 0
96 230 0
96 230 0
96 231 0
96 231 0
96 231 0
96 232 0
96 232 0
96 232 0
96 232 0
96 233 0
96 233 0
96 233 0
96 233 0
96 234 0
96 234 0
96 234 0
96 234 0
96 234 0
36 20 0
36 21 0
37 22 0
37 23 0
38 25 0
38 26 0
38 27 0
39 28 0
39 29 0
40 31 0
40 32 0
41 33 0
41 34 0
42 36 0
42 37 0
43 38 0
43 39 0
44 41 0
44 42 0
45 43 0
45 45 0
46 46 0
46 47 0
47 49 0
47 50 0
48 51 0
48 53 0
49 54 0
49 55 0
50 57 0
50 58 0
51 59 0
51 61 0
52 62 0
52 64 0
53 65 0
53 67 0
54 68 0
54 69 0
55 71 0
55 72 0
56 74 0
56 75 0
57 77 0
57 78 0
58 80 0
58 81 0
59 83 0
59 84 0
60 86 0
60 87 0
61 89 0
62 90 0
62 92 0
63 93 0
63 95 0
64 96 0
64 98 0
65 99 0
65 101 0
66 102 0
66 104 0
67 105 0
67 107 0
68 108 0
68 110 0
69 111 0
69 113 0
70 114 0
70 116 0
71 118 0
71 119 0
72 121 0
72 122 0
73 124 0
73 125 0
74 127 0
74 128 0
75 130 0
75 131 0
76 133 0
76 134 0
77 136 0
77 137 0
78 139 0
78 140 0
78 142 0
79 143 0
79 145 0
80 146 0
80 147 0
81 149 0
81 150 0
81 152 0
82 153 0
82 155 0
83 156 0
83 157 0
84 159 0
84 160 0
84 161 0
85 163 0
85 164 0
85 165 0
86 167 0
86 168 0
87 169 0
87 171 0
87 172 0
88 173 0
88 174 0
88 176 0
89 177 0
89 178 0
89 179 0
89 181 0
90 182 0
90 183 0
90 184 0
91 185 0
91 186 0
91 187 0
91 189 0
92 190 0
92 191 0
92 192 0
92 193 0
93 194 0
93 195 0
93 196 0
93 197 0
94 198 0
94 199 0
94 200 0
94 201 0
94 202 0
95 202 0
95 203 0
95 204 0
95 205 0
95 206 0
95 207 0
96 208 0
96 208 0
96 209 0
96 210 0
96 211 0
96 211 0
96 212 0
96 213 0
97 214 0
97 214 0
97 215 0
97 216 0
97 216 0
97 217 0
97 218 0
97 218 0
97 219 0
97 219 0
97 220 0
97 220 0
97 221 0
97 222 0
98 222 0
98 223 0
98 223 0
98 224 0
98 224 0
98 225 0
98 225 0
98 225 0
98 226 0
98 226 0
98 227 0
98 227 0
98 228 0
98 228 0
98 228 0
98 229 0
98 229 0
98 229 0
98 230 0
98 230 0
98 230 0
98 231 0
98 231 0
98 231 0
98 232 0
97 232 0
97 232 0
97 232 0
97 233 0
97 233 0
97 233 0
97 233 0
97 233 0
97 234 0
97 234 0
97 234 0
37 19 0
37 20 0
38 21 0
38 22 0
39 24 0
39 25 0
39 26 0
40 27 0
40 28 0
41 30 0
41 31 0
42 32 0
42 33 0
43 35 0
43 36 0
44 37 0
44 38 0
45 40 0
45 41 0
46 42 0
46 44 0
47 45 0
47 46 0
48 48 0
48 49 0
49 50 0
49 52 0
50 53 0
50 54 0
51 56 0
51 57 0
52 58 0
52 60 0
53 61 0
53 63 0
54 64 0
54 66 0
55 67 0
55 68 0
56 70 0
56 71 0
57 73 0
57 74 0
58 76 0
59 77 0
59 79 0
60 80 0
60 82 0
61 83 0
61 85 0
62 86 0
62 88 0
63 89 0
63 91 0
64 92 0
64 94 0
65 95 0
65 97 0
66 98 0
66 100 0
67 101 0
67 103 0
68 104 0
69 106 0
69 107 0
70 109 0
70 111 0
71 112 0
71 114 0
72 115 0
72 117 0
73 118 0
73 120 0
74 121 0
74 123 0
75 124 0
75 126 0
76 127 0
76 129 0
77 130 0
77 132 0
78 133 0
78 135 0
78 136 0
79 138 0
79 139 0
80 141 0
80 142 0
81 144 0
81 145 0
82 147 0
82 148 0
82 150 0
83 151 0
83 153 0
84 154 0
84 155 0
85 157 0
85 158 0
85 159 0
86 161 0
86 162 0
87 164 0
87 165 0
87 166 0
88 168 0
88 169 0
88 170 0
89 171 0
89 173 0
89 174 0
90 175 0
90 176 0
90 178 0
91 179 0
91 180 0
91 181 0
92 182 0
92 184 0
92 185 0
92 186 0
93 187 0
93 188 0
93 189 0
93 190 0
94 191 0
94 192 0
94 193 0
94 194 0
95 195 0
95 196 0
95 197 0
95 198 0
95 199 0
96 200 0
96 201 0
96 202 0
96 203 0
96 204 0
96 205 0
97 206 0
97 206 0
97 207 0
97 208 0
97 209 0
97 210 0
97 210 0
98 211 0
98 212 0
98 212 0
98 213 0
98 214 0
98 215 0
98 215 0
98 216 0
98 217 0
98 217 0
98 218 0
99 218 0
99 219 0
99 220 0
99 220 0
99 221 0
99 221 0
99 222 0
99 222 0
99 223 0
99 223 0
99 224 0
99 224 0
99 225 0
99 225 0
99 226 0
99 226 0
99 226 0
99 227 0
99 227 0
99 228 0
99 228 0
99 228 0
99 229 0
99 229 0
99 229 0
99 230 0
99 230 0
99 230 0
99 231 0
99 231 0
99 231 0
99 231 0
99 232 0
99 232 0
98 232 0
98 232 0
98 233 0
98 233 0
98 233 0
98 233 0
98 234 0
98 234 0
38 18 0
38 19 0
39 20 0
39 21 0
39 22 0
40 24 0
40 25 0
41 26 0
41 27 0
42 29 0
42 30 0
43 31 0
43 32 0
44 33 0
44 35 0
45 36 0
45 37 0
46 39 0
46 40 0
47 41 0
47 43 0
48 44 0
48 45 0
49 47 0
49 48 0
50 49 0
50 51 0
51 52 0
51 53 0
52 55 0
52 56 0
53 57 0
53 59 0
54 60 0
54 62 0
55 63 0
55 65 0
56 66 0
57 67 0
57 69 0
58 70 0
58 72 0
59 73 0
59 75 0
60 76 0
60 78 0
61 79 0
61 81 0
62 82 0
62 84 0
63 85 0
63 87 0
64 88 0
65 90 0
65 91 0
66 93 0
66 94 0
67 96 0
67 97 0
68 99 0
68 100 0
69 102 0
69 104 0
70 105 0
70 107 0
71 108 0
71 110 0
72 111 0
72 113 0
73 114 0
73 116 0
74 117 0
74 119 0
75 121 0
75 122 0
76 124 0
76 125 0
77 127 0
77 128 0
78 130 0
78 131 0
79 133 0
79 134 0
80 136 0
80 137 0
81 139 0
81 140 0
82 142 0
82 143 0
83 145 0
83 146 0
83 148 0
84 149 0
84 150 0
85 152 0
85 153 0
86 155 0
86 156 0
86 158 0
87 159 0
87 160 0
88 162 0
88 163 0
88 164 0
89 166 0
89 167 0
89 168 0
90 170 0
90 171 0
90 172 0
91 173 0
91 175 0
91 176 0
92 177 0
92 178 0
92 180 0
93 181 0
93 182 0
93 183 0
94 184 0
94 185 0
94 186 0
94 188 0
95 189 0
95 190 0
95 191 0
95 192 0
96 193 0
96 194 0
96 195 0
96 196 0
96 197 0
97 198 0
97 199 0
97 200 0
97 201 0
97 202 0
98 203 0
98 203 0
98 204 0
98 205 0
98 206 0
98 207 0
98 208 0
99 208 0
99 209 0
99 210 0
99 211 0
99 211 0
99 212 0
99 213 0
99 214 0
99 214 0
100 215 0
100 216 0
100 216 0
100 217 0
100 217 0
100 218 0
100 219 0
100 219 0
100 220 0
100 220 0
100 221 0
100 221 0
100 222 0
100 222 0
100 223 0
100 223 0
100 224 0
100 224 0
100 225 0
100 225 0
100 226 0
100 226 0
100 226 0
100 227 0
100 227 0
100 228 0
100 228 0
100 228 0
100 229 0
100 229 0
100 229 0
100 230 0
100 230 0
100 230 0
100 231 0
100 231 0
100 231 0
100 231 0
100 232 0
100 232 0
100 232 0
100 232 0
99 233 0
99 233 0
99 233 0
99 233 0
99 233 0
39 17 0
39 18 0
39 19 0
40 20 0
40 21 0
41 23 0
41 24 0
42 25 0
42 26 0
43 27 0
43 29 0
44 30 0
44 31 0
45 32 0
45 34 0
46 35 0
46 36 0
47 38 0
47 39 0
48 40 0
48 42 0
49 43 0
49 44 0
50 45 0
50 47 0
51 48 0
51 50 0
52 51 0
52 52 0
53 54 0
53 55 0
54 56 0
54 58 0
55 59 0
56 61 0
56 62 0
57 64 0
57 65 0
58 66 0
58 68 0
59 69 0
59 71 0
60 72 0
60 74 0
61 75 0
61 77 0
62 78 0
63 80 0
63 81 0
64 83 0
64 84 0
65 86 0
65 87 0
66 89 0
66 90 0
67 92 0
67 93 0
68 95 0
68 97 0
69 98 0
70 100 0
70 101 0
71 103 0
71 104 0
72 106 0
72 107 0
73 109 0
73 110 0
74 112 0
74 114 0
75 115 0
75 117 0
76 118 0
76 120 0
77 121 0
77 123 0
78 124 0
78 126 0
79 127 0
79 129 0
80 130 0
80 132 0
81 134 0
81 135 0
82 137 0
82 138 0
83 140 0
83 141 0
84 142 0
84 144 0
84 145 0
85 147 0
85 148 0
86 150 0
86 151 0
87 153 0
87 154 0
87 155 0
88 157 0
88 158 0
89 160 0
89 161 0
89 162 0
90 164 0
90 165 0
91 166 0
91 168 0
91 169 0
92 170 0
92 172 0
92 173 0
93 174 0
93 175 0
93 177 0
94 178 0
94 179 0
94 180 0
94 181 0
95 183 0
95 184 0
95 185 0
96 186 0
96 187 0
96 188 0
96 189 0
97 190 0
97 191 0
97 192 0
97 194 0
97 195 0
98 196 0
98 197 0
98 197 0
98 198 0
98 199 0
99 200 0
99 201 0
99 202 0
99 203 0
99 204 0
99 205 0
100 206 0
100 206 0
100 207 0
100 208 0
100 209 0
100 210 0
100 210 0
100 211 0
101 212 0
101 212 0
101 213 0
101 214 0
101 214 0
101 215 0
101 216 0
101 216 0
101 217 0
101 218 0
101 218 0
101 219 0
101 219 0
101 220 0
101 220 0
101 221 0
101 222 0
101 222 0
102 223 0
102 223 0
102 223 0
102 224 0
102 224 0
102 225 0
102 225 0
102 226 0
101 226 0
101 226 0
101 227 0
101 227 0
101 228 0
101 228 0
101 228 0
101 229 0
101 229 0
101 229 0
101 230 0
101 230 0
101 230 0
101 230 0
101 231 0
101 231 0
101 231 0
101 231 0
101 232 0
101 232 0
101 232 0
101 232 0
100 233 0
100 233 0
100 233 0
39 16 0
40 17 0
40 18 0
41 19 0
41 20 0
42 22 0
42 23 0
43 24 0
43 25 0
44 26 0
44 28 0
45 29 0
45 30 0
46 31 0
46 33 0
47 34 0
47 35 0
48 37 0
48 38 0
49 39 0
49 40 0
50 42 0
50 43 0
51 44 0
51 46 0
52 47 0
52 49 0
53 50 0
53 51 0
54 53 0
55 54 0
55 55 0
56 57 0
56 58 0
57 60 0
57 61 0
58 63 0
58 64 0
59 66 0
59 67 0
60 68 0
60 70 0
61 71 0
62 73 0
62 74 0
63 76 0
63 77 0
64 79 0
64 80 0
65 82 0
65 83 0
66 85 0
66 86 0
67 88 0
68 89 0
68 91 0
69 93 0
69 94 0
70 96 0
70 97 0
71 99 0
71 100 0
72 102 0
72 103 0
73 105 0
74 107 0
74 108 0
75 110 0
75 111 0
76 113 0
76 114 0
77 116 0
77 117 0
78 119 0
78 120 0
79 122 0
79 124 0
80 125 0
80 127 0
81 128 0
81 130 0
82 131 0
82 133 0
83 134 0
83 136 0
84 137 0
84 139 0
85 140 0
85 142 0
85 143 0
86 145 0
86 146 0
87 148 0
87 149 0
88 151 0
88 152 0
89 153 0
89 155 0
89 156 0
90 158 0
90 159 0
91 160 0
91 162 0
91 163 0
92 165 0
92 166 0
92 167 0
93 168 0
93 170 0
93 171 0
94 172 0
94 174 0
94 175 0
95 176 0
95 177 0
95 179 0
96 180 0
96 181 0
96 182 0
97 183 0
97 184 0
97 186 0
97 187 0
98 188 0
98 189 0
98 190 0
98 191 0
99 192 0
99 193 0
99 194 0
99 195 0
99 196 0
100 197 0
100 198 0
100 199 0
100 200 0
100 201 0
100 202 0
101 203 0
101 203 0
101 204 0
101 205 0
101 206 0
101 207 0
101 208 0
102 208 0
102 209 0
102 210 0
102 211 0
102 211 0
102 212 0
102 213 0
102 213 0
102 214 0
102 215 0
102 215 0
102 216 0
103 217 0
103 217 0
103 218 0
103 218 0
103 219 0
103 220 0
103 220 0
103 221 0
103 221 0
103 222 0
103 222 0
103 223 0
103 223 0
103 224 0
103 224 0
103 224 0
103 225 0
103 225 0
103 226 0
103 226 0
103 226 0
103 227 0
103 227 0
103 228 0
103 228 0
103 228 0
102 229 0
102 229 0
102 229 0
102 229 0
102 230 0
102 230 0
102 230 0
102 231 0
102 231 0
102 231 0
102 231 0
102 232 0
102 232 0
102 232 0
102 232 0
102 232 0
101 233 0
40 15 0
41 16 0
41 17 0
42 18 0
42 19 0
43 21 0
43 22 0
44 23 0
44 24 0
45 25 0
45 27 0
46 28 0
46 29 0
47 30 0
47 32 0
48 33 0
48 34 0
49 36 0
49 37 0
50 38 0
50 39 0
51 41 0
51 42 0
52 43 0
52 45 0
53 46 0
54 48 0
54 49 0
55 50 0
55 52 0
56 53 0
56 54 0
57 56 0
57 57 0
58 59 0
58 60 0
59 62 0
59 63 0
60 65 0
61 66 0
61 67 0
62 69 0
62 70 0
63 72 0
63 73 0
64 75 0
64 76 0
65 78 0
66 79 0
66 81 0
67 82 0
67 84 0
68 85 0
68 87 0
69 89 0
69 90 0
70 92 0
71 93 0
71 95 0
72 96 0
72 98 0
73 99 0
73 101 0
74 103 0
74 104 0
75 106 0
75 107 0
76 109 0
76 110 0
77 112 0
78 113 0
78 115 0
79 117 0
79 118 0
80 120 0
80 121 0
81 123 0
81 124 0
82 126 0
82 127 0
83 129 0
83 130 0
84 132 0
84 134 0
85 135 0
85 137 0
86 138 0
86 140 0
86 141 0
87 143 0
87 144 0
88 146 0
88 147 0
89 148 0
89 150 0
90 151 0
90 153 0
90 154 0
91 156 0
91 157 0
92 158 0
92 160 0
92 161 0
93 163 0
93 164 0
94 165 0
94 167 0
94 168 0
95 169 0
95 171 0
95 172 0
96 173 0
96 174 0
96 176 0
97 177 0
97 178 0
97 179 0
97 180 0
98 182 0
98 183 0
98 184 0
99 185 0
99 186 0
99 187 0
99 188 0
100 189 0
100 190 0
100 192 0
100 193 0
100 194 0
101 195 0
101 196 0
101 197 0
101 198 0
101 198 0
102 199 0
102 200 0
102 201 0
102 202 0
102 203 0
102 204 0
102 205 0
103 206 0
103 206 0
103 207 0
103 208 0
103 209 0
103 209 0
103 210 0
103 211 0
103 212 0
104 212 0
104 213 0
104 214 0
104 214 0
104 215 0
104 216 0
104 216 0
104 217 0
104 217 0
104 218 0
104 219 0
104 219 0
104 220 0
104 220 0
104 221 0
104 221 0
104 222 0
104 222 0
104 223 0
104 223 0
104 224 0
104 224 0
104 224 0
104 225 0
104 225 0
104 226 0
104 226 0
104 226 0
104 227 0
104 227 0
104 227 0
104 228 0
104 228 0
104 228 0
104 229 0
104 229 0
103 229 0
103 230 0
103 230 0
103 230 0
103 230 0
103 231 0
103 231 0
103 231 0
103 231 0
103 232 0
103 232 0
103 232 0
103 232 0
41 14 0
42 15 0
42 16 0
43 17 0
43 18 0
44 19 0
44 21 0
45 22 0
45 23 0
46 24 0
46 26 0
47 27 0
47 28 0
48 29 0
48 31 0
49 32 0
49 33 0
50 34 0
50 36 0
51 37 0
51 38 0
52 40 0
52 41 0
53 42 0
54 44 0
54 45 0
55 46 0
55 48 0
56 49 0
56 51 0
57 52 0
57 53 0
58 55 0
58 56 0
59 58 0
60 59 0
60 61 0
61 62 0
61 64 0
62 65 0
62 66 0
63 68 0
63 69 0
64 71 0
65 72 0
65 74 0
66 75 0
66 77 0
67 78 0
67 80 0
68 81 0
68 83 0
69 85 0
70 86 0
70 88 0
71 89 0
71 91 0
72 92 0
72 94 0
73 95 0
73 97 0
74 99 0
75 100 0
75 102 0
76 103 0
76 105 0
77 106 0
77 108 0
78 109 0
78 111 0
79 113 0
79 114 0
80 116 0
80 117 0
81 119 0
82 120 0
82 122 0
83 124 0
83 125 0
84 127 0
84 128 0
85 130 0
85 131 0
86 133 0
86 134 0
87 136 0
87 137 0
87 139 0
88 140 0
88 142 0
89 143 0
89 145 0
90 146 0
90 148 0
91 149 0
91 151 0
91 152 0
92 154 0
92 155 0
93 156 0
93 158 0
94 159 0
94 161 0
94 162 0
95 163 0
95 165 0
95 166 0
96 167 0
96 169 0
96 170 0
97 171 0
97 172 0
97 174 0
98 175 0
98 176 0
98 177 0
99 179 0
99 180 0
99 181 0
100 182 0
100 183 0
100 185 0
100 186 0
101 187 0
101 188 0
101 189 0
101 190 0
101 191 0
102 192 0
102 193 0
102 194 0
102 195 0
102 196 0
103 197 0
103 198 0
103 199 0
103 200 0
103 201 0
103 202 0
104 203 0
104 203 0
104 204 0
104 205 0
104 206 0
104 207 0
104 207 0
104 208 0
105 209 0
105 210 0
105 210 0
105 211 0
105 212 0
105 213 0
105 213 0
105 214 0
105 215 0
105 215 0
105 216 0
105 216 0
105 217 0
105 218 0
105 218 0
105 219 0
105 219 0
105 220 0
105 220 0
105 221 0
105 221 0
105 222 0
105 222 0
105 223 0
105 223 0
105 224 0
105 224 0
105 224 0
105 225 0
105 225 0
105 226 0
105 226 0
105 226 0
105 227 0
105 227 0
105 227 0
105 228 0
105 228 0
105 228 0
105 229 0
105 229 0
105 229 0
105 229 0
104 230 0
104 230 0
104 230 0
104 230 0
104 231 0
104 231 0
104 231 0
104 231 0
104 232 0
104 232 0
42 13 0
43 14 0
43 15 0
44 16 0
44 17 0
45 18 0
45 20 0
46 21 0
46 22 0
47 23 0
47 25 0
48 26 0
48 27 0
49 28 0
49 30 0
50 31 0
50 32 0
51 33 0
51 35 0
52 36 0
52 37 0
53 39 0
54 40 0
54 41 0
55 43 0
55 44 0
56 45 0
56 47 0
57 48 0
57 50 0
58 51 0
58 52 0
59 54 0
60 55 0
60 57 0
61 58 0
61 60 0
62 61 0
62 62 0
63 64 0
64 65 0
64 67 0
65 68 0
65 70 0
66 71 0
66 73 0
67 74 0
67 76 0
68 77 0
69 79 0
69 80 0
70 82 0
70 84 0
71 85 0
71 87 0
72 88 0
73 90 0
73 91 0
74 93 0
74 94 0
75 96 0
75 98 0
76 99 0
76 101 0
77 102 0
78 104 0
78 105 0
79 107 0
79 109 0
80 110 0
80 112 0
81 113 0
81 115 0
82 116 0
82 118 0
83 120 0
83 121 0
84 123 0
85 124 0
85 126 0
86 127 0
86 129 0
87 130 0
87 132 0
87 134 0
88 135 0
88 137 0
89 138 0
89 140 0
90 141 0
90 143 0
91 144 0
91 146 0
92 147 0
92 149 0
93 150 0
93 151 0
93 153 0
94 154 0
94 156 0
95 157 0
95 159 0
95 160 0
96 161 0
96 163 0
97 164 0
97 165 0
97 167 0
98 168 0
98 169 0
98 171 0
99 172 0
99 173 0
99 174 0
100 176 0
100 177 0
100 178 0
100 179 0
101 181 0
101 182 0
101 183 0
102 184 0
102 185 0
102 186 0
102 187 0
103 188 0
103 189 0
103 191 0
103 192 0
103 193 0
104 194 0
104 195 0
104 196 0
104 197 0
104 198 0
104 198 0
105 199 0
105 200 0
105 201 0
105 202 0
105 203 0
105 204 0
105 205 0
106 205 0
106 206 0
106 207 0
106 208 0
106 209 0
106 209 0
106 210 0
106 211 0
106 211 0
106 212 0
106 213 0
106 214 0
107 214 0
107 215 0
107 215 0
107 216 0
107 217 0
107 217 0
107 218 0
107 218 0
107 219 0
107 219 0
107 220 0
107 220 0
107 221 0
107 221 0
107 222 0
107 222 0
107 223 0
107 223 0
107 224 0
107 224 0
107 224 0
107 225 0
106 225 0
106 226 0
106 226 0
106 226 0
106 227 0
106 227 0
106 227 0
106 228 0
106 228 0
106 228 0
106 229 0
106 229 0
106 229 0
106 229 0
106 230 0
105 230 0
105 230 0
105 230 0
105 231 0
105 231 0
105 231 0
105 231 0
105 231 0
43 12 0
44 13 0
44 14 0
45 15 0
45 16 0
46 17 0
46 19 0
47 20 0
47 21 0
48 22 0
48 23 0
49 25 0
49 26 0
50 27 0
50 28 0
51 30 0
51 31 0
52 32 0
52 34 0
53 35 0
54 36 0
54 38 0
55 39 0
55 40 0
56 42 0
56 43 0
57 44 0
57 46 0
58 47 0
58 49 0
59 50 0
60 51 0
60 53 0
61 54 0
61 56 0
62 57 0
62 59 0
63 60 0
64 61 0
64 63 0
65 64 0
65 66 0
66 67 0
66 69 0
67 70 0
68 72 0
68 73 0
69 75 0
69 76 0
70 78 0
70 80 0
71 81 0
72 83 0
72 84 0
73 86 0
73 87 0
74 89 0
74 90 0
75 92 0
76 94 0
76 95 0
77 97 0
77 98 0
78 100 0
78 101 0
79 103 0
80 105 0
80 106 0
81 108 0
81 109 0
82 111 0
82 112 0
83 114 0
83 116 0
84 117 0
84 119 0
85 120 0
85 122 0
86 123 0
86 125 0
87 127 0
87 128 0
88 130 0
88 131 0
89 133 0
89 134 0
90 136 0
90 137 0
91 139 0
91 140 0
92 142 0
92 143 0
93 145 0
93 146 0
94 148 0
94 149 0
94 151 0
95 152 0
95 154 0
96 155 0
96 156 0
97 158 0
97 159 0
97 161 0
98 162 0
98 163 0
98 165 0
99 166 0
99 167 0
99 169 0
100 170 0
100 171 0
100 173 0
101 174 0
101 175 0
101 176 0
102 178 0
102 179 0
102 180 0
103 181 0
103 182 0
103 183 0
103 185 0
104 186 0
104 187 0
104 188 0
104 189 0
104 190 0
105 191 0
105 192 0
105 193 0
105 194 0
105 195 0
106 196 0
106 197 0
106 198 0
106 199 0
106 200 0
106 201 0
107 202 0
107 202 0
107 203 0
107 204 0
107 205 0
107 206 0
107 207 0
107 207 0
107 208 0
108 209 0
108 210 0
108 210 0
108 211 0
108 212 0
108 212 0
108 213 0
108 214 0
108 214 0
108 215 0
108 216 0
108 216 0
108 217 0
108 217 0
108 218 0
108 218 0
108 219 0
108 219 0
108 220 0
108 220 0
108 221 0
108 221 0
108 222 0
108 222 0
108 223 0
108 223 0
108 224 0
108 224 0
108 224 0
108 225 0
108 225 0
108 226 0
108 226 0
107 226 0
107 227 0
107 227 0
107 227 0
107 228 0
107 228 0
107 228 0
107 228 0
107 229 0
107 229 0
107 229 0
107 229 0
107 230 0
106 230 0
106 230 0
106 230 0
106 231 0
106 231 0
106 231 0
44 10 0
45 12 0
45 13 0
46 14 0
46 15 0
47 16 0
47 17 0
48 19 0
48 20 0
49 21 0
49 22 0
50 24 0
50 25 0
51 26 0
51 27 0
52 29 0
52 30 0
53 31 0
54 33 0
54 34 0
55 35 0
55 37 0
56 38 0
56 39 0
57 41 0
57 42 0
58 43 0
59 45 0
59 46 0
60 47 0
60 49 0
61 50 0
61 52 0
62 53 0
62 55 0
63 56 0
64 57 0
64 59 0
65 60 0
65 62 0
66 63 0
66 65 0
67 66 0
68 68 0
68 69 0
69 71 0
69 72 0
70 74 0
71 75 0
71 77 0
72 79 0
72 80 0
73 82 0
73 83 0
74 85 0
75 86 0
75 88 0
76 89 0
76 91 0
77 93 0
77 94 0
78 96 0
79 97 0
79 99 0
80 100 0
80 102 0
81 104 0
81 105 0
82 107 0
83 108 0
83 110 0
84 112 0
84 113 0
85 115 0
85 116 0
86 118 0
86 119 0
87 121 0
87 123 0
88 124 0
88 126 0
89 127 0
89 129 0
90 130 0
90 132 0
91 134 0
91 135 0
92 137 0
92 138 0
93 140 0
93 141 0
94 143 0
94 144 0
95 146 0
95 147 0
96 149 0
96 150 0
96 152 0
97 153 0
97 154 0
98 156 0
98 157 0
98 159 0
99 160 0
99 161 0
100 163 0
100 164 0
100 165 0
101 167 0
101 168 0
101 169 0
102 171 0
102 172 0
102 173 0
103 175 0
103 176 0
103 177 0
104 178 0
104 179 0
104 181 0
104 182 0
105 183 0
105 184 0
105 185 0
105 186 0
106 187 0
106 188 0
106 190 0
106 191 0
106 192 0
107 193 0
107 194 0
107 195 0
107 196 0
107 197 0
107 197 0
108 198 0
108 199 0
108 200 0
108 201 0
108 202 0
108 203 0
108 204 0
109 205 0
109 205 0
109 206 0
109 207 0
109 208 0
109 208 0
109 209 0
109 210 0
109 211 0
109 211 0
109 212 0
109 213 0
109 213 0
109 214 0
109 215 0
109 215 0
109 216 0
109 216 0
109 217 0
109 217 0
109 218 0
109 219 0
109 219 0
109 220 0
109 220 0
109 221 0
109 221 0
109 221 0
109 222 0
109 222 0
109 223 0
109 223 0
109 224 0
109 224 0
109 224 0
109 225 0
109 225 0
109 225 0
109 226 0
109 226 0
109 226 0
109 227 0
108 227 0
108 227 0
108 228 0
108 228 0
108 228 0
108 228 0
108 229 0
108 229 0
108 229 0
108 229 0
107 230 0
107 230 0
107 230 0
107 230 0
107 230 0
45 9 0
46 11 0
46 12 0
47 13 0
47 14 0
48 15 0
48 16 0
49 18 0
49 19 0
50 20 0
50 21 0
51 23 0
51 24 0
52 25 0
52 26 0
53 28 0
54 29 0
54 30 0
55 31 0
55 33 0
56 34 0
56 35 0
57 37 0
57 38 0
58 40 0
59 41 0
59 42 0
60 44 0
60 45 0
61 46 0
61 48 0
62 49 0
62 51 0
63 52 0
64 54 0
64 55 0
65 56 0
65 58 0
66 59 0
67 61 0
67 62 0
68 64 0
68 65 0
69 67 0
69 68 0
70 70 0
71 71 0
71 73 0
72 74 0
72 76 0
73 78 0
74 79 0
74 81 0
75 82 0
75 84 0
76 85 0
77 87 0
77 88 0
78 90 0
78 92 0
79 93 0
79 95 0
80 96 0
81 98 0
81 100 0
82 101 0
82 103 0
83 104 0
83 106 0
84 108 0
85 109 0
85 111 0
86 112 0
86 114 0
87 115 0
87 117 0
88 119 0
88 120 0
89 122 0
89 123 0
90 125 0
90 127 0
91 128 0
91 130 0
92 131 0
92 133 0
93 134 0
93 136 0
94 137 0
94 139 0
95 140 0
95 142 0
96 143 0
96 145 0
97 146 0
97 148 0
98 149 0
98 151 0
98 152 0
99 154 0
99 155 0
100 157 0
100 158 0
100 159 0
101 161 0
101 162 0
102 163 0
102 165 0
102 166 0
103 167 0
103 169 0
103 170 0
104 171 0
104 173 0
104 174 0
104 175 0
105 176 0
105 178 0
105 179 0
106 180 0
106 181 0
106 182 0
106 183 0
107 185 0
107 186 0
107 187 0
107 188 0
108 189 0
108 190 0
108 191 0
108 192 0
108 193 0
108 194 0
109 195 0
109 196 0
109 197 0
109 198 0
109 199 0
109 200 0
110 201 0
110 202 0
110 202 0
110 203 0
110 204 0
110 205 0
110 206 0
110 206 0
110 207 0
110 208 0
110 209 0
111 209 0
111 210 0
111 211 0
111 211 0
111 212 0
111 213 0
111 213 0
111 214 0
111 215 0
111 215 0
111 216 0
111 216 0
111 217 0
111 218 0
111 218 0
111 219 0
111 219 0
111 220 0
111 220 0
111 221 0
111 221 0
111 221 0
111 222 0
111 222 0
110 223 0
110 223 0
110 224 0
110 224 0
110 224 0
110 225 0
110 225 0
110 225 0
110 226 0
110 226 0
110 226 0
110 227 0
110 227 0
109 227 0
109 227 0
109 228 0
109 228 0
109 228 0
109 229 0
109 229 0
109 229 0
109 229 0
109 229 0
108 230 0
108 230 0
108 230 0
46 8 0
47 9 0
47 11 0
48 12 0
48 13 0
49 14 0
49 15 0
50 17 0
50 18 0
51 19 0
51 20 0
52 21 0
52 23 0
53 24 0
53 25 0
54 27 0
55 28 0
55 29 0
56 30 0
56 32 0
57 33 0
57 34 0
58 36 0
58 37 0
59 38 0
60 40 0
60 41 0
61 43 0
61 44 0
62 45 0
63 47 0
63 48 0
64 50 0
64 51 0
65 52 0
65 54 0
66 55 0
67 57 0
67 58 0
68 60 0
68 61 0
69 63 0
70 64 0
70 66 0
71 67 0
71 69 0
72 70 0
73 72 0
73 73 0
74 75 0
74 77 0
75 78 0
75 80 0
76 81 0
77 83 0
77 84 0
78 86 0
78 87 0
79 89 0
80 91 0
80 92 0
81 94 0
81 95 0
82 97 0
83 99 0
83 100 0
84 102 0
84 103 0
85 105 0
85 107 0
86 108 0
87 110 0
87 111 0
88 113 0
88 115 0
89 116 0
89 118 0
90 119 0
90 121 0
91 123 0
91 124 0
92 126 0
92 127 0
93 129 0
93 130 0
94 132 0
94 133 0
95 135 0
95 137 0
96 138 0
96 140 0
97 141 0
97 143 0
98 144 0
98 146 0
99 147 0
99 149 0
99 150 0
100 152 0
100 153 0
101 154 0
101 156 0
102 157 0
102 159 0
102 160 0
103 161 0
103 163 0
103 164 0
104 165 0
104 167 0
104 168 0
105 169 0
105 171 0
105 172 0
106 173 0
106 175 0
106 176 0
107 177 0
107 178 0
107 179 0
107 181 0
108 182 0
108 183 0
108 184 0
108 185 0
109 186 0
109 187 0
109 188 0
109 189 0
109 191 0
110 192 0
110 193 0
110 194 0
110 195 0
110 196 0
110 196 0
111 197 0
111 198 0
111 199 0
111 200 0
111 201 0
111 202 0
111 203 0
111 204 0
112 204 0
112 205 0
112 206 0
112 207 0
112 207 0
112 208 0
112 209 0
112 210 0
112 210 0
112 211 0
112 212 0
112 212 0
112 213 0
112 214 0
112 214 0
112 215 0
112 215 0
112 216 0
112 217 0
112 217 0
112 218 0
112 218 0
112 219 0
112 219 0
112 220 0
112 220 0
112 221 0
112 221 0
112 221 0
112 222 0
112 222 0
112 223 0
112 223 0
112 223 0
111 224 0
111 224 0
111 225 0
111 225 0
111 225 0
111 226 0
111 226 0
111 226 0
111 226 0
111 227 0
111 227 0
110 227 0
110 228 0
110 228 0
110 228 0
110 228 0
110 229 0
110 229 0
110 229 0
110 229 0
109 229 0
109 230 0
47 7 0
48 8 0
48 9 0
49 11 0
49 12 0
50 13 0
50 14 0
51 15 0
51 17 0
52 18 0
52 19 0
53 20 0
53 22 0
54 23 0
55 24 0
55 25 0
56 27 0
56 28 0
57 29 0
57 31 0
58 32 0
58 33 0
59 35 0
60 36 0
60 37 0
61 39 0
61 40 0
62 41 0
62 43 0
63 44 0
64 46 0
64 47 0
65 49 0
65 50 0
66 51 0
67 53 0
67 54 0
68 56 0
68 57 0
69 59 0
70 60 0
70 62 0
71 63 0
71 65 0
72 66 0
73 68 0
73 69 0
74 71 0
74 72 0
75 74 0
76 75 0
76 77 0
77 79 0
77 80 0
78 82 0
79 83 0
79 85 0
80 86 0
80 88 0
81 90 0
82 91 0
82 93 0
83 94 0
83 96 0
84 98 0
85 99 0
85 101 0
86 102 0
86 104 0
87 106 0
87 107 0
88 109 0
89 110 0
89 112 0
90 114 0
90 115 0
91 117 0
91 118 0
92 120 0
92 122 0
93 123 0
93 125 0
94 126 0
94 128 0
95 130 0
95 131 0
96 133 0
96 134 0
97 136 0
97 137 0
98 139 0
98 140 0
99 142 0
99 143 0
100 145 0
100 146 0
101 148 0
101 149 0
101 151 0
102 152 0
102 154 0
103 155 0
103 157 0
103 158 0
104 159 0
104 161 0
105 162 0
105 163 0
105 165 0
106 166 0
106 167 0
106 169 0
107 170 0
107 171 0
107 173 0
108 174 0
108 175 0
108 176 0
108 178 0
109 179 0
109 180 0
109 181 0
109 182 0
110 183 0
110 185 0
110 186 0
110 187 0
111 188 0
111 189 0
111 190 0
111 191 0
111 192 0
112 193 0
112 194 0
112 195 0
112 196 0
112 197 0
112 198 0
112 199 0
113 200 0
113 200 0
113 201 0
113 202 0
113 203 0
113 204 0
113 205 0
113 205 0
113 206 0
113 207 0
113 208 0
113 208 0
113 209 0
113 210 0
114 211 0
114 211 0
114 212 0
114 212 0
114 213 0
114 214 0
114 214 0
114 215 0
114 215 0
114 216 0
114 217 0
114 217 0
113 218 0
113 218 0
113 219 0
113 219 0
113 220 0
113 220 0
113 221 0
113 221 0
113 221 0
113 222 0
113 222 0
113 223 0
113 223 0
113 223 0
113 224 0
113 224 0
113 224 0
112 225 0
112 225 0
112 225 0
112 226 0
112 226 0
112 226 0
112 227 0
112 227 0
112 227 0
111 227 0
111 228 0
111 228 0
111 228 0
111 228 0
111 228 0
111 229 0
111 229 0
110 229 0
48 6 0
49 7 0
49 8 0
50 10 0
50 11 0
51 12 0
51 13 0
52 14 0
52 16 0
53 17 0
53 18 0
54 19 0
55 20 0
55 22 0
56 23 0
56 24 0
57 26 0
57 27 0
58 28 0
58 30 0
59 31 0
60 32 0
60 34 0
61 35 0
61 36 0
62 38 0
62 39 0
63 40 0
64 42 0
64 43 0
65 45 0
65 46 0
66 47 0
67 49 0
67 50 0
68 52 0
68 53 0
69 55 0
70 56 0
70 58 0
71 59 0
71 61 0
72 62 0
73 64 0
73 65 0
74 67 0
74 68 0
75 70 0
76 71 0
76 73 0
77 74 0
78 76 0
78 78 0
79 79 0
79 81 0
80 82 0
81 84 0
81 85 0
82 87 0
82 89 0
83 90 0
84 92 0
84 93 0
85 95 0
85 97 0
86 98 0
87 100 0
87 102 0
88 103 0
88 105 0
89 106 0
89 108 0
90 110 0
91 111 0
91 113 0
92 114 0
92 116 0
93 118 0
93 119 0
94 121 0
94 122 0
95 124 0
95 126 0
96 127 0
96 129 0
97 130 0
97 132 0
98 133 0
98 135 0
99 137 0
99 138 0
100 140 0
100 141 0
101 143 0
101 144 0
102 146 0
102 147 0
103 149 0
103 150 0
103 152 0
104 153 0
104 154 0
105 156 0
105 157 0
105 159 0
106 160 0
106 161 0
107 163 0
107 164 0
107 165 0
108 167 0
108 168 0
108 169 0
109 171 0
109 172 0
109 173 0
109 175 0
110 176 0
110 177 0
110 178 0
111 179 0
111 181 0
111 182 0
111 183 0
112 184 0
112 185 0
112 186 0
112 187 0
112 188 0
113 189 0
113 190 0
113 191 0
113 192 0
113 193 0
113 194 0
114 195 0
114 196 0
114 197 0
114 198 0
114 199 0
114 200 0
114 201 0
114 202 0
114 202 0
115 203 0
115 204 0
115 205 0
115 206 0
115 206 0
115 207 0
115 208 0
115 209 0
115 209 0
115 210 0
115 211 0
115 211 0
115 212 0
115 213 0
115 213 0
115 214 0
115 214 0
115 215 0
115 216 0
115 216 0
115 217 0
115 217 0
115 218 0
115 218 0
115 219 0
115 219 0
115 220 0
115 220 0
114 220 0
114 221 0
114 221 0
114 222 0
114 222 0
114 223 0
114 223 0
114 223 0
114 224 0
114 224 0
114 224 0
114 225 0
113 225 0
113 225 0
113 226 0
113 226 0
113 226 0
113 226 0
113 227 0
113 227 0
113 227 0
112 227 0
112 228 0
112 228 0
112 228 0
112 228 0
112 228 0
112 229 0
49 5 0
50 6 0
50 7 0
51 8 0
51 10 0
52 11 0
52 12 0
53 13 0
53 14 0
54 16 0
54 17 0
55 18 0
56 19 0
56 21 0
57 22 0
57 23 0
58 24 0
58 26 0
59 27 0
60 28 0
60 30 0
61 31 0
61 32 0
62 34 0
62 35 0
63 36 0
64 38 0
64 39 0
65 41 0
65 42 0
66 43 0
67 45 0
67 46 0
68 48 0
68 49 0
69 51 0
70 52 0
70 54 0
71 55 0
71 57 0
72 58 0
73 60 0
73 61 0
74 63 0
75 64 0
75 66 0
76 67 0
76 69 0
77 70 0
78 72 0
78 73 0
79 75 0
79 77 0
80 78 0
81 80 0
81 81 0
82 83 0
83 84 0
83 86 0
84 88 0
84 89 0
85 91 0
86 92 0
86 94 0
87 96 0
87 97 0
88 99 0
89 101 0
89 102 0
90 104 0
90 105 0
91 107 0
91 109 0
92 110 0
93 112 0
93 113 0
94 115 0
94 117 0
95 118 0
95 120 0
96 122 0
96 123 0
97 125 0
97 126 0
98 128 0
98 129 0
99 131 0
99 133 0
100 134 0
100 136 0
101 137 0
101 139 0
102 140 0
102 142 0
103 143 0
103 145 0
104 146 0
104 148 0
105 149 0
105 151 0
105 152 0
106 154 0
106 155 0
107 157 0
107 158 0
107 159 0
108 161 0
108 162 0
108 163 0
109 165 0
109 166 0
110 167 0
110 169 0
110 170 0
110 171 0
111 173 0
111 174 0
111 175 0
112 176 0
112 178 0
112 179 0
112 180 0
113 181 0
113 182 0
113 183 0
113 184 0
114 186 0
114 187 0
114 188 0
114 189 0
114 190 0
114 191 0
115 192 0
115 193 0
115 194 0
115 195 0
115 196 0
115 197 0
115 198 0
116 199 0
116 199 0
116 200 0
116 201 0
116 202 0
116 203 0
116 204 0
116 204 0
116 205 0
116 206 0
116 207 0
116 207 0
116 208 0
116 209 0
116 209 0
116 210 0
116 211 0
116 211 0
116 212 0
116 213 0
116 213 0
116 214 0
116 214 0
116 215 0
116 216 0
116 216 0
116 217 0
116 217 0
116 218 0
116 218 0
116 219 0
116 219 0
116 220 0
116 220 0
116 220 0
116 221 0
116 221 0
116 222 0
115 222 0
115 222 0
115 223 0
115 223 0
115 223 0
115 224 0
115 224 0
115 224 0
115 225 0
114 225 0
114 225 0
114 226 0
114 226 0
114 226 0
114 226 0
114 227 0
114 227 0
113 227 0
113 227 0
113 228 0
113 228 0
113 228 0
113 228 0
50 4 0
51 5 0
51 6 0
52 7 0
52 9 0
53 10 0
53 11 0
54 12 0
54 13 0
55 15 0
55 16 0
56 17 0
57 18 0
57 20 0
58 21 0
58 22 0
59 23 0
59 25 0
60 26 0
61 27 0
61 29 0
62 30 0
62 31 0
63 33 0
64 34 0
64 35 0
65 37 0
65 38 0
66 40 0
67 41 0
67 42 0
68 44 0
68 45 0
69 47 0
70 48 0
70 50 0
71 51 0
71 53 0
72 54 0
73 55 0
73 57 0
74 58 0
75 60 0
75 62 0
76 63 0
76 65 0
77 66 0
78 68 0
78 69 0
79 71 0
80 72 0
80 74 0
81 75 0
81 77 0
82 79 0
83 80 0
83 82 0
84 83 0
85 85 0
85 87 0
86 88 0
86 90 0
87 91 0
88 93 0
88 95 0
89 96 0
89 98 0
90 100 0
91 101 0
91 103 0
92 104 0
92 106 0
93 108 0
93 109 0
94 111 0
95 113 0
95 114 0
96 116 0
96 117 0
97 119 0
97 121 0
98 122 0
98 124 0
99 125 0
100 127 0
100 129 0
101 130 0
101 132 0
102 133 0
102 135 0
103 136 0
103 138 0
103 139 0
104 141 0
104 143 0
105 144 0
105 146 0
106 147 0
106 149 0
107 150 0
107 151 0
107 153 0
108 154 0
108 156 0
109 157 0
109 159 0
109 160 0
110 161 0
110 163 0
110 164 0
111 165 0
111 167 0
111 168 0
112 169 0
112 171 0
112 172 0
113 173 0
113 174 0
113 176 0
113 177 0
114 178 0
114 179 0
114 180 0
114 182 0
115 183 0
115 184 0
115 185 0
115 186 0
115 187 0
116 188 0
116 189 0
116 190 0
116 191 0
116 192 0
116 193 0
117 194 0
117 195 0
117 196 0
117 197 0
117 198 0
117 199 0
117 200 0
117 201 0
117 201 0
117 202 0
118 203 0
118 204 0
118 205 0
118 205 0
118 206 0
118 207 0
118 208 0
118 208 0
118 209 0
118 210 0
118 210 0
118 211 0
118 212 0
118 212 0
118 213 0
118 213 0
118 214 0
118 215 0
118 215 0
118 216 0
118 216 0
118 217 0
118 217 0
117 218 0
117 218 0
117 219 0
117 219 0
117 219 0
117 220 0
117 220 0
117 221 0
117 221 0
117 222 0
117 222 0
117 222 0
116 223 0
116 223 0
116 223 0
116 224 0
116 224 0
116 224 0
116 225 0
116 225 0
115 225 0
115 225 0
115 226 0
115 226 0
115 226 0
115 226 0
115 227 0
115 227 0
114 227 0
114 227 0
114 227 0
114 228 0
51 3 0
52 4 0
52 5 0
53 6 0
53 7 0
54 9 0
54 10 0
55 11 0
55 12 0
56 13 0
57 15 0
57 16 0
58 17 0
58 18 0
59 20 0
59 21 0
60 22 0
61 24 0
61 25 0
62 26 0
62 27 0
63 29 0
64 30 0
64 32 0
65 33 0
65 34 0
66 36 0
67 37 0
67 38 0
68 40 0
68 41 0
69 43 0
70 44 0
70 46 0
71 47 0
71 48 0
72 50 0
73 51 0
73 53 0
74 54 0
75 56 0
75 57 0
76 59 0
76 60 0
77 62 0
78 63 0
78 65 0
79 67 0
80 68 0
80 70 0
81 71 0
82 73 0
82 74 0
83 76 0
83 78 0
84 79 0
85 81 0
85 82 0
86 84 0
87 86 0
87 87 0
88 89 0
88 90 0
89 92 0
90 94 0
90 95 0
91 97 0
91 99 0
92 100 0
93 102 0
93 103 0
94 105 0
94 107 0
95 108 0
96 110 0
96 112 0
97 113 0
97 115 0
98 116 0
98 118 0
99 120 0
99 121 0
100 123 0
101 125 0
101 126 0
102 128 0
102 129 0
103 131 0
103 132 0
104 134 0
104 136 0
105 137 0
105 139 0
106 140 0
106 142 0
106 143 0
107 145 0
107 146 0
108 148 0
108 149 0
109 151 0
109 152 0
109 154 0
110 155 0
110 156 0
111 158 0
111 159 0
111 161 0
112 162 0
112 163 0
112 165 0
113 166 0
113 167 0
113 169 0
114 170 0
114 171 0
114 173 0
115 174 0
115 175 0
115 176 0
115 177 0
116 179 0
116 180 0
116 181 0
116 182 0
116 183 0
117 184 0
117 185 0
117 187 0
117 188 0
117 189 0
118 190 0
118 191 0
118 192 0
118 193 0
118 194 0
118 195 0
118 196 0
118 196 0
119 197 0
119 198 0
119 199 0
119 200 0
119 201 0
119 202 0
119 202 0
119 203 0
119 204 0
119 205 0
119 206 0
119 206 0
119 207 0
119 208 0
119 208 0
119 209 0
119 210 0
119 210 0
119 211 0
119 212 0
119 212 0
119 213 0
119 213 0
119 214 0
119 215 0
119 215 0
119 216 0
119 216 0
119 217 0
119 217 0
119 218 0
119 218 0
119 219 0
118 219 0
118 219 0
118 220 0
118 220 0
118 221 0
118 221 0
118 221 0
118 222 0
118 222 0
118 222 0
117 223 0
117 223 0
117 223 0
117 224 0
117 224 0
117 224 0
117 225 0
117 225 0
116 225 0
116 225 0
116 226 0
116 226 0
116 226 0
116 226 0
116 226 0
115 227 0
115 227 0
115 227 0
52 2 0
53 3 0
53 4 0
54 5 0
54 6 0
55 7 0
55 9 0
56 10 0
56 11 0
57 12 0
58 14 0
58 15 0
59 16 0
59 17 0
60 19 0
60 20 0
61 21 0
62 22 0
62 24 0
63 25 0
63 26 0
64 28 0
65 29 0
65 30 0
66 32 0
66 33 0
67 34 0
68 36 0
68 37 0
69 39 0
70 40 0
70 42 0
71 43 0
71 44 0
72 46 0
73 47 0
73 49 0
74 50 0
75 52 0
75 53 0
76 55 0
76 56 0
77 58 0
78 59 0
78 61 0
79 62 0
80 64 0
80 65 0
81 67 0
82 69 0
82 70 0
83 72 0
83 73 0
84 75 0
85 77 0
85 78 0
86 80 0
87 81 0
87 83 0
88 85 0
89 86 0
89 88 0
90 89 0
90 91 0
91 93 0
92 94 0
92 96 0
93 98 0
93 99 0
94 101 0
95 102 0
95 104 0
96 106 0
96 107 0
97 109 0
98 111 0
98 112 0
99 114 0
99 116 0
100 117 0
100 119 0
101 120 0
102 122 0
102 124 0
103 125 0
103 127 0
104 128 0
104 130 0
105 132 0
105 133 0
106 135 0
106 136 0
107 138 0
107 139 0
108 141 0
108 142 0
108 144 0
109 145 0
109 147 0
110 148 0
110 150 0
111 151 0
111 153 0
111 154 0
112 156 0
112 157 0
113 159 0
113 160 0
113 161 0
114 163 0
114 164 0
114 165 0
115 167 0
115 168 0
115 169 0
116 171 0
116 172 0
116 173 0
116 174 0
117 176 0
117 177 0
117 178 0
117 179 0
118 180 0
118 181 0
118 183 0
118 184 0
118 185 0
119 186 0
119 187 0
119 188 0
119 189 0
119 190 0
119 191 0
120 192 0
120 193 0
120 194 0
120 195 0
120 196 0
120 197 0
120 198 0
120 199 0
120 199 0
120 200 0
121 201 0
121 202 0
121 203 0
121 203 0
121 204 0
121 205 0
121 206 0
121 206 0
121 207 0
121 208 0
121 209 0
121 209 0
121 210 0
121 210 0
121 211 0
121 212 0
121 212 0
121 213 0
121 213 0
120 214 0
120 215 0
120 215 0
120 216 0
120 216 0
120 217 0
120 217 0
120 218 0
120 218 0
120 218 0
120 219 0
120 219 0
120 220 0
119 220 0
119 220 0
119 221 0
119 221 0
119 222 0
119 222 0
119 222 0
119 223 0
118 223 0
118 223 0
118 223 0
118 224 0
118 224 0
118 224 0
118 225 0
117 225 0
117 225 0
117 225 0
117 226 0
117 226 0
117 226 0
117 226 0
116 226 0
116 227 0
53 1 0
54 2 0
54 3 0
55 4 0
55 5 0
56 6 0
56 8 0
57 9 0
57 10 0
58 11 0
59 12 0
59 14 0
60 15 0
60 16 0
61 17 0
62 19 0
62 20 0
63 21 0
63 23 0
64 24 0
65 25 0
65 27 0
66 28 0
66 29 0
67 31 0
68 32 0
68 33 0
69 35 0
69 36 0
70 38 0
71 39 0
71 40 0
72 42 0
73 43 0
73 45 0
74 46 0
75 48 0
75 49 0
76 51 0
76 52 0
77 54 0
78 55 0
78 57 0
79 58 0
80 60 0
80 61 0
81 63 0
82 64 0
82 66 0
83 68 0
84 69 0
84 71 0
85 72 0
85 74 0
86 75 0
87 77 0
87 79 0
88 80 0
89 82 0
89 83 0
90 85 0
91 87 0
91 88 0
92 90 0
92 92 0
93 93 0
94 95 0
94 97 0
95 98 0
96 100 0
96 101 0
97 103 0
97 105 0
98 106 0
99 108 0
99 110 0
100 111 0
100 113 0
101 115 0
101 116 0
102 118 0
103 119 0
103 121 0
104 123 0
104 124 0
105 126 0
105 128 0
106 129 0
106 131 0
107 132 0
107 134 0
108 135 0
108 137 0
109 139 0
109 140 0
110 142 0
110 143 0
111 145 0
111 146 0
111 148 0
112 149 0
112 151 0
113 152 0
113 153 0
113 155 0
114 156 0
114 158 0
115 159 0
115 161 0
115 162 0
116 163 0
116 165 0
116 166 0
117 167 0
117 169 0
117 170 0
117 171 0
118 172 0
118 174 0
118 175 0
119 176 0
119 177 0
119 178 0
119 180 0
119 181 0
120 182 0
120 183 0
120 184 0
120 185 0
120 186 0
121 187 0
121 188 0
121 189 0
121 190 0
121 191 0
121 192 0
121 193 0
121 194 0
122 195 0
122 196 0
122 197 0
122 198 0
122 199 0
122 200 0
122 201 0
122 201 0
122 202 0
122 203 0
122 204 0
122 204 0
122 205 0
122 206 0
122 207 0
122 207 0
122 208 0
122 209 0
122 209 0
122 210 0
122 211 0
122 211 0
122 212 0
122 212 0
122 213 0
122 213 0
122 214 0
122 215 0
122 215 0
122 216 0
122 216 0
121 217 0
121 217 0
121 217 0
121 218 0
121 218 0
121 219 0
121 219 0
121 220 0
121 220 0
121 220 0
120 221 0
120 221 0
120 221 0
120 222 0
120 222 0
120 222 0
120 223 0
119 223 0
119 223 0
119 224 0
119 224 0
119 224 0
119 224 0
119 225 0
118 225 0
118 225 0
118 225 0
118 225 0
118 226 0
118 226 0
117 226 0
54 0 0
55 1 0
55 2 0
56 3 0
56 4 0
57 5 0
57 6 0
58 8 0
59 9 0
59 10 0
60 11 0
60 12 0
61 14 0
61 15 0
62 16 0
63 18 0
63 19 0
64 20 0
64 21 0
65 23 0
66 24 0
66 25 0
67 27 0
68 28 0
68 29 0
69 31 0
69 32 0
70 34 0
71 35 0
71 36 0
72 38 0
73 39 0
73 41 0
74 42 0
74 44 0
75 45 0
76 47 0
76 48 0
77 49 0
78 51 0
78 52 0
79 54 0
80 56 0
80 57 0
81 59 0
82 60 0
82 62 0
83 63 0
84 65 0
84 66 0
85 68 0
86 70 0
86 71 0
87 73 0
88 74 0
88 76 0
89 78 0
89 79 0
90 81 0
91 82 0
91 84 0
92 86 0
93 87 0
93 89 0
94 91 0
95 92 0
95 94 0
96 96 0
96 97 0
97 99 0
98 100 0
98 102 0
99 104 0
99 105 0
100 107 0
101 109 0
101 110 0
102 112 0
102 114 0
103 115 0
104 117 0
104 119 0
105 120 0
105 122 0
106 123 0
106 125 0
107 127 0
107 128 0
108 130 0
108 131 0
109 133 0
109 135 0
110 136 0
110 138 0
111 139 0
111 141 0
112 142 0
112 144 0
113 145 0
113 147 0
113 148 0
114 150 0
114 151 0
115 153 0
115 154 0
115 156 0
116 157 0
116 158 0
117 160 0
117 161 0
117 163 0
118 164 0
118 165 0
118 167 0
119 168 0
119 169 0
119 170 0
119 172 0
120 173 0
120 174 0
120 175 0
120 177 0
121 178 0
121 179 0
121 180 0
121 181 0
121 182 0
122 184 0
122 185 0
122 186 0
122 187 0
122 188 0
122 189 0
123 190 0
123 191 0
123 192 0
123 193 0
123 194 0
123 195 0
123 196 0
123 196 0
123 197 0
123 198 0
124 199 0
124 200 0
124 201 0
124 202 0
124 202 0
124 203 0
124 204 0
124 205 0
124 205 0
124 206 0
124 207 0
124 207 0
124 208 0
124 209 0
124 209 0
124 210 0
124 211 0
123 211 0
123 212 0
123 212 0
123 213 0
123 213 0
123 214 0
123 214 0
123 215 0
123 215 0
123 216 0
123 216 0
123 217 0
123 217 0
122 218 0
122 218 0
122 219 0
122 219 0
122 219 0
122 220 0
122 220 0
122 220 0
121 221 0
121 221 0
121 221 0
121 222 0
121 222 0
121 222 0
121 223 0
120 223 0
120 223 0
120 223 0
120 224 0
120 224 0
120 224 0
119 224 0
119 225 0
119 225 0
119 225 0
119 225 0
119 225 0
55 0 0
56 0 0
56 1 0
57 2 0
57 3 0
58 4 0
58 5 0
59 6 0
60 8 0
60 9 0
61 10 0
61 11 0
62 13 0
63 14 0
63 15 0
64 16 0
64 18 0
65 19 0
66 20 0
66 22 0
67 23 0
67 24 0
68 26 0
69 27 0
69 28 0
70 30 0
71 31 0
71 32 0
72 34 0
72 35 0
73 37 0
74 38 0
74 40 0
75 41 0
76 42 0
76 44 0
77 45 0
78 47 0
78 48 0
79 50 0
80 51 0
80 53 0
81 54 0
82 56 0
82 57 0
83 59 0
84 61 0
84 62 0
85 64 0
86 65 0
86 67 0
87 68 0
88 70 0
88 72 0
89 73 0
90 75 0
90 76 0
91 78 0
92 80 0
92 81 0
93 83 0
93 85 0
94 86 0
95 88 0
95 90 0
96 91 0
97 93 0
97 94 0
98 96 0
99 98 0
99 99 0
100 101 0
100 103 0
101 104 0
102 106 0
102 108 0
103 109 0
103 111 0
104 113 0
105 114 0
105 116 0
106 118 0
106 119 0
107 121 0
107 122 0
108 124 0
108 126 0
109 127 0
109 129 0
110 130 0
110 132 0
111 134 0
111 135 0
112 137 0
112 138 0
113 140 0
113 141 0
114 143 0
114 144 0
115 146 0
115 147 0
116 149 0
116 150 0
116 152 0
117 153 0
117 155 0
117 156 0
118 158 0
118 159 0
119 160 0
119 162 0
119 163 0
120 164 0
120 166 0
120 167 0
120 168 0
121 170 0
121 171 0
121 172 0
122 173 0
122 175 0
122 176 0
122 177 0
122 178 0
123 179 0
123 181 0
123 182 0
123 183 0
123 184 0
124 185 0
124 186 0
124 187 0
124 188 0
124 189 0
124 190 0
124 191 0
125 192 0
125 193 0
125 194 0
125 195 0
125 196 0
125 197 0
125 198 0
125 198 0
125 199 0
125 200 0
125 201 0
125 202 0
125 202 0
125 203 0
125 204 0
125 205 0
125 205 0
125 206 0
125 207 0
125 207 0
125 208 0
125 209 0
125 209 0
125 210 0
125 211 0
125 211 0
125 212 0
125 212 0
125 213 0
125 213 0
124 214 0
124 214 0
124 215 0
124 215 0
124 216 0
124 216 0
124 217 0
124 217 0
124 218 0
124 218 0
123 218 0
123 219 0
123 219 0
123 220 0
123 220 0
123 220 0
123 221 0
122 221 0
122 221 0
122 222 0
122 222 0
122 222 0
122 222 0
121 223 0
121 223 0
121 223 0
121 223 0
121 224 0
121 224 0
120 224 0
120 224 0
120 225 0
120 225 0
120 225 0
56 0 0
57 0 0
57 0 0
58 1 0
58 2 0
59 3 0
59 4 0
60 5 0
61 6 0
61 8 0
62 9 0
62 10 0
63 11 0
64 13 0
64 14 0
65 15 0
65 16 0
66 18 0
67 19 0
67 20 0
68 22 0
69 23 0
69 24 0
70 26 0
70 27 0
71 28 0
72 30 0
72 31 0
73 33 0
74 34 0
74 35 0
75 37 0
76 38 0
76 40 0
77 41 0
78 43 0
78 44 0
79 46 0
80 47 0
80 49 0
81 50 0
82 52 0
82 53 0
83 55 0
84 56 0
84 58 0
85 59 0
86 61 0
86 63 0
87 64 0
88 66 0
88 67 0
89 69 0
90 71 0
90 72 0
91 74 0
92 75 0
92 77 0
93 79 0
94 80 0
94 82 0
95 84 0
96 85 0
96 87 0
97 88 0
97 90 0
98 92 0
99 93 0
99 95 0
100 97 0
101 98 0
101 100 0
102 102 0
102 103 0
103 105 0
104 107 0
104 108 0
105 110 0
105 112 0
106 113 0
107 115 0
107 117 0
108 118 0
108 120 0
109 121 0
109 123 0
110 125 0
111 126 0
111 128 0
112 130 0
112 131 0
113 133 0
113 134 0
114 136 0
114 137 0
114 139 0
115 141 0
115 142 0
116 144 0
116 145 0
117 147 0
117 148 0
118 150 0
118 151 0
118 152 0
119 154 0
119 155 0
119 157 0
120 158 0
120 160 0
121 161 0
121 162 0
121 164 0
121 165 0
122 166 0
122 168 0
122 169 0
123 170 0
123 171 0
123 173 0
123 174 0
124 175 0
124 176 0
124 178 0
124 179 0
124 180 0
125 181 0
125 182 0
125 183 0
125 184 0
125 185 0
125 186 0
126 187 0
126 189 0
126 190 0
126 191 0
126 191 0
126 192 0
126 193 0
126 194 0
126 195 0
126 196 0
127 197 0
127 198 0
127 199 0
127 199 0
127 200 0
127 201 0
127 202 0
127 203 0
127 203 0
127 204 0
127 205 0
127 206 0
127 206 0
127 207 0
127 208 0
127 208 0
126 209 0
126 209 0
126 210 0
126 211 0
126 211 0
126 212 0
126 212 0
126 213 0
126 213 0
126 214 0
126 214 0
126 215 0
125 215 0
125 216 0
125 216 0
125 217 0
125 217 0
125 217 0
125 218 0
125 218 0
124 219 0
124 219 0
124 219 0
124 220 0
124 220 0
124 220 0
124 221 0
123 221 0
123 221 0
123 222 0
123 222 0
123 222 0
123 222 0
122 223 0
122 223 0
122 223 0
122 223 0
122 224 0
121 224 0
121 224 0
121 224 0
121 224 0
57 0 0
58 0 0
58 0 0
59 0 0
59 1 0
60 2 0
60 3 0
61 4 0
62 5 0
62 7 0
63 8 0
63 9 0
64 10 0
65 11 0
65 13 0
66 14 0
67 15 0
67 17 0
68 18 0
68 19 0
69 21 0
70 22 0
70 23 0
71 25 0
72 26 0
72 27 0
73 29 0
74 30 0
74 31 0
75 33 0
76 34 0
76 36 0
77 37 0
78 39 0
78 40 0
79 42 0
80 43 0
80 45 0
81 46 0
82 48 0
82 49 0
83 51 0
84 52 0
84 54 0
85 55 0
86 57 0
86 58 0
87 60 0
88 61 0
88 63 0
89 65 0
90 66 0
90 68 0
91 69 0
92 71 0
92 73 0
93 74 0
94 76 0
94 77 0
95 79 0
96 81 0
96 82 0
97 84 0
98 86 0
98 87 0
99 89 0
100 91 0
100 92 0
101 94 0
102 96 0
102 97 0
103 99 0
103 101 0
104 102 0
105 104 0
105 106 0
106 107 0
106 109 0
107 111 0
108 112 0
108 114 0
109 116 0
109 117 0
110 119 0
110 121 0
111 122 0
112 124 0
112 125 0
113 127 0
113 129 0
114 130 0
114 132 0
115 133 0
115 135 0
116 137 0
116 138 0
117 140 0
117 141 0
117 143 0
118 144 0
118 146 0
119 147 0
119 149 0
120 150 0
120 152 0
120 153 0
121 155 0
121 156 0
121 157 0
122 159 0
122 160 0
123 162 0
123 163 0
123 164 0
123 166 0
124 167 0
124 168 0
124 169 0
125 171 0
125 172 0
125 173 0
125 174 0
125 176 0
126 177 0
126 178 0
126 179 0
126 180 0
126 181 0
127 183 0
127 184 0
127 185 0
127 186 0
127 187 0
127 188 0
127 189 0
128 190 0
128 191 0
128 192 0
128 193 0
128 194 0
128 195 0
128 195 0
128 196 0
128 197 0
128 198 0
128 199 0
128 200 0
128 200 0
128 201 0
128 202 0
128 203 0
128 203 0
128 204 0
128 205 0
128 206 0
128 206 0
128 207 0
128 208 0
128 208 0
128 209 0
128 209 0
128 210 0
128 211 0
128 211 0
127 212 0
127 212 0
127 213 0
127 213 0
127 214 0
127 214 0
127 215 0
127 215 0
127 216 0
126 216 0
126 216 0
126 217 0
126 217 0
126 218 0
126 218 0
126 218 0
125 219 0
125 219 0
125 219 0
125 220 0
125 220 0
125 220 0
124 221 0
124 221 0
124 221 0
124 222 0
124 222 0
124 222 0
123 222 0
123 223 0
123 223 0
123 223 0
123 223 0
122 223 0
122 224 0
122 224 0
58 0 0
59 0 0
59 0 0
60 0 0
60 0 0
61 1 0
62 2 0
62 3 0
63 4 0
63 5 0
64 7 0
65 8 0
65 9 0
66 10 0
66 12 0
67 13 0
68 14 0
68 15 0
69 17 0
70 18 0
70 19 0
71 21 0
72 22 0
72 23 0
73 25 0
73 26 0
74 27 0
75 29 0
75 30 0
76 32 0
77 33 0
77 35 0
78 36 0
79 37 0
79 39 0
80 40 0
81 42 0
81 43 0
82 45 0
83 46 0
84 48 0
84 49 0
85 51 0
86 52 0
86 54 0
87 56 0
88 57 0
88 59 0
89 60 0
90 62 0
90 63 0
91 65 0
92 67 0
92 68 0
93 70 0
94 71 0
94 73 0
95 75 0
96 76 0
96 78 0
97 80 0
98 81 0
98 83 0
99 85 0
100 86 0
100 88 0
101 90 0
102 91 0
102 93 0
103 95 0
104 96 0
104 98 0
105 100 0
106 101 0
106 103 0
107 105 0
107 106 0
108 108 0
109 110 0
109 111 0
110 113 0
110 115 0
111 116 0
112 118 0
112 120 0
113 121 0
113 123 0
114 124 0
114 126 0
115 128 0
115 129 0
116 131 0
116 132 0
117 134 0
117 136 0
118 137 0
118 139 0
119 140 0
119 142 0
120 143 0
120 145 0
120 146 0
121 148 0
121 149 0
122 151 0
122 152 0
122 154 0
123 155 0
123 157 0
123 158 0
124 159 0
124 161 0
124 162 0
125 163 0
125 165 0
125 166 0
126 167 0
126 169 0
126 170 0
126 171 0
127 172 0
127 174 0
127 175 0
127 176 0
128 177 0
128 178 0
128 180 0
128 181 0
128 182 0
128 183 0
129 184 0
129 185 0
129 186 0
129 187 0
129 188 0
129 189 0
129 190 0
129 191 0
129 192 0
129 193 0
130 194 0
130 195 0
130 196 0
130 196 0
130 197 0
130 198 0
130 199 0
130 200 0
130 201 0
130 201 0
130 202 0
130 203 0
130 204 0
130 204 0
130 205 0
130 206 0
130 206 0
129 207 0
129 208 0
129 208 0
129 209 0
129 209 0
129 210 0
129 210 0
129 211 0
129 212 0
129 212 0
129 213 0
128 213 0
128 214 0
128 214 0
128 215 0
128 215 0
128 215 0
128 216 0
128 216 0
127 217 0
127 217 0
127 217 0
127 218 0
127 218 0
127 218 0
126 219 0
126 219 0
126 219 0
126 220 0
126 220 0
126 220 0
125 221 0
125 221 0
125 221 0
125 221 0
125 222 0
124 222 0
124 222 0
124 222 0
124 223 0
124 223 0
123 223 0
123 223 0
59 0 0
60 0 0
60 0 0
61 0 0
61 0 0
62 0 0
63 1 0
63 2 0
64 3 0
64 4 0
65 5 0
66 7 0
66 8 0
67 9 0
68 10 0
68 12 0
69 13 0
69 14 0
70 16 0
71 17 0
71 18 0
72 19 0
73 21 0
73 22 0
74 24 0
75 25 0
75 26 0
76 28 0
77 29 0
77 31 0
78 32 0
79 33 0
79 35 0
80 36 0
81 38 0
81 39 0
82 41 0
83 42 0
83 44 0
84 45 0
85 47 0
86 48 0
86 50 0
87 51 0
88 53 0
88 54 0
89 56 0
90 58 0
90 59 0
91 61 0
92 62 0
92 64 0
93 65 0
94 67 0
95 69 0
95 70 0
96 72 0
97 74 0
97 75 0
98 77 0
99 79 0
99 80 0
100 82 0
101 83 0
101 85 0
102 87 0
103 88 0
103 90 0
104 92 0
105 94 0
105 95 0
106 97 0
106 99 0
107 100 0
108 102 0
108 104 0
109 105 0
110 107 0
110 109 0
111 110 0
111 112 0
112 114 0
113 115 0
113 117 0
114 119 0
114 120 0
115 122 0
115 123 0
116 125 0
116 127 0
117 128 0
117 130 0
118 131 0
118 133 0
119 135 0
119 136 0
120 138 0
120 139 0
121 141 0
121 142 0
122 144 0
122 145 0
123 147 0
123 148 0
123 150 0
124 151 0
124 153 0
124 154 0
125 156 0
125 157 0
126 159 0
126 160 0
126 161 0
126 163 0
127 164 0
127 165 0
127 167 0
128 168 0
128 169 0
128 170 0
128 172 0
129 173 0
129 174 0
129 175 0
129 177 0
129 178 0
130 179 0
130 180 0
130 181 0
130 182 0
130 183 0
130 184 0
130 185 0
131 186 0
131 187 0
131 188 0
131 189 0
131 190 0
131 191 0
131 192 0
131 193 0
131 194 0
131 195 0
131 196 0
131 197 0
131 197 0
131 198 0
131 199 0
131 200 0
131 201 0
131 201 0
131 202 0
131 203 0
131 204 0
131 204 0
131 205 0
131 206 0
131 206 0
131 207 0
131 208 0
131 208 0
131 209 0
130 209 0
130 210 0
130 210 0
130 211 0
130 211 0
130 212 0
130 212 0
130 213 0
130 213 0
129 214 0
129 214 0
129 215 0
129 215 0
129 216 0
129 216 0
129 216 0
128 217 0
128 217 0
128 218 0
128 218 0
128 218 0
128 219 0
127 219 0
127 219 0
127 219 0
127 220 0
127 220 0
126 220 0
126 221 0
126 221 0
126 221 0
126 221 0
125 222 0
125 222 0
125 222 0
125 222 0
125 222 0
124 223 0
60 0 0
61 0 0
61 0 0
62 0 0
62 0 0
63 0 0
64 0 0
64 1 0
65 2 0
65 3 0
66 4 0
67 5 0
67 7 0
68 8 0
69 9 0
69 10 0
70 12 0
71 13 0
71 14 0
72 16 0
73 17 0
73 18 0
74 20 0
74 21 0
75 22 0
76 24 0
77 25 0
77 26 0
78 28 0
79 29 0
79 31 0
80 32 0
81 34 0
81 35 0
82 37 0
83 38 0
83 39 0
84 41 0
85 42 0
85 44 0
86 45 0
87 47 0
88 49 0
88 50 0
89 52 0
90 53 0
90 55 0
91 56 0
92 58 0
92 59 0
93 61 0
94 63 0
95 64 0
95 66 0
96 68 0
97 69 0
97 71 0
98 72 0
99 74 0
99 76 0
100 77 0
101 79 0
101 81 0
102 82 0
103 84 0
103 86 0
104 87 0
105 89 0
105 91 0
106 92 0
107 94 0
107 96 0
108 97 0
109 99 0
109 101 0
110 102 0
111 104 0
111 106 0
112 108 0
112 109 0
113 111 0
114 113 0
114 114 0
115 116 0
115 118 0
116 119 0
116 121 0
117 122 0
118 124 0
118 126 0
119 127 0
119 129 0
120 131 0
120 132 0
121 134 0
121 135 0
122 137 0
122 138 0
122 140 0
123 142 0
123 143 0
124 145 0
124 146 0
125 148 0
125 149 0
125 151 0
126 152 0
126 153 0
126 155 0
127 156 0
127 158 0
128 159 0
128 160 0
128 162 0
128 163 0
129 164 0
129 166 0
129 167 0
130 168 0
130 170 0
130 171 0
130 172 0
130 173 0
131 175 0
131 176 0
131 177 0
131 178 0
131 179 0
132 180 0
132 181 0
132 183 0
132 184 0
132 185 0
132 186 0
132 187 0
132 188 0
132 189 0
133 190 0
133 191 0
133 192 0
133 192 0
133 193 0
133 194 0
133 195 0
133 196 0
133 197 0
133 198 0
133 198 0
133 199 0
133 200 0
133 201 0
133 201 0
133 202 0
133 203 0
133 204 0
133 204 0
132 205 0
132 206 0
132 206 0
132 207 0
132 207 0
132 208 0
132 209 0
132 209 0
132 210 0
132 210 0
131 211 0
131 211 0
131 212 0
131 212 0
131 213 0
131 213 0
131 214 0
131 214 0
130 215 0
130 215 0
130 215 0
130 216 0
130 216 0
130 217 0
129 217 0
129 217 0
129 218 0
129 218 0
129 218 0
128 219 0
128 219 0
128 219 0
128 219 0
128 220 0
127 220 0
127 220 0
127 220 0
127 221 0
127 221 0
126 221 0
126 221 0
126 222 0
126 222 0
126 222 0
61 0 0
62 0 0
62 0 0
63 0 0
63 0 0
64 0 0
65 0 0
65 0 0
66 1 0
67 2 0
67 3 0
68 4 0
68 5 0
69 7 0
70 8 0
70 9 0
71 11 0
72 12 0
72 13 0
73 14 0
74 16 0
74 17 0
75 18 0
76 20 0
76 21 0
77 22 0
78 24 0
78 25 0
79 27 0
80 28 0
80 30 0
81 31 0
82 32 0
83 34 0
83 35 0
84 37 0
85 38 0
85 40 0
86 41 0
87 43 0
87 44 0
88 46 0
89 47 0
90 49 0
90 50 0
91 52 0
92 54 0
92 55 0
93 57 0
94 58 0
95 60 0
95 62 0
96 63 0
97 65 0
97 66 0
98 68 0
99 70 0
99 71 0
100 73 0
101 75 0
102 76 0
102 78 0
103 80 0
104 81 0
104 83 0
105 85 0
106 86 0
106 88 0
107 90 0
108 91 0
108 93 0
109 95 0
110 96 0
110 98 0
111 100 0
112 101 0
112 103 0
113 105 0
113 106 0
114 108 0
115 110 0
115 111 0
116 113 0
116 115 0
117 116 0
117 118 0
118 120 0
119 121 0
119 123 0
120 125 0
120 126 0
121 128 0
121 130 0
122 131 0
122 133 0
123 134 0
123 136 0
124 137 0
124 139 0
125 141 0
125 142 0
125 144 0
126 145 0
126 147 0
127 148 0
127 150 0
127 151 0
128 153 0
128 154 0
129 155 0
129 157 0
129 158 0
130 160 0
130 161 0
130 162 0
130 164 0
131 165 0
131 166 0
131 168 0
131 169 0
132 170 0
132 171 0
132 173 0
132 174 0
133 175 0
133 176 0
133 177 0
133 178 0
133 180 0
133 181 0
133 182 0
134 183 0
134 184 0
134 185 0
134 186 0
134 187 0
134 188 0
134 189 0
134 190 0
134 191 0
134 192 0
134 193 0
134 194 0
134 194 0
134 195 0
134 196 0
134 197 0
134 198 0
134 199 0
134 199 0
134 200 0
134 201 0
134 202 0
134 202 0
134 203 0
134 204 0
134 204 0
134 205 0
134 206 0
134 206 0
134 207 0
133 207 0
133 208 0
133 209 0
133 209 0
133 210 0
133 210 0
133 211 0
133 211 0
132 212 0
132 212 0
132 213 0
132 213 0
132 214 0
132 214 0
132 214 0
131 215 0
131 215 0
131 216 0
131 216 0
131 216 0
130 217 0
130 217 0
130 217 0
130 218 0
130 218 0
129 218 0
129 219 0
129 219 0
129 219 0
129 219 0
128 220 0
128 220 0
128 220 0
128 220 0
128 221 0
127 221 0
127 221 0
127 221 0
127 221 0
62 0 0
63 0 0
63 0 0
64 0 0
64 0 0
65 0 0
66 0 0
66 0 0
67 0 0
68 1 0
68 2 0
69 3 0
70 4 0
70 5 0
71 7 0
71 8 0
72 9 0
73 11 0
73 12 0
74 13 0
75 15 0
75 16 0
76 17 0
77 19 0
78 20 0
78 21 0
79 23 0
80 24 0
80 25 0
81 27 0
82 28 0
82 30 0
83 31 0
84 33 0
84 34 0
85 36 0
86 37 0
87 39 0
87 40 0
88 42 0
89 43 0
89 45 0
90 46 0
91 48 0
92 49 0
92 51 0
93 52 0
94 54 0
94 56 0
95 57 0
96 59 0
97 60 0
97 62 0
98 64 0
99 65 0
99 67 0
100 68 0
101 70 0
102 72 0
102 73 0
103 75 0
104 77 0
104 78 0
105 80 0
106 82 0
106 83 0
107 85 0
108 87 0
108 88 0
109 90 0
110 92 0
110 94 0
111 95 0
112 97 0
112 99 0
113 100 0
114 102 0
114 104 0
115 105 0
116 107 0
116 109 0
117 110 0
117 112 0
118 114 0
119 115 0
119 117 0
120 119 0
120 120 0
121 122 0
121 124 0
122 125 0
122 127 0
123 129 0
123 130 0
124 132 0
124 133 0
125 135 0
125 137 0
126 138 0
126 140 0
127 141 0
127 143 0
128 144 0
128 146 0
128 147 0
129 149 0
129 150 0
130 152 0
130 153 0
130 155 0
131 156 0
131 157 0
131 159 0
131 160 0
132 161 0
132 163 0
132 164 0
133 165 0
133 167 0
133 168 0
133 169 0
134 171 0
134 172 0
134 173 0
134 174 0
134 175 0
135 176 0
135 178 0
135 179 0
135 180 0
135 181 0
135 182 0
135 183 0
135 184 0
136 185 0
136 186 0
136 187 0
136 188 0
136 189 0
136 190 0
136 191 0
136 192 0
136 193 0
136 194 0
136 195 0
136 195 0
136 196 0
136 197 0
136 198 0
136 199 0
136 199 0
136 200 0
136 201 0
136 202 0
136 202 0
136 203 0
135 204 0
135 204 0
135 205 0
135 206 0
135 206 0
135 207 0
135 207 0
135 208 0
135 208 0
134 209 0
134 209 0
134 210 0
134 211 0
134 211 0
134 211 0
134 212 0
133 212 0
133 213 0
133 213 0
133 214 0
133 214 0
133 214 0
132 215 0
132 215 0
132 216 0
132 216 0
132 216 0
131 217 0
131 217 0
131 217 0
131 218 0
131 218 0
130 218 0
130 218 0
130 219 0
130 219 0
129 219 0
129 219 0
129 220 0
129 220 0
129 220 0
128 220 0
128 221 0
128 221 0
63 0 0
64 0 0
64 0 0
65 0 0
66 0 0
66 0 0
67 0 0
67 0 0
68 0 0
69 0 0
69 1 0
70 2 0
71 3 0
71 4 0
72 6 0
73 7 0
73 8 0
74 9 0
75 11 0
75 12 0
76 13 0
77 15 0
77 16 0
78 17 0
79 19 0
79 20 0
80 21 0
81 23 0
82 24 0
82 26 0
83 27 0
84 28 0
84 30 0
85 31 0
86 33 0
86 34 0
87 36 0
88 37 0
89 39 0
89 40 0
90 42 0
91 43 0
92 45 0
92 46 0
93 48 0
94 50 0
94 51 0
95 53 0
96 54 0
97 56 0
97 57 0
98 59 0
99 61 0
99 62 0
100 64 0
101 66 0
102 67 0
102 69 0
103 71 0
104 72 0
104 74 0
105 76 0
106 77 0
107 79 0
107 81 0
108 82 0
109 84 0
109 86 0
110 87 0
111 89 0
111 91 0
112 92 0
113 94 0
113 96 0
114 97 0
115 99 0
115 101 0
116 103 0
117 104 0
117 106 0
118 108 0
118 109 0
119 111 0
120 113 0
120 114 0
121 116 0
121 118 0
122 119 0
122 121 0
123 123 0
124 124 0
124 126 0
125 128 0
125 129 0
126 131 0
126 132 0
127 134 0
127 136 0
127 137 0
128 139 0
128 140 0
129 142 0
129 143 0
130 145 0
130 146 0
130 148 0
131 149 0
131 151 0
132 152 0
132 154 0
132 155 0
133 156 0
133 158 0
133 159 0
133 161 0
134 162 0
134 163 0
134 165 0
135 166 0
135 167 0
135 168 0
135 170 0
135 171 0
136 172 0
136 173 0
136 175 0
136 176 0
136 177 0
136 178 0
137 179 0
137 180 0
137 181 0
137 182 0
137 183 0
137 184 0
137 185 0
137 186 0
137 187 0
137 188 0
137 189 0
137 190 0
138 191 0
138 192 0
138 193 0
138 194 0
138 195 0
137 195 0
137 196 0
137 197 0
137 198 0
137 199 0
137 199 0
137 200 0
137 201 0
137 202 0
137 202 0
137 203 0
137 204 0
137 204 0
137 205 0
137 205 0
136 206 0
136 207 0
136 207 0
136 208 0
136 208 0
136 209 0
136 209 0
135 210 0
135 210 0
135 211 0
135 211 0
135 212 0
135 212 0
134 213 0
134 213 0
134 213 0
134 214 0
134 214 0
133 215 0
133 215 0
133 215 0
133 216 0
133 216 0
132 216 0
132 217 0
132 217 0
132 217 0
132 217 0
131 218 0
131 218 0
131 218 0
131 219 0
130 219 0
130 219 0
130 219 0
130 219 0
130 220 0
129 220 0
129 220 0
64 0 0
65 0 0
65 0 0
66 0 0
67 0 0
67 0 0
68 0 0
68 0 0
69 0 0
70 0 0
70 0 0
71 1 0
72 2 0
72 3 0
73 4 0
74 6 0
74 7 0
75 8 0
76 9 0
76 11 0
77 12 0
78 13 0
79 15 0
79 16 0
80 17 0
81 19 0
81 20 0
82 22 0
83 23 0
83 24 0
84 26 0
85 27 0
86 29 0
86 30 0
87 32 0
88 33 0
88 35 0
89 36 0
90 38 0
91 39 0
91 41 0
92 42 0
93 44 0
94 45 0
94 47 0
95 48 0
96 50 0
97 51 0
97 53 0
98 55 0
99 56 0
99 58 0
100 59 0
101 61 0
102 63 0
102 64 0
103 66 0
104 68 0
105 69 0
105 71 0
106 73 0
107 74 0
107 76 0
108 78 0
109 79 0
109 81 0
110 83 0
111 84 0
112 86 0
112 88 0
113 90 0
114 91 0
114 93 0
115 95 0
116 96 0
116 98 0
117 100 0
118 101 0
118 103 0
119 105 0
119 107 0
120 108 0
121 110 0
121 112 0
122 113 0
122 115 0
123 117 0
124 118 0
124 120 0
125 122 0
125 123 0
126 125 0
126 127 0
127 128 0
127 130 0
128 131 0
128 133 0
129 135 0
129 136 0
130 138 0
130 139 0
131 141 0
131 142 0
131 144 0
132 145 0
132 147 0
133 148 0
133 150 0
133 151 0
134 153 0
134 154 0
134 156 0
135 157 0
135 158 0
135 160 0
135 161 0
136 162 0
136 164 0
136 165 0
136 166 0
137 168 0
137 169 0
137 170 0
137 171 0
138 172 0
138 174 0
138 175 0
138 176 0
138 177 0
138 178 0
138 179 0
139 180 0
139 182 0
139 183 0
139 184 0
139 185 0
139 186 0
139 187 0
139 188 0
139 189 0
139 189 0
139 190 0
139 191 0
139 192 0
139 193 0
139 194 0
139 195 0
139 196 0
139 196 0
139 197 0
139 198 0
139 199 0
139 199 0
139 200 0
139 201 0
139 201 0
138 202 0
138 203 0
138 203 0
138 204 0
138 205 0
138 205 0
138 206 0
138 206 0
137 207 0
137 208 0
137 208 0
137 209 0
137 209 0
137 210 0
136 210 0
136 211 0
136 211 0
136 211 0
136 212 0
136 212 0
135 213 0
135 213 0
135 214 0
135 214 0
135 214 0
134 215 0
134 215 0
134 215 0
134 216 0
134 216 0
133 216 0
133 217 0
133 217 0
133 217 0
132 217 0
132 218 0
132 218 0
132 218 0
131 218 0
131 219 0
131 219 0
131 219 0
130 219 0
130 219 0
65 0 0
66 0 0
66 0 0
67 0 0
68 0 0
68 0 0
69 0 0
70 0 0
70 0 0
71 0 0
72 0 0
72 0 0
73 1 0
74 2 0
74 3 0
75 4 0
76 6 0
76 7 0
77 8 0
78 10 0
78 11 0
79 12 0
80 13 0
80 15 0
81 16 0
82 18 0
83 19 0
83 20 0
84 22 0
85 23 0
85 25 0
86 26 0
87 27 0
88 29 0
88 30 0
89 32 0
90 33 0
91 35 0
91 36 0
92 38 0
93 39 0
93 41 0
94 42 0
95 44 0
96 46 0
96 47 0
97 49 0
98 50 0
99 52 0
99 53 0
100 55 0
101 57 0
102 58 0
102 60 0
103 62 0
104 63 0
105 65 0
105 66 0
106 68 0
107 70 0
107 71 0
108 73 0
109 75 0
110 77 0
110 78 0
111 80 0
112 82 0
112 83 0
113 85 0
114 87 0
114 88 0
115 90 0
116 92 0
117 94 0
117 95 0
118 97 0
119 99 0
119 100 0
120 102 0
120 104 0
121 105 0
122 107 0
122 109 0
123 111 0
123 112 0
124 114 0
125 116 0
125 117 0
126 119 0
126 121 0
127 122 0
127 124 0
128 125 0
128 127 0
129 129 0
129 130 0
130 132 0
130 134 0
131 135 0
131 137 0
132 138 0
132 140 0
133 141 0
133 143 0
133 144 0
134 146 0
134 147 0
135 149 0
135 150 0
135 152 0
136 153 0
136 155 0
136 156 0
137 157 0
137 159 0
137 160 0
137 161 0
138 163 0
138 164 0
138 165 0
138 167 0
139 168 0
139 169 0
139 170 0
139 172 0
139 173 0
140 174 0
140 175 0
140 176 0
140 177 0
140 179 0
140 180 0
140 181 0
140 182 0
140 183 0
140 184 0
141 185 0
141 186 0
141 187 0
141 188 0
141 189 0
141 190 0
141 191 0
141 191 0
141 192 0
141 193 0
141 194 0
141 195 0
141 196 0
140 196 0
140 197 0
140 198 0
140 199 0
140 199 0
140 200 0
140 201 0
140 201 0
140 202 0
140 203 0
140 203 0
139 204 0
139 205 0
139 205 0
139 206 0
139 206 0
139 207 0
139 207 0
138 208 0
138 208 0
138 209 0
138 209 0
138 210 0
138 210 0
137 211 0
137 211 0
137 212 0
137 212 0
137 212 0
136 213 0
136 213 0
136 214 0
136 214 0
135 214 0
135 215 0
135 215 0
135 215 0
135 216 0
134 216 0
134 216 0
134 216 0
134 217 0
133 217 0
133 217 0
133 217 0
133 218 0
132 218 0
132 218 0
132 218 0
132 219 0
131 219 0
66 0 0
67 0 0
67 0 0
68 0 0
69 0 0
69 0 0
70 0 0
71 0 0
71 0 0
72 0 0
73 0 0
73 0 0
74 0 0
75 1 0
75 2 0
76 3 0
77 4 0
77 6 0
78 7 0
79 8 0
79 10 0
80 11 0
81 12 0
82 14 0
82 15 0
83 16 0
84 18 0
84 19 0
85 20 0
86 22 0
87 23 0
87 25 0
88 26 0
89 28 0
90 29 0
90 31 0
91 32 0
92 34 0
93 35 0
93 37 0
94 38 0
95 40 0
96 41 0
96 43 0
97 44 0
98 46 0
99 47 0
99 49 0
100 51 0
101 52 0
102 54 0
102 55 0
103 57 0
104 59 0
105 60 0
105 62 0
106 64 0
107 65 0
107 67 0
108 69 0
109 70 0
110 72 0
110 74 0
111 75 0
112 77 0
113 79 0
113 80 0
114 82 0
115 84 0
115 85 0
116 87 0
117 89 0
117 91 0
118 92 0
119 94 0
119 96 0
120 97 0
121 99 0
121 101 0
122 103 0
123 104 0
123 106 0
124 108 0
125 109 0
125 111 0
126 113 0
126 114 0
127 116 0
127 118 0
128 119 0
129 121 0
129 123 0
130 124 0
130 126 0
131 128 0
131 129 0
132 131 0
132 132 0
133 134 0
133 136 0
133 137 0
134 139 0
134 140 0
135 142 0
135 143 0
136 145 0
136 146 0
136 148 0
137 149 0
137 151 0
137 152 0
138 154 0
138 155 0
138 156 0
139 158 0
139 159 0
139 161 0
139 162 0
140 163 0
140 165 0
140 166 0
140 167 0
141 168 0
141 170 0
141 171 0
141 172 0
141 173 0
141 174 0
141 175 0
142 177 0
142 178 0
142 179 0
142 180 0
142 181 0
142 182 0
142 183 0
142 184 0
142 185 0
142 186 0
142 187 0
142 188 0
142 189 0
142 190 0
142 191 0
142 191 0
142 192 0
142 193 0
142 194 0
142 195 0
142 196 0
142 196 0
142 197 0
142 198 0
142 199 0
142 199 0
142 200 0
141 201 0
141 201 0
141 202 0
141 203 0
141 203 0
141 204 0
141 204 0
140 205 0
140 206 0
140 206 0
140 207 0
140 207 0
140 208 0
139 208 0
139 209 0
139 209 0
139 210 0
139 210 0
138 210 0
138 211 0
138 211 0
138 212 0
138 212 0
137 212 0
137 213 0
137 213 0
137 214 0
137 214 0
136 214 0
136 215 0
136 215 0
136 215 0
135 215 0
135 216 0
135 216 0
135 216 0
134 217 0
134 217 0
134 217 0
134 217 0
133 217 0
133 218 0
133 218 0
133 218 0
67 0 0
68 0 0
68 0 0
69 0 0
70 0 0
70 0 0
71 0 0
72 0 0
72 0 0
73 0 0
74 0 0
74 0 0
75 0 0
76 0 0
76 1 0
77 2 0
78 3 0
79 4 0
79 6 0
80 7 0
81 8 0
81 10 0
82 11 0
83 12 0
84 14 0
84 15 0
85 16 0
86 18 0
86 19 0
87 21 0
88 22 0
89 23 0
89 25 0
90 26 0
91 28 0
92 29 0
92 31 0
93 32 0
94 34 0
95 35 0
95 37 0
96 38 0
97 40 0
98 41 0
98 43 0
99 45 0
100 46 0
101 48 0
101 49 0
102 51 0
103 53 0
104 54 0
104 56 0
105 57 0
106 59 0
107 61 0
107 62 0
108 64 0
109 66 0
110 67 0
110 69 0
111 71 0
112 72 0
113 74 0
113 76 0
114 77 0
115 79 0
116 81 0
116 83 0
117 84 0
118 86 0
118 88 0
119 89 0
120 91 0
120 93 0
121 95 0
122 96 0
122 98 0
123 100 0
124 101 0
124 103 0
125 105 0
126 107 0
126 108 0
127 110 0
127 112 0
128 113 0
129 115 0
129 117 0
130 118 0
130 120 0
131 122 0
131 123 0
132 125 0
132 127 0
133 128 0
133 130 0
134 131 0
134 133 0
135 135 0
135 136 0
136 138 0
136 139 0
136 141 0
137 142 0
137 144 0
138 145 0
138 147 0
138 148 0
139 150 0
139 151 0
139 153 0
140 154 0
140 156 0
140 157 0
141 158 0
141 160 0
141 161 0
141 162 0
142 164 0
142 165 0
142 166 0
142 167 0
142 169 0
143 170 0
143 171 0
143 172 0
143 173 0
143 175 0
143 176 0
143 177 0
143 178 0
144 179 0
144 180 0
144 181 0
144 182 0
144 183 0
144 184 0
144 185 0
144 186 0
144 187 0
144 188 0
144 189 0
144 190 0
144 191 0
144 192 0
144 192 0
144 193 0
144 194 0
144 195 0
144 196 0
143 196 0
143 197 0
143 198 0
143 199 0
143 199 0
143 200 0
143 201 0
143 201 0
143 202 0
142 202 0
142 203 0
142 204 0
142 204 0
142 205 0
142 205 0
141 206 0
141 206 0
141 207 0
141 207 0
141 208 0
140 208 0
140 209 0
140 209 0
140 210 0
140 210 0
139 211 0
139 211 0
139 211 0
139 212 0
139 212 0
138 213 0
138 213 0
138 213 0
138 214 0
137 214 0
137 214 0
137 214 0
137 215 0
136 215 0
136 215 0
136 216 0
136 216 0
135 216 0
135 216 0
135 217 0
135 217 0
134 217 0
134 217 0
134 217 0
68 0 0
69 0 0
69 0 0
70 0 0
71 0 0
71 0 0
72 0 0
73 0 0
73 0 0
74 0 0
75 0 0
75 0 0
76 0 0
77 0 0
78 0 0
78 1 0
79 2 0
80 3 0
80 4 0
81 6 0
82 7 0
83 8 0
83 10 0
84 11 0
85 12 0
85 14 0
86 15 0
87 17 0
88 18 0
88 19 0
89 21 0
90 22 0
91 24 0
91 25 0
92 27 0
93 28 0
94 29 0
94 31 0
95 32 0
96 34 0
97 36 0
97 37 0
98 39 0
99 40 0
100 42 0
101 43 0
101 45 0
102 46 0
103 48 0
104 50 0
104 51 0
105 53 0
106 55 0
107 56 0
107 58 0
108 59 0
109 61 0
110 63 0
110 64 0
111 66 0
112 68 0
113 69 0
113 71 0
114 73 0
115 75 0
116 76 0
116 78 0
117 80 0
118 81 0
119 83 0
119 85 0
120 87 0
121 88 0
121 90 0
122 92 0
123 93 0
123 95 0
124 97 0
125 99 0
125 100 0
126 102 0
127 104 0
127 105 0
128 107 0
128 109 0
129 111 0
130 112 0
130 114 0
131 116 0
131 117 0
132 119 0
132 121 0
133 122 0
134 124 0
134 126 0
135 127 0
135 129 0
136 130 0
136 132 0
136 134 0
137 135 0
137 137 0
138 138 0
138 140 0
139 141 0
139 143 0
139 144 0
140 146 0
140 147 0
140 149 0
141 150 0
141 152 0
141 153 0
142 155 0
142 156 0
142 157 0
143 159 0
143 160 0
143 161 0
143 163 0
143 164 0
144 165 0
144 166 0
144 168 0
144 169 0
144 170 0
145 171 0
145 173 0
145 174 0
145 175 0
145 176 0
145 177 0
145 178 0
145 179 0
145 180 0
145 181 0
145 182 0
145 183 0
145 184 0
145 185 0
145 186 0
145 187 0
145 188 0
145 189 0
145 190 0
145 191 0
145 192 0
145 192 0
145 193 0
145 194 0
145 195 0
145 196 0
145 196 0
145 197 0
145 198 0
145 198 0
144 199 0
144 200 0
144 200 0
144 201 0
144 202 0
144 202 0
144 203 0
143 203 0
143 204 0
143 205 0
143 205 0
143 206 0
142 206 0
142 207 0
142 207 0
142 208 0
142 208 0
141 209 0
141 209 0
141 209 0
141 210 0
141 210 0
140 211 0
140 211 0
140 211 0
140 212 0
139 212 0
139 212 0
139 213 0
139 213 0
138 213 0
138 214 0
138 214 0
138 214 0
137 215 0
137 215 0
137 215 0
137 215 0
136 216 0
136 216 0
136 216 0
135 216 0
135 216 0
135 217 0
69 0 0
70 0 0
70 0 0
71 0 0
72 0 0
72 0 0
73 0 0
74 0 0
75 0 0
75 0 0
76 0 0
77 0 0
77 0 0
78 0 0
79 0 0
79 0 0
80 1 0
81 2 0
82 3 0
82 4 0
83 6 0
84 7 0
84 8 0
85 10 0
86 11 0
87 12 0
87 14 0
88 15 0
89 17 0
90 18 0
90 19 0
91 21 0
92 22 0
93 24 0
93 25 0
94 27 0
95 28 0
96 30 0
97 31 0
97 33 0
98 34 0
99 36 0
100 37 0
100 39 0
101 40 0
102 42 0
103 44 0
103 45 0
104 47 0
105 48 0
106 50 0
107 52 0
107 53 0
108 55 0
109 57 0
110 58 0
110 60 0
111 61 0
112 63 0
113 65 0
113 67 0
114 68 0
115 70 0
116 72 0
116 73 0
117 75 0
118 77 0
119 78 0
119 80 0
120 82 0
121 84 0
121 85 0
122 87 0
123 89 0
124 90 0
124 92 0
125 94 0
126 96 0
126 97 0
127 99 0
128 101 0
128 103 0
129 104 0
129 106 0
130 108 0
131 109 0
131 111 0
132 113 0
132 114 0
133 116 0
134 118 0
134 119 0
135 121 0
135 123 0
136 124 0
136 126 0
137 128 0
137 129 0
138 131 0
138 133 0
139 134 0
139 136 0
140 137 0
140 139 0
140 140 0
141 142 0
141 143 0
141 145 0
142 146 0
142 148 0
143 149 0
143 151 0
143 152 0
143 154 0
144 155 0
144 156 0
144 158 0
145 159 0
145 160 0
145 162 0
145 163 0
145 164 0
146 166 0
146 167 0
146 168 0
146 169 0
146 170 0
146 172 0
146 173 0
147 174 0
147 175 0
147 176 0
147 177 0
147 178 0
147 179 0
147 180 0
147 181 0
147 182 0
147 183 0
147 184 0
147 185 0
147 186 0
147 187 0
147 188 0
147 189 0
147 190 0
147 191 0
147 192 0
147 192 0
147 193 0
147 194 0
146 195 0
146 195 0
146 196 0
146 197 0
146 198 0
146 198 0
146 199 0
146 200 0
145 200 0
145 201 0
145 202 0
145 202 0
145 203 0
145 203 0
144 204 0
144 204 0
144 205 0
144 205 0
144 206 0
143 206 0
143 207 0
143 207 0
143 208 0
143 208 0
142 209 0
142 209 0
142 210 0
142 210 0
141 210 0
141 211 0
141 211 0
141 211 0
140 212 0
140 212 0
140 212 0
140 213 0
139 213 0
139 213 0
139 214 0
139 214 0
138 214 0
138 214 0
138 215 0
137 215 0
137 215 0
137 215 0
137 216 0
136 216 0
136 216 0
70 0 0
71 0 0
72 0 0
72 0 0
73 0 0
74 0 0
74 0 0
75 0 0
76 0 0
76 0 0
77 0 0
78 0 0
78 0 0
79 0 0
80 0 0
81 0 0
81 0 0
82 1 0
83 2 0
83 3 0
84 5 0
85 6 0
86 7 0
86 9 0
87 10 0
88 11 0
89 13 0
89 14 0
90 15 0
91 17 0
92 18 0
92 20 0
93 21 0
94 23 0
95 24 0
95 25 0
96 27 0
97 28 0
98 30 0
99 31 0
99 33 0
100 34 0
101 36 0
102 38 0
103 39 0
103 41 0
104 42 0
105 44 0
106 45 0
106 47 0
107 49 0
108 50 0
109 52 0
110 54 0
110 55 0
111 57 0
112 59 0
113 60 0
113 62 0
114 64 0
115 65 0
116 67 0
116 69 0
117 70 0
118 72 0
119 74 0
119 75 0
120 77 0
121 79 0
122 81 0
122 82 0
123 84 0
124 86 0
125 88 0
125 89 0
126 91 0
127 93 0
127 94 0
128 96 0
129 98 0
129 100 0
130 101 0
131 103 0
131 105 0
132 106 0
132 108 0
133 110 0
134 112 0
134 113 0
135 115 0
135 117 0
136 118 0
136 120 0
137 122 0
137 123 0
138 125 0
138 127 0
139 128 0
139 130 0
140 131 0
140 133 0
141 135 0
141 136 0
142 138 0
142 139 0
142 141 0
143 142 0
143 144 0
144 145 0
144 147 0
144 148 0
145 150 0
145 151 0
145 153 0
145 154 0
146 155 0
146 157 0
146 158 0
146 159 0
147 161 0
147 162 0
147 163 0
147 165 0
147 166 0
148 167 0
148 168 0
148 170 0
148 171 0
148 172 0
148 173 0
148 174 0
148 175 0
149 176 0
149 177 0
149 179 0
149 180 0
149 181 0
149 182 0
149 183 0
149 184 0
149 185 0
149 185 0
149 186 0
149 187 0
149 188 0
149 189 0
148 190 0
148 191 0
148 192 0
148 192 0
148 193 0
148 194 0
148 195 0
148 195 0
148 196 0
148 197 0
147 197 0
147 198 0
147 199 0
147 199 0
147 200 0
147 201 0
146 201 0
146 202 0
146 202 0
146 203 0
146 204 0
145 204 0
145 205 0
145 205 0
145 206 0
145 206 0
144 207 0
144 207 0
144 207 0
144 208 0
143 208 0
143 209 0
143 209 0
143 210 0
142 210 0
142 210 0
142 211 0
142 211 0
141 211 0
141 212 0
141 212 0
141 212 0
140 213 0
140 213 0
140 213 0
140 213 0
139 214 0
139 214 0
139 214 0
138 214 0
138 215 0
138 215 0
138 215 0
137 215 0
71 0 0
72 0 0
73 0 0
73 0 0
74 0 0
75 0 0
75 0 0
76 0 0
77 0 0
77 0 0
78 0 0
79 0 0
80 0 0
80 0 0
81 0 0
82 0 0
82 0 0
83 0 0
84 1 0
85 2 0
85 3 0
86 5 0
87 6 0
88 7 0
88 9 0
89 10 0
90 11 0
91 13 0
91 14 0
92 15 0
93 17 0
94 18 0
94 20 0
95 21 0
96 23 0
97 24 0
98 26 0
98 27 0
99 29 0
100 30 0
101 32 0
102 33 0
102 35 0
103 36 0
104 38 0
105 39 0
105 41 0
106 43 0
107 44 0
108 46 0
109 47 0
109 49 0
110 51 0
111 52 0
112 54 0
113 56 0
113 57 0
114 59 0
115 61 0
116 62 0
116 64 0
117 66 0
118 67 0
119 69 0
120 71 0
120 72 0
121 74 0
122 76 0
122 78 0
123 79 0
124 81 0
125 83 0
125 85 0
126 86 0
127 88 0
128 90 0
128 91 0
129 93 0
130 95 0
130 97 0
131 98 0
132 100 0
132 102 0
133 104 0
133 105 0
134 107 0
135 109 0
135 110 0
136 112 0
136 114 0
137 116 0
138 117 0
138 119 0
139 121 0
139 122 0
140 124 0
140 125 0
141 127 0
141 129 0
142 130 0
142 132 0
143 134 0
143 135 0
143 137 0
144 138 0
144 140 0
145 141 0
145 143 0
145 144 0
146 146 0
146 147 0
146 149 0
147 150 0
147 152 0
147 153 0
147 154 0
148 156 0
148 157 0
148 158 0
148 160 0
149 161 0
149 162 0
149 164 0
149 165 0
149 166 0
149 167 0
150 169 0
150 170 0
150 171 0
150 172 0
150 173 0
150 174 0
150 175 0
150 177 0
150 178 0
150 179 0
150 180 0
150 181 0
150 182 0
150 183 0
150 184 0
150 185 0
150 185 0
150 186 0
150 187 0
150 188 0
150 189 0
150 190 0
150 191 0
150 191 0
150 192 0
150 193 0
149 194 0
149 195 0
149 195 0
149 196 0
149 197 0
149 197 0
149 198 0
148 199 0
148 199 0
148 200 0
148 201 0
148 201 0
147 202 0
147 202 0
147 203 0
147 203 0
147 204 0
146 204 0
146 205 0
146 205 0
146 206 0
146 206 0
145 207 0
145 207 0
145 208 0
145 208 0
144 208 0
144 209 0
144 209 0
144 209 0
143 210 0
143 210 0
143 211 0
142 211 0
142 211 0
142 211 0
142 212 0
141 212 0
141 212 0
141 213 0
140 213 0
140 213 0
140 213 0
140 214 0
139 214 0
139 214 0
139 214 0
138 215 0
72 0 0
73 0 0
74 0 0
74 0 0
75 0 0
76 0 0
76 0 0
77 0 0
78 0 0
78 0 0
79 0 0
80 0 0
81 0 0
81 0 0
82 0 0
83 0 0
84 0 0
84 0 0
85 0 0
86 1 0
87 2 0
87 3 0
88 5 0
89 6 0
90 7 0
90 9 0
91 10 0
92 11 0
93 13 0
93 14 0
94 16 0
95 17 0
96 18 0
97 20 0
97 21 0
98 23 0
99 24 0
100 26 0
100 27 0
101 29 0
102 30 0
103 32 0
104 33 0
104 35 0
105 37 0
106 38 0
107 40 0
108 41 0
108 43 0
109 44 0
110 46 0
111 48 0
112 49 0
112 51 0
113 53 0
114 54 0
115 56 0
116 58 0
116 59 0
117 61 0
118 63 0
119 64 0
120 66 0
120 68 0
121 69 0
122 71 0
123 73 0
123 75 0
124 76 0
125 78 0
126 80 0
126 82 0
127 83 0
128 85 0
128 87 0
129 89 0
130 90 0
131 92 0
131 94 0
132 95 0
133 97 0
133 99 0
134 101 0
134 102 0
135 104 0
136 106 0
136 108 0
137 109 0
138 111 0
138 113 0
139 114 0
139 116 0
140 118 0
140 119 0
141 121 0
141 123 0
142 124 0
142 126 0
143 128 0
143 129 0
144 131 0
144 132 0
145 134 0
145 136 0
146 137 0
146 139 0
146 140 0
147 142 0
147 143 0
147 145 0
148 146 0
148 148 0
148 149 0
149 150 0
149 152 0
149 153 0
149 155 0
150 156 0
150 157 0
150 159 0
150 160 0
151 161 0
151 163 0
151 164 0
151 165 0
151 166 0
151 168 0
151 169 0
152 170 0
152 171 0
152 172 0
152 173 0
152 175 0
152 176 0
152 177 0
152 178 0
152 179 0
152 180 0
152 181 0
152 182 0
152 183 0
152 184 0
152 185 0
152 186 0
152 186 0
152 187 0
152 188 0
152 189 0
151 190 0
151 191 0
151 191 0
151 192 0
151 193 0
151 194 0
151 194 0
151 195 0
150 196 0
150 196 0
150 197 0
150 198 0
150 198 0
150 199 0
149 200 0
149 200 0
149 201 0
149 201 0
149 202 0
148 202 0
148 203 0
148 204 0
148 204 0
147 205 0
147 205 0
147 205 0
147 206 0
146 206 0
146 207 0
146 207 0
146 208 0
145 208 0
145 208 0
145 209 0
145 209 0
144 209 0
144 210 0
144 210 0
143 210 0
143 211 0
143 211 0
143 211 0
142 212 0
142 212 0
142 212 0
141 212 0
141 213 0
141 213 0
140 213 0
140 213 0
140 214 0
140 214 0
73 0 0
74 0 0
75 0 0
75 0 0
76 0 0
77 0 0
77 0 0
78 0 0
79 0 0
80 0 0
80 0 0
81 0 0
82 0 0
82 0 0
83 0 0
84 0 0
85 0 0
85 0 0
86 0 0
87 0 0
88 1 0
88 2 0
89 3 0
90 5 0
91 6 0
92 7 0
92 9 0
93 10 0
94 11 0
95 13 0
95 14 0
96 16 0
97 17 0
98 19 0
99 20 0
99 21 0
100 23 0
101 24 0
102 26 0
103 27 0
103 29 0
104 31 0
105 32 0
106 34 0
107 35 0
107 37 0
108 38 0
109 40 0
110 42 0
111 43 0
111 45 0
112 46 0
113 48 0
114 50 0
115 51 0
116 53 0
116 55 0
117 56 0
118 58 0
119 60 0
119 61 0
120 63 0
121 65 0
122 66 0
123 68 0
123 70 0
124 72 0
125 73 0
126 75 0
126 77 0
127 79 0
128 80 0
129 82 0
129 84 0
130 85 0
131 87 0
131 89 0
132 91 0
133 92 0
134 94 0
134 96 0
135 98 0
136 99 0
136 101 0
137 103 0
137 105 0
138 106 0
139 108 0
139 110 0
140 111 0
140 113 0
141 115 0
142 117 0
142 118 0
143 120 0
143 122 0
144 123 0
144 125 0
145 126 0
145 128 0
146 130 0
146 131 0
146 133 0
147 134 0
147 136 0
148 138 0
148 139 0
148 141 0
149 142 0
149 144 0
149 145 0
150 147 0
150 148 0
150 149 0
151 151 0
151 152 0
151 154 0
151 155 0
152 156 0
152 158 0
152 159 0
152 160 0
152 162 0
153 163 0
153 164 0
153 165 0
153 167 0
153 168 0
153 169 0
153 170 0
153 171 0
153 172 0
154 174 0
154 175 0
154 176 0
154 177 0
154 178 0
154 179 0
154 180 0
154 181 0
154 182 0
154 183 0
153 184 0
153 185 0
153 185 0
153 186 0
153 187 0
153 188 0
153 189 0
153 190 0
153 191 0
153 191 0
153 192 0
152 193 0
152 194 0
152 194 0
152 195 0
152 196 0
152 196 0
151 197 0
151 198 0
151 198 0
151 199 0
151 199 0
150 200 0
150 201 0
150 201 0
150 202 0
149 202 0
149 203 0
149 203 0
149 204 0
149 204 0
148 205 0
148 205 0
148 206 0
147 206 0
147 206 0
147 207 0
147 207 0
146 208 0
146 208 0
146 208 0
146 209 0
145 209 0
145 209 0
145 210 0
144 210 0
144 210 0
144 211 0
143 211 0
143 211 0
143 211 0
143 212 0
142 212 0
142 212 0
142 212 0
141 213 0
141 213 0
141 213 0
74 0 0
75 0 0
76 0 0
76 0 0
77 0 0
78 0 0
79 0 0
79 0 0
80 0 0
81 0 0
81 0 0
82 0 0
83 0 0
84 0 0
84 0 0
85 0 0
86 0 0
87 0 0
87 0 0
88 0 0
89 0 0
90 1 0
90 2 0
91 3 0
92 5 0
93 6 0
94 7 0
94 9 0
95 10 0
96 12 0
97 13 0
97 14 0
98 16 0
99 17 0
100 19 0
101 20 0
102 22 0
102 23 0
103 25 0
104 26 0
105 28 0
106 29 0
106 31 0
107 32 0
108 34 0
109 35 0
110 37 0
110 39 0
111 40 0
112 42 0
113 43 0
114 45 0
115 47 0
115 48 0
116 50 0
117 52 0
118 53 0
119 55 0
119 57 0
120 58 0
121 60 0
122 62 0
123 63 0
123 65 0
124 67 0
125 69 0
126 70 0
126 72 0
127 74 0
128 76 0
129 77 0
129 79 0
130 81 0
131 82 0
132 84 0
132 86 0
133 88 0
134 89 0
134 91 0
135 93 0
136 95 0
137 96 0
137 98 0
138 100 0
138 102 0
139 103 0
140 105 0
140 107 0
141 109 0
142 110 0
142 112 0
143 114 0
143 115 0
144 117 0
144 119 0
145 120 0
145 122 0
146 124 0
146 125 0
147 127 0
147 129 0
148 130 0
148 132 0
149 133 0
149 135 0
149 136 0
150 138 0
150 139 0
151 141 0
151 143 0
151 144 0
151 145 0
152 147 0
152 148 0
152 150 0
153 151 0
153 153 0
153 154 0
153 155 0
154 157 0
154 158 0
154 159 0
154 161 0
154 162 0
154 163 0
155 164 0
155 166 0
155 167 0
155 168 0
155 169 0
155 170 0
155 171 0
155 173 0
155 174 0
155 175 0
155 176 0
155 177 0
155 178 0
155 179 0
155 180 0
155 181 0
155 182 0
155 183 0
155 184 0
155 185 0
155 185 0
155 186 0
155 187 0
155 188 0
154 189 0
154 190 0
154 190 0
154 191 0
154 192 0
154 193 0
154 193 0
153 194 0
153 195 0
153 195 0
153 196 0
153 197 0
152 197 0
152 198 0
152 199 0
152 199 0
152 200 0
151 200 0
151 201 0
151 201 0
151 202 0
150 202 0
150 203 0
150 203 0
150 204 0
149 204 0
149 205 0
149 205 0
149 206 0
148 206 0
148 206 0
148 207 0
147 207 0
147 207 0
147 208 0
147 208 0
146 208 0
146 209 0
146 209 0
145 209 0
145 210 0
145 210 0
144 210 0
144 211 0
144 211 0
143 211 0
143 211 0
143 212 0
143 212 0
142 212 0
142 212 0
75 0 0
76 0 0
77 0 0
77 0 0
78 0 0
79 0 0
80 0 0
80 0 0
81 0 0
82 0 0
83 0 0
83 0 0
84 0 0
85 0 0
85 0 0
86 0 0
87 0 0
88 0 0
89 0 0
89 0 0
90 0 0
91 0 0
92 1 0
92 2 0
93 3 0
94 5 0
95 6 0
96 7 0
96 9 0
97 10 0
98 12 0
99 13 0
100 14 0
100 16 0
101 17 0
102 19 0
103 20 0
104 22 0
104 23 0
105 25 0
106 26 0
107 28 0
108 29 0
109 31 0
109 32 0
110 34 0
111 36 0
112 37 0
113 39 0
114 40 0
114 42 0
115 44 0
116 45 0
117 47 0
118 49 0
118 50 0
119 52 0
120 54 0
121 55 0
122 57 0
123 59 0
123 60 0
124 62 0
125 64 0
126 66 0
126 67 0
127 69 0
128 71 0
129 72 0
130 74 0
130 76 0
131 78 0
132 79 0
133 81 0
133 83 0
134 85 0
135 86 0
135 88 0
136 90 0
137 92 0
138 93 0
138 95 0
139 97 0
140 99 0
140 100 0
141 102 0
141 104 0
142 106 0
143 107 0
143 109 0
144 111 0
144 112 0
145 114 0
146 116 0
146 117 0
147 119 0
147 121 0
148 122 0
148 124 0
149 126 0
149 127 0
149 129 0
150 131 0
150 132 0
151 134 0
151 135 0
152 137 0
152 138 0
152 140 0
153 141 0
153 143 0
153 144 0
154 146 0
154 147 0
154 149 0
154 150 0
155 152 0
155 153 0
155 154 0
155 156 0
155 157 0
156 158 0
156 160 0
156 161 0
156 162 0
156 163 0
156 165 0
156 166 0
157 167 0
157 168 0
157 169 0
157 170 0
157 172 0
157 173 0
157 174 0
157 175 0
157 176 0
157 177 0
157 178 0
157 179 0
157 180 0
157 181 0
157 182 0
157 183 0
157 184 0
156 185 0
156 185 0
156 186 0
156 187 0
156 188 0
156 189 0
156 189 0
156 190 0
155 191 0
155 192 0
155 192 0
155 193 0
155 194 0
155 195 0
154 195 0
154 196 0
154 196 0
154 197 0
153 198 0
153 198 0
153 199 0
153 199 0
153 200 0
152 200 0
152 201 0
152 202 0
152 202 0
151 202 0
151 203 0
151 203 0
150 204 0
150 204 0
150 205 0
150 205 0
149 206 0
149 206 0
149 206 0
148 207 0
148 207 0
148 207 0
148 208 0
147 208 0
147 208 0
147 209 0
146 209 0
146 209 0
146 209 0
145 210 0
145 210 0
145 210 0
144 211 0
144 211 0
144 211 0
143 211 0
143 211 1
76 0 0
77 0 0
78 0 0
79 0 0
79 0 0
80 0 0
81 0 0
81 0 0
82 0 0
83 0 0
84 0 0
84 0 0
85 0 0
86 0 0
87 0 0
87 0 0
88 0 0
89 0 0
90 0 0
90 0 0
91 0 0
92 0 0
93 0 0
94 1 0
94 2 0
95 3 0
96 5 0
97 6 0
98 7 0
98 9 0
99 10 0
100 12 0
101 13 0
102 15 0
102 16 0
103 17 0
104 19 0
105 20 0
106 22 0
107 23 0
107 25 0
108 26 0
109 28 0
110 30 0
111 31 0
112 33 0
112 34 0
113 36 0
114 37 0
115 39 0
116 41 0
117 42 0
117 44 0
118 46 0
119 47 0
120 49 0
121 51 0
122 52 0
122 54 0
123 56 0
124 57 0
125 59 0
126 61 0
126 62 0
127 64 0
128 66 0
129 68 0
130 69 0
130 71 0
131 73 0
132 75 0
133 76 0
133 78 0
134 80 0
135 82 0
136 83 0
136 85 0
137 87 0
138 89 0
138 90 0
139 92 0
140 94 0
141 96 0
141 97 0
142 99 0
142 101 0
143 103 0
144 104 0
144 106 0
145 108 0
146 109 0
146 111 0
147 113 0
147 115 0
148 116 0
148 118 0
149 120 0
149 121 0
150 123 0
150 125 0
151 126 0
151 128 0
152 129 0
152 131 0
152 133 0
153 134 0
153 136 0
154 137 0
154 139 0
154 140 0
155 142 0
155 143 0
155 145 0
156 146 0
156 148 0
156 149 0
156 150 0
157 152 0
157 153 0
157 155 0
157 156 0
157 157 0
158 159 0
158 160 0
158 161 0
158 162 0
158 164 0
158 165 0
158 166 0
158 167 0
158 168 0
158 169 0
159 171 0
159 172 0
159 173 0
159 174 0
159 175 0
159 176 0
159 177 0
158 178 0
158 179 0
158 180 0
158 181 0
158 182 0
158 183 0
158 184 0
158 184 0
158 185 0
158 186 0
158 187 0
157 188 0
157 189 0
157 189 0
157 190 0
157 191 0
157 192 0
156 192 0
156 193 0
156 194 0
156 194 0
156 195 0
155 196 0
155 196 0
155 197 0
155 197 0
154 198 0
154 199 0
154 199 0
154 200 0
153 200 0
153 201 0
153 201 0
153 202 0
152 202 0
152 203 0
152 203 0
151 203 0
151 204 0
151 204 0
151 205 0
150 205 0
150 205 0
150 206 0
149 206 0
149 207 0
149 207 0
148 207 0
148 207 0
148 208 0
148 208 0
147 208 0
147 209 0
147 209 0
146 209 0
146 209 0
146 210 0
145 210 0
145 210 0
145 210 0
144 211 2
77 0 0
78 0 0
79 0 0
80 0 0
80 0 0
81 0 0
82 0 0
82 0 0
83 0 0
84 0 0
85 0 0
85 0 0
86 0 0
87 0 0
88 0 0
89 0 0
89 0 0
90 0 0
91 0 0
92 0 0
92 0 0
93 0 0
94 0 0
95 0 0
96 1 0
96 2 0
97 3 0
98 5 0
99 6 0
100 8 0
100 9 0
101 10 0
102 12 0
103 13 0
104 15 0
105 16 0
105 18 0
106 19 0
107 21 0
108 22 0
109 24 0
110 25 0
110 27 0
111 28 0
112 30 0
113 31 0
114 33 0
115 35 0
116 36 0
116 38 0
117 39 0
118 41 0
119 43 0
120 44 0
121 46 0
121 48 0
122 49 0
123 51 0
124 53 0
125 54 0
126 56 0
126 58 0
127 59 0
128 61 0
129 63 0
130 65 0
130 66 0
131 68 0
132 70 0
133 72 0
134 73 0
134 75 0
135 77 0
136 79 0
137 80 0
137 82 0
138 84 0
139 86 0
139 87 0
140 89 0
141 91 0
142 93 0
142 94 0
143 96 0
144 98 0
144 100 0
145 101 0
145 103 0
146 105 0
147 107 0
147 108 0
148 110 0
148 112 0
149 113 0
149 115 0
150 117 0
151 118 0
151 120 0
152 122 0
152 123 0
152 125 0
153 127 0
153 128 0
154 130 0
154 131 0
155 133 0
155 135 0
155 136 0
156 138 0
156 139 0
156 141 0
157 142 0
157 144 0
157 145 0
158 146 0
158 148 0
158 149 0
158 151 0
159 152 0
159 153 0
159 155 0
159 156 0
159 157 0
159 159 0
160 160 0
160 161 0
160 162 0
160 164 0
160 165 0
160 166 0
160 167 0
160 168 0
160 170 0
160 171 0
160 172 0
160 173 0
160 174 0
160 175 0
160 176 0
160 177 0
160 178 0
160 179 0
160 180 0
160 181 0
160 182 0
160 183 0
160 183 0
159 184 0
159 185 0
159 186 0
159 187 0
159 188 0
159 188 0
158 189 0
158 190 0
158 191 0
158 191 0
158 192 0
158 193 0
157 193 0
157 194 0
157 195 0
157 195 0
156 196 0
156 196 0
156 197 0
156 198 0
155 198 0
155 199 0
155 199 0
155 200 0
154 200 0
154 201 0
154 201 0
153 202 0
153 202 0
153 203 0
153 203 0
152 203 0
152 204 0
152 204 0
151 205 0
151 205 0
151 205 0
150 206 0
150 206 0
150 206 0
149 207 0
149 207 0
149 207 0
148 208 0
148 208 0
148 208 0
147 208 0
147 209 0
147 209 0
146 209 0
146 209 0
146 210 1
145 210 2
78 0 0
79 0 0
80 0 0
81 0 0
81 0 0
82 0 0
83 0 0
84 0 0
84 0 0
85 0 0
86 0 0
87 0 0
87 0 0
88 0 0
89 0 0
90 0 0
90 0 0
91 0 0
92 0 0
93 0 0
94 0 0
94 0 0
95 0 0
96 0 0
97 0 0
98 1 0
98 2 0
99 3 0
100 5 0
101 6 0
102 8 0
103 9 0
103 10 0
104 12 0
105 13 0
106 15 0
107 16 0
108 18 0
108 19 0
109 21 0
110 22 0
111 24 0
112 25 0
113 27 0
114 28 0
114 30 0
115 32 0
116 33 0
117 35 0
118 36 0
119 38 0
120 40 0
120 41 0
121 43 0
122 45 0
123 46 0
124 48 0
125 50 0
125 51 0
126 53 0
127 55 0
128 56 0
129 58 0
130 60 0
130 61 0
131 63 0
132 65 0
133 67 0
134 68 0
134 70 0
135 72 0
136 74 0
137 75 0
137 77 0
138 79 0
139 81 0
140 82 0
140 84 0
141 86 0
142 88 0
143 90 0
143 91 0
144 93 0
145 95 0
145 97 0
146 98 0
147 100 0
147 102 0
148 104 0
148 105 0
149 107 0
150 109 0
150 110 0
151 112 0
151 114 0
152 115 0
152 117 0
153 119 0
153 120 0
154 122 0
154 124 0
155 125 0
155 127 0
156 129 0
156 130 0
156 132 0
157 133 0
157 135 0
157 136 0
158 138 0
158 139 0
158 141 0
159 142 0
159 144 0
159 145 0
160 147 0
160 148 0
160 150 0
160 151 0
160 152 0
161 154 0
161 155 0
161 156 0
161 158 0
161 159 0
161 160 0
161 161 0
162 163 0
162 164 0
162 165 0
162 166 0
162 167 0
162 168 0
162 170 0
162 171 0
162 172 0
162 173 0
162 174 0
162 175 0
162 176 0
162 177 0
162 178 0
162 179 0
161 180 0
161 181 0
161 182 0
161 182 0
161 183 0
161 184 0
161 185 0
161 186 0
160 187 0
160 187 0
160 188 0
160 189 0
160 190 0
159 190 0
159 191 0
159 192 0
159 192 0
159 193 0
158 194 0
158 194 0
158 195 0
158 196 0
157 196 0
157 197 0
157 197 0
156 198 0
156 198 0
156 199 0
156 199 0
155 200 0
155 200 0
155 201 0
154 201 0
154 202 0
154 202 0
154 203 0
153 203 0
153 203 0
153 204 0
152 204 0
152 204 0
152 205 0
151 205 0
151 205 0
151 206 0
150 206 0
150 206 0
150 207 0
149 207 0
149 207 0
149 208 0
148 208 0
148 208 0
148 208 0
147 209 1
147 209 2
147 209 3
80 0 0
80 0 0
81 0 0
82 0 0
82 0 0
83 0 0
84 0 0
85 0 0
85 0 0
86 0 0
87 0 0
88 0 0
88 0 0
89 0 0
90 0 0
91 0 0
92 0 0
92 0 0
93 0 0
94 0 0
95 0 0
96 0 0
96 0 0
97 0 0
98 0 0
99 0 0
100 1 0
101 2 0
101 3 0
102 5 0
103 6 0
104 8 0
105 9 0
106 10 0
106 12 0
107 13 0
108 15 0
109 16 0
110 18 0
111 19 0
112 21 0
112 22 0
113 24 0
114 25 0
115 27 0
116 29 0
117 30 0
118 32 0
118 33 0
119 35 0
120 37 0
121 38 0
122 40 0
123 41 0
124 43 0
124 45 0
125 46 0
126 48 0
127 50 0
128 52 0
129 53 0
129 55 0
130 57 0
131 58 0
132 60 0
133 62 0
134 64 0
134 65 0
135 67 0
136 69 0
137 71 0
137 72 0
138 74 0
139 76 0
140 78 0
141 79 0
141 81 0
142 83 0
143 85 0
143 86 0
144 88 0
145 90 0
146 92 0
146 93 0
147 95 0
148 97 0
148 99 0
149 100 0
149 102 0
150 104 0
151 106 0
151 107 0
152 109 0
152 111 0
153 113 0
153 114 0
154 116 0
155 118 0
155 119 0
155 121 0
156 123 0
156 124 0
157 126 0
157 127 0
158 129 0
158 131 0
158 132 0
159 134 0
159 135 0
160 137 0
160 138 0
160 140 0
160 141 0
161 143 0
161 144 0
161 146 0
162 147 0
162 148 0
162 150 0
162 151 0
162 153 0
163 154 0
163 155 0
163 157 0
163 158 0
163 159 0
163 160 0
163 162 0
163 163 0
163 164 0
163 165 0
163 166 0
163 167 0
164 169 0
164 170 0
163 171 0
163 172 0
163 173 0
163 174 0
163 175 0
163 176 0
163 177 0
163 178 0
163 179 0
163 180 0
163 181 0
163 181 0
163 182 0
162 183 0
162 184 0
162 185 0
162 186 0
162 186 0
162 187 0
161 188 0
161 189 0
161 189 0
161 190 0
160 191 0
160 191 0
160 192 0
160 193 0
160 193 0
159 194 0
159 195 0
159 195 0
158 196 0
158 196 0
158 197 0
158 197 0
157 198 0
157 198 0
157 199 0
156 199 0
156 200 0
156 200 0
156 201 0
155 201 0
155 202 0
155 202 0
154 202 0
154 203 0
154 203 0
153 204 0
153 204 0
153 204 0
152 205 0
152 205 0
152 205 0
151 206 0
151 206 0
151 206 0
150 206 0
150 207 0
149 207 0
149 207 0
149 207 1
148 208 2
148 208 3
148 208 4
81 0 0
81 0 0
82 0 0
83 0 0
84 0 0
84 0 0
85 0 0
86 0 0
87 0 0
87 0 0
88 0 0
89 0 0
90 0 0
90 0 0
91 0 0
92 0 0
93 0 0
94 0 0
94 0 0
95 0 0
96 0 0
97 0 0
98 0 0
98 0 0
99 0 0
100 0 0
101 0 0
102 1 0
103 2 0
103 3 0
104 5 0
105 6 0
106 8 0
107 9 0
108 11 0
109 12 0
109 13 0
110 15 0
111 16 0
112 18 0
113 19 0
114 21 0
115 23 0
115 24 0
116 26 0
117 27 0
118 29 0
119 30 0
120 32 0
121 34 0
122 35 0
122 37 0
123 38 0
124 40 0
125 42 0
126 43 0
127 45 0
128 47 0
128 48 0
129 50 0
130 52 0
131 54 0
132 55 0
133 57 0
133 59 0
134 60 0
135 62 0
136 64 0
137 66 0
138 67 0
138 69 0
139 71 0
140 73 0
141 74 0
141 76 0
142 78 0
143 80 0
144 82 0
144 83 0
145 85 0
146 87 0
147 89 0
147 90 0
148 92 0
149 94 0
149 96 0
150 97 0
151 99 0
151 101 0
152 103 0
152 104 0
153 106 0
154 108 0
154 110 0
155 111 0
155 113 0
156 115 0
156 116 0
157 118 0
157 120 0
158 121 0
158 123 0
159 125 0
159 126 0
159 128 0
160 129 0
160 131 0
161 132 0
161 134 0
161 136 0
162 137 0
162 139 0
162 140 0
162 142 0
163 143 0
163 144 0
163 146 0
163 147 0
164 149 0
164 150 0
164 151 0
164 153 0
164 154 0
165 155 0
165 157 0
165 158 0
165 159 0
165 160 0
165 162 0
165 163 0
165 164 0
165 165 0
165 166 0
165 167 0
165 169 0
165 170 0
165 171 0
165 172 0
165 173 0
165 174 0
165 175 0
165 176 0
165 177 0
165 178 0
164 179 0
164 180 0
164 180 0
164 181 0
164 182 0
164 183 0
164 184 0
163 185 0
163 185 0
163 186 0
163 187 0
163 188 0
162 188 0
162 189 0
162 190 0
162 191 0
161 191 0
161 192 0
161 192 0
161 193 0
160 194 0
160 194 0
160 195 0
160 195 0
159 196 0
159 196 0
159 197 0
158 197 0
158 198 0
158 198 0
157 199 0
157 199 0
157 200 0
157 200 0
156 201 0
156 201 0
156 202 0
155 202 0
155 202 0
155 203 0
154 203 0
154 203 0
153 204 0
153 204 0
153 204 0
152 205 0
152 205 0
152 205 0
151 206 0
151 206 0
151 206 0
150 206 0
150 207 2
150 207 3
149 207 4
149 207 5
82 0 0
82 0 0
83 0 0
84 0 0
85 0 0
85 0 0
86 0 0
87 0 0
88 0 0
88 0 0
89 0 0
90 0 0
91 0 0
92 0 0
92 0 0
93 0 0
94 0 0
95 0 0
96 0 0
96 0 0
97 0 0
98 0 0
99 0 0
100 0 0
100 0 0
101 0 0
102 0 0
103 0 0
104 1 0
105 2 0
106 3 0
106 5 0
107 6 0
108 8 0
109 9 0
110 11 0
111 12 0
112 14 0
112 15 0
113 17 0
114 18 0
115 20 0
116 21 0
117 23 0
118 24 0
119 26 0
119 27 0
120 29 0
121 31 0
122 32 0
123 34 0
124 35 0
125 37 0
126 39 0
126 40 0
127 42 0
128 44 0
129 45 0
130 47 0
131 49 0
132 50 0
132 52 0
133 54 0
134 56 0
135 57 0
136 59 0
137 61 0
137 63 0
138 64 0
139 66 0
140 68 0
141 70 0
141 71 0
142 73 0
143 75 0
144 77 0
145 78 0
145 80 0
146 82 0
147 84 0
147 85 0
148 87 0
149 89 0
150 91 0
150 93 0
151 94 0
152 96 0
152 98 0
153 100 0
153 101 0
154 103 0
155 105 0
155 106 0
156 108 0
156 110 0
157 112 0
157 113 0
158 115 0
158 117 0
159 118 0
159 120 0
160 122 0
160 123 0
161 125 0
161 126 0
162 128 0
162 130 0
162 131 0
163 133 0
163 134 0
163 136 0
164 137 0
164 139 0
164 140 0
164 142 0
165 143 0
165 145 0
165 146 0
165 147 0
166 149 0
166 150 0
166 152 0
166 153 0
166 154 0
166 156 0
166 157 0
167 158 0
167 159 0
167 161 0
167 162 0
167 163 0
167 164 0
167 165 0
167 166 0
167 167 0
167 169 0
167 170 0
167 171 0
167 172 0
167 173 0
166 174 0
166 175 0
166 176 0
166 177 0
166 178 0
166 179 0
166 179 0
166 180 0
165 181 0
165 182 0
165 183 0
165 184 0
165 184 0
165 185 0
164 186 0
164 187 0
164 187 0
164 188 0
163 189 0
163 190 0
163 190 0
163 191 0
162 191 0
162 192 0
162 193 0
162 193 0
161 194 0
161 194 0
161 195 0
160 196 0
160 196 0
160 197 0
159 197 0
159 198 0
159 198 0
158 198 0
158 199 0
158 199 0
157 200 0
157 200 0
157 201 0
156 201 0
156 201 0
156 202 0
155 202 0
155 202 0
155 203 0
154 203 0
154 203 0
154 204 0
153 204 0
153 204 0
153 205 0
152 205 0
152 205 0
151 205 1
151 206 2
151 206 4
150 206 5
150 206 6
83 0 0
83 0 0
84 0 0
85 0 0
86 0 0
86 0 0
87 0 0
88 0 0
89 0 0
89 0 0
90 0 0
91 0 0
92 0 0
93 0 0
93 0 0
94 0 0
95 0 0
96 0 0
97 0 0
98 0 0
98 0 0
99 0 0
100 0 0
101 0 0
102 0 0
103 0 0
103 0 0
104 0 0
105 0 0
106 1 0
107 2 0
108 4 0
109 5 0
109 6 0
110 8 0
111 9 0
112 11 0
113 12 0
114 14 0
115 15 0
116 17 0
116 18 0
117 20 0
118 21 0
119 23 0
120 24 0
121 26 0
122 28 0
123 29 0
124 31 0
124 32 0
125 34 0
126 36 0
127 37 0
128 39 0
129 41 0
130 42 0
131 44 0
131 46 0
132 47 0
133 49 0
134 51 0
135 52 0
136 54 0
137 56 0
137 58 0
138 59 0
139 61 0
140 63 0
141 65 0
141 66 0
142 68 0
143 70 0
144 72 0
145 73 0
145 75 0
146 77 0
147 79 0
148 81 0
148 82 0
149 84 0
150 86 0
151 88 0
151 89 0
152 91 0
153 93 0
153 95 0
154 96 0
155 98 0
155 100 0
156 102 0
156 103 0
157 105 0
158 107 0
158 109 0
159 110 0
159 112 0
160 114 0
160 115 0
161 117 0
161 119 0
162 120 0
162 122 0
162 124 0
163 125 0
163 127 0
164 128 0
164 130 0
164 132 0
165 133 0
165 135 0
165 136 0
166 138 0
166 139 0
166 141 0
166 142 0
167 143 0
167 145 0
167 146 0
167 148 0
167 149 0
168 150 0
168 152 0
168 153 0
168 154 0
168 156 0
168 157 0
168 158 0
168 159 0
168 161 0
168 162 0
168 163 0
168 164 0
168 165 0
168 166 0
168 167 0
168 169 0
168 170 0
168 171 0
168 172 0
168 173 0
168 174 0
168 175 0
168 176 0
168 177 0
167 177 0
167 178 0
167 179 0
167 180 0
167 181 0
167 182 0
166 183 0
166 183 0
166 184 0
166 185 0
166 186 0
165 186 0
165 187 0
165 188 0
165 189 0
164 189 0
164 190 0
164 190 0
164 191 0
163 192 0
163 192 0
163 193 0
162 193 0
162 194 0
162 195 0
161 195 0
161 196 0
161 196 0
160 197 0
160 197 0
160 198 0
159 198 0
159 198 0
159 199 0
158 199 0
158 200 0
158 200 0
157 200 0
157 201 0
157 201 0
156 202 0
156 202 0
156 202 0
155 203 0
155 203 0
155 203 0
154 203 0
154 204 0
153 204 0
153 204 1
153 205 2
152 205 3
152 205 5
152 205 6
151 206 7
84 0 0
84 0 0
85 0 0
86 0 0
87 0 0
87 0 0
88 0 0
89 0 0
90 0 0
91 0 0
91 0 0
92 0 0
93 0 0
94 0 0
95 0 0
95 0 0
96 0 0
97 0 0
98 0 0
99 0 0
100 0 0
100 0 0
101 0 0
102 0 0
103 0 0
104 0 0
105 0 0
105 0 0
106 0 0
107 0 0
108 1 0
109 2 0
110 4 0
111 5 0
112 6 0
112 8 0
113 9 0
114 11 0
115 12 0
116 14 0
117 15 0
118 17 0
119 18 0
120 20 0
120 21 0
121 23 0
122 25 0
123 26 0
124 28 0
125 29 0
126 31 0
127 33 0
128 34 0
129 36 0
129 37 0
130 39 0
131 41 0
132 43 0
133 44 0
134 46 0
135 48 0
136 49 0
136 51 0
137 53 0
138 54 0
139 56 0
140 58 0
141 60 0
141 61 0
142 63 0
143 65 0
144 67 0
145 69 0
145 70 0
146 72 0
147 74 0
148 76 0
149 77 0
149 79 0
150 81 0
151 83 0
152 84 0
152 86 0
153 88 0
154 90 0
154 92 0
155 93 0
156 95 0
156 97 0
157 99 0
157 100 0
158 102 0
159 104 0
159 106 0
160 107 0
160 109 0
161 111 0
161 112 0
162 114 0
162 116 0
163 117 0
163 119 0
164 121 0
164 122 0
165 124 0
165 126 0
165 127 0
166 129 0
166 130 0
166 132 0
167 133 0
167 135 0
167 136 0
168 138 0
168 139 0
168 141 0
168 142 0
169 144 0
169 145 0
169 146 0
169 148 0
169 149 0
169 151 0
170 152 0
170 153 0
170 154 0
170 156 0
170 157 0
170 158 0
170 159 0
170 161 0
170 162 0
170 163 0
170 164 0
170 165 0
170 166 0
170 167 0
170 168 0
170 170 0
170 171 0
170 172 0
170 173 0
169 174 0
169 175 0
169 175 0
169 176 0
169 177 0
169 178 0
169 179 0
168 180 0
168 181 0
168 182 0
168 182 0
168 183 0
167 184 0
167 185 0
167 185 0
167 186 0
166 187 0
166 187 0
166 188 0
166 189 0
165 189 0
165 190 0
165 191 0
164 191 0
164 192 0
164 192 0
163 193 0
163 194 0
163 194 0
162 195 0
162 195 0
162 196 0
161 196 0
161 197 0
161 197 0
160 197 0
160 198 0
160 198 0
159 199 0
159 199 0
159 200 0
158 200 0
158 200 0
158 201 0
157 201 0
157 201 0
156 202 0
156 202 0
156 202 0
155 203 0
155 203 0
155 203 1
154 203 2
154 204 3
153 204 4
153 204 6
153 204 7
152 205 8
85 0 0
85 0 0
86 0 0
87 0 0
88 0 0
89 0 0
89 0 0
90 0 0
91 0 0
92 0 0
92 0 0
93 0 0
94 0 0
95 0 0
96 0 0
97 0 0
97 0 0
98 0 0
99 0 0
100 0 0
101 0 0
102 0 0
102 0 0
103 0 0
104 0 0
105 0 0
106 0 0
107 0 0
108 0 0
108 0 0
109 0 0
110 1 0
111 2 0
112 4 0
113 5 0
114 6 0
115 8 0
116 9 0
116 11 0
117 12 0
118 14 0
119 15 0
120 17 0
121 18 0
122 20 0
123 22 0
124 23 0
125 25 0
125 26 0
126 28 0
127 30 0
128 31 0
129 33 0
130 34 0
131 36 0
132 38 0
133 39 0
134 41 0
134 43 0
135 44 0
136 46 0
137 48 0
138 50 0
139 51 0
140 53 0
141 55 0
141 57 0
142 58 0
143 60 0
144 62 0
145 64 0
145 65 0
146 67 0
147 69 0
148 71 0
149 72 0
149 74 0
150 76 0
151 78 0
152 80 0
152 81 0
153 83 0
154 85 0
155 87 0
155 88 0
156 90 0
157 92 0
157 94 0
158 95 0
159 97 0
159 99 0
160 101 0
160 102 0
161 104 0
162 106 0
162 108 0
163 109 0
163 111 0
164 113 0
164 114 0
165 116 0
165 118 0
166 119 0
166 121 0
166 123 0
167 124 0
167 126 0
168 127 0
168 129 0
168 131 0
169 132 0
169 134 0
169 135 0
169 137 0
170 138 0
170 140 0
170 141 0
170 142 0
171 144 0
171 145 0
171 147 0
171 148 0
171 149 0
171 151 0
171 152 0
172 153 0
172 155 0
172 156 0
172 157 0
172 158 0
172 159 0
172 161 0
172 162 0
172 163 0
172 164 0
172 165 0
172 166 0
172 167 0
171 168 0
171 169 0
171 170 0
171 171 0
171 172 0
171 173 0
171 174 0
171 175 0
170 176 0
170 177 0
170 178 0
170 179 0
170 180 0
169 180 0
169 181 0
169 182 0
169 183 0
169 184 0
168 184 0
168 185 0
168 186 0
168 186 0
167 187 0
167 188 0
167 188 0
166 189 0
166 190 0
166 190 0
165 191 0
165 191 0
165 192 0
165 193 0
164 193 0
164 194 0
164 194 0
163 195 0
163 195 0
162 196 0
162 196 0
162 197 0
161 197 0
161 197 0
161 198 0
160 198 0
160 199 0
160 199 0
159 199 0
159 200 0
158 200 0
158 200 0
158 201 0
157 201 0
157 201 0
157 202 0
156 202 0
156 202 2
155 203 3
155 203 4
155 203 5
154 203 7
154 204 8
153 204 9
86 0 0
87 0 0
87 0 0
88 0 0
89 0 0
90 0 0
90 0 0
91 0 0
92 0 0
93 0 0
94 0 0
94 0 0
95 0 0
96 0 0
97 0 0
98 0 0
99 0 0
99 0 0
100 0 0
101 0 0
102 0 0
103 0 0
104 0 0
104 0 0
105 0 0
106 0 0
107 0 0
108 0 0
109 0 0
110 0 0
111 0 0
111 0 0
112 1 0
113 2 0
114 4 0
115 5 0
116 6 0
117 8 0
118 9 0
119 11 0
120 12 0
120 14 0
121 15 0
122 17 0
123 19 0
124 20 0
125 22 0
126 23 0
127 25 0
128 26 0
129 28 0
130 30 0
131 31 0
131 33 0
132 35 0
133 36 0
134 38 0
135 40 0
136 41 0
137 43 0
138 45 0
139 46 0
139 48 0
140 50 0
141 52 0
142 53 0
143 55 0
144 57 0
145 59 0
145 60 0
146 62 0
147 64 0
148 66 0
149 67 0
150 69 0
150 71 0
151 73 0
152 75 0
153 76 0
153 78 0
154 80 0
155 82 0
156 83 0
156 85 0
157 87 0
158 89 0
158 91 0
159 92 0
160 94 0
160 96 0
161 98 0
161 99 0
162 101 0
163 103 0
163 105 0
164 106 0
164 108 0
165 110 0
165 111 0
166 113 0
166 115 0
167 116 0
167 118 0
168 120 0
168 121 0
168 123 0
169 125 0
169 126 0
170 128 0
170 129 0
170 131 0
171 132 0
171 134 0
171 135 0
171 137 0
172 138 0
172 140 0
172 141 0
172 143 0
172 144 0
173 145 0
173 147 0
173 148 0
173 149 0
173 151 0
173 152 0
173 153 0
173 155 0
173 156 0
173 157 0
173 158 0
173 159 0
173 161 0
173 162 0
173 163 0
173 164 0
173 165 0
173 166 0
173 167 0
173 168 0
173 169 0
173 170 0
173 171 0
172 172 0
172 173 0
172 174 0
172 175 0
172 176 0
172 177 0
171 178 0
171 179 0
171 179 0
171 180 0
171 181 0
170 182 0
170 183 0
170 183 0
170 184 0
169 185 0
169 185 0
169 186 0
168 187 0
168 187 0
168 188 0
167 189 0
167 189 0
167 190 0
167 190 0
166 191 0
166 192 0
166 192 0
165 193 0
165 193 0
165 194 0
164 194 0
164 195 0
163 195 0
163 196 0
163 196 0
162 196 0
162 197 0
162 197 0
161 198 0
161 198 0
160 198 0
160 199 0
160 199 0
159 199 0
159 200 0
159 200 0
158 200 0
158 201 0
157 201 1
157 201 2
157 202 4
156 202 5
156 202 6
155 202 7
155 203 9
155 203 10
87 0 0
88 0 0
88 0 0
89 0 0
90 0 0
91 0 0
91 0 0
92 0 0
93 0 0
94 0 0
95 0 0
95 0 0
96 0 0
97 0 0
98 0 0
99 0 0
100 0 0
100 0 0
101 0 0
102 0 0
103 0 0
104 0 0
105 0 0
106 0 0
107 0 0
107 0 0
108 0 0
109 0 0
110 0 0
111 0 0
112 0 0
113 0 0
114 0 0
115 1 0
115 2 0
116 4 0
117 5 0
118 7 0
119 8 0
120 9 0
121 11 0
122 13 0
123 14 0
124 16 0
125 17 0
126 19 0
126 20 0
127 22 0
128 23 0
129 25 0
130 27 0
131 28 0
132 30 0
133 32 0
134 33 0
135 35 0
136 36 0
137 38 0
137 40 0
138 42 0
139 43 0
140 45 0
141 47 0
142 48 0
143 50 0
144 52 0
144 54 0
145 55 0
146 57 0
147 59 0
148 61 0
149 62 0
150 64 0
150 66 0
151 68 0
152 70 0
153 71 0
153 73 0
154 75 0
155 77 0
156 78 0
156 80 0
157 82 0
158 84 0
159 86 0
159 87 0
160 89 0
161 91 0
161 93 0
162 94 0
163 96 0
163 98 0
164 100 0
164 101 0
165 103 0
165 105 0
166 107 0
167 108 0
167 110 0
168 112 0
168 113 0
169 115 0
169 117 0
169 118 0
170 120 0
170 122 0
171 123 0
171 125 0
171 126 0
172 128 0
172 129 0
172 131 0
173 133 0
173 134 0
173 136 0
173 137 0
174 138 0
174 140 0
174 141 0
174 143 0
174 144 0
174 146 0
175 147 0
175 148 0
175 150 0
175 151 0
175 152 0
175 153 0
175 155 0
175 156 0
175 157 0
175 158 0
175 159 0
175 161 0
175 162 0
175 163 0
175 164 0
175 165 0
175 166 0
175 167 0
174 168 0
174 169 0
174 170 0
174 171 0
174 172 0
174 173 0
174 174 0
173 175 0
173 176 0
173 177 0
173 177 0
173 178 0
172 179 0
172 180 0
172 181 0
172 181 0
171 182 0
171 183 0
171 184 0
170 184 0
170 185 0
170 186 0
170 186 0
169 187 0
169 188 0
169 188 0
168 189 0
168 189 0
168 190 0
167 191 0
167 191 0
167 192 0
166 192 0
166 193 0
165 193 0
165 194 0
165 194 0
164 195 0
164 195 0
164 195 0
163 196 0
163 196 0
162 197 0
162 197 0
162 197 0
161 198 0
161 198 0
161 198 0
160 199 0
160 199 0
159 199 0
159 200 1
159 200 2
158 200 3
158 201 5
157 201 6
157 201 7
157 201 8
156 202 10
156 202 11
88 0 0
89 0 0
89 0 0
90 0 0
91 0 0
92 0 0
93 0 0
93 0 0
94 0 0
95 0 0
96 0 0
97 0 0
97 0 0
98 0 0
99 0 0
100 0 0
101 0 0
102 0 0
103 0 0
103 0 0
104 0 0
105 0 0
106 0 0
107 0 0
108 0 0
109 0 0
110 0 0
110 0 0
111 0 0
112 0 0
113 0 0
114 0 0
115 0 0
116 0 0
117 1 0
118 2 0
119 4 0
119 5 0
120 7 0
121 8 0
122 10 0
123 11 0
124 13 0
125 14 0
126 16 0
127 17 0
128 19 0
129 20 0
130 22 0
131 24 0
132 25 0
132 27 0
133 28 0
134 30 0
135 32 0
136 33 0
137 35 0
138 37 0
139 38 0
140 40 0
141 42 0
142 43 0
142 45 0
143 47 0
144 49 0
145 50 0
146 52 0
147 54 0
148 56 0
149 57 0
149 59 0
150 61 0
151 63 0
152 65 0
153 66 0
154 68 0
154 70 0
155 72 0
156 73 0
157 75 0
157 77 0
158 79 0
159 81 0
160 82 0
160 84 0
161 86 0
162 88 0
162 89 0
163 91 0
164 93 0
164 95 0
165 97 0
165 98 0
166 100 0
167 102 0
167 103 0
168 105 0
168 107 0
169 109 0
169 110 0
170 112 0
170 114 0
171 115 0
171 117 0
172 119 0
172 120 0
172 122 0
173 123 0
173 125 0
173 127 0
174 128 0
174 130 0
174 131 0
175 133 0
175 134 0
175 136 0
175 137 0
175 139 0
176 140 0
176 141 0
176 143 0
176 144 0
176 146 0
176 147 0
176 148 0
177 150 0
177 151 0
177 152 0
177 153 0
177 155 0
177 156 0
177 157 0
177 158 0
177 159 0
177 161 0
177 162 0
176 163 0
176 164 0
176 165 0
176 166 0
176 167 0
176 168 0
176 169 0
176 170 0
175 171 0
175 172 0
175 173 0
175 174 0
175 175 0
174 175 0
174 176 0
174 177 0
174 178 0
174 179 0
173 180 0
173 180 0
173 181 0
172 182 0
172 183 0
172 183 0
172 184 0
171 185 0
171 185 0
171 186 0
170 187 0
170 187 0
170 188 0
169 188 0
169 189 0
169 189 0
168 190 0
168 191 0
168 191 0
167 192 0
167 192 0
166 193 0
166 193 0
166 194 0
165 194 0
165 194 0
165 195 0
164 195 0
164 196 0
163 196 0
163 196 0
163 197 0
162 197 0
162 198 0
161 198 0
161 198 0
161 199 1
160 199 2
160 199 3
159 199 4
159 200 6
158 200 7
158 200 8
158 201 9
157 201 11
157 201 12
89 0 0
90 0 0
90 0 0
91 0 0
92 0 0
93 0 0
94 0 0
94 0 0
95 0 0
96 0 0
97 0 0
98 0 0
99 0 0
99 0 0
100 0 0
101 0 0
102 0 0
103 0 0
104 0 0
105 0 0
105 0 0
106 0 0
107 0 0
108 0 0
109 0 0
110 0 0
111 0 0
112 0 0
113 0 0
113 0 0
114 0 0
115 0 0
116 0 0
117 0 0
118 0 0
119 1 0
120 2 0
121 4 0
122 5 0
123 7 0
124 8 0
125 10 0
125 11 0
126 13 0
127 14 0
128 16 0
129 17 0
130 19 0
131 20 0
132 22 0
133 24 0
134 25 0
135 27 0
136 29 0
137 30 0
138 32 0
139 34 0
139 35 0
140 37 0
141 39 0
142 40 0
143 42 0
144 44 0
145 45 0
146 47 0
147 49 0
148 51 0
148 52 0
149 54 0
150 56 0
151 58 0
152 59 0
153 61 0
154 63 0
154 65 0
155 67 0
156 68 0
157 70 0
158 72 0
158 74 0
159 76 0
160 77 0
161 79 0
161 81 0
162 83 0
163 84 0
163 86 0
164 88 0
165 90 0
165 92 0
166 93 0
167 95 0
167 97 0
168 99 0
168 100 0
169 102 0
169 104 0
170 106 0
170 107 0
171 109 0
171 111 0
172 112 0
172 114 0
173 116 0
173 117 0
174 119 0
174 120 0
174 122 0
175 124 0
175 125 0
175 127 0
176 128 0
176 130 0
176 131 0
176 133 0
177 134 0
177 136 0
177 137 0
177 139 0
177 140 0
178 142 0
178 143 0
178 144 0
178 146 0
178 147 0
178 148 0
178 150 0
178 151 0
178 152 0
178 153 0
178 155 0
178 156 0
178 157 0
178 158 0
178 159 0
178 160 0
178 162 0
178 163 0
178 164 0
178 165 0
178 166 0
177 167 0
177 168 0
177 169 0
177 170 0
177 171 0
177 172 0
176 173 0
176 173 0
176 174 0
176 175 0
176 176 0
175 177 0
175 178 0
175 178 0
174 179 0
174 180 0
174 181 0
174 181 0
173 182 0
173 183 0
173 184 0
172 184 0
172 185 0
172 185 0
171 186 0
171 187 0
171 187 0
170 188 0
170 188 0
170 189 0
169 190 0
169 190 0
168 191 0
168 191 0
168 192 0
167 192 0
167 192 0
167 193 0
166 193 0
166 194 0
165 194 0
165 195 0
165 195 0
164 195 0
164 196 0
163 196 0
163 197 0
163 197 0
162 197 0
162 198 2
161 198 3
161 198 4
160 198 5
160 199 7
160 199 8
159 199 9
159 200 10
158 200 12
158 200 13
90 0 0
91 0 0
91 0 0
92 0 0
93 0 0
94 0 0
95 0 0
95 0 0
96 0 0
97 0 0
98 0 0
99 0 0
100 0 0
101 0 0
101 0 0
102 0 0
103 0 0
104 0 0
105 0 0
106 0 0
107 0 0
107 0 0
108 0 0
109 0 0
110 0 0
111 0 0
112 0 0
113 0 0
114 0 0
115 0 0
116 0 0
117 0 0
117 0 0
118 0 0
119 0 0
120 0 0
121 1 0
122 2 0
123 4 0
124 5 0
125 7 0
126 8 0
127 10 0
128 11 0
129 13 0
130 14 0
131 16 0
132 17 0
132 19 0
133 21 0
134 22 0
135 24 0
136 25 0
137 27 0
138 29 0
139 30 0
140 32 0
141 34 0
142 35 0
143 37 0
144 39 0
145 41 0
146 42 0
146 44 0
147 46 0
148 47 0
149 49 0
150 51 0
151 53 0
152 54 0
153 56 0
153 58 0
154 60 0
155 62 0
156 63 0
157 65 0
158 67 0
158 69 0
159 70 0
160 72 0
161 74 0
161 76 0
162 78 0
163 79 0
164 81 0
164 83 0
165 85 0
166 87 0
166 88 0
167 90 0
168 92 0
168 94 0
169 95 0
169 97 0
170 99 0
171 101 0
171 102 0
172 104 0
172 106 0
173 107 0
173 109 0
174 111 0
174 113 0
175 114 0
175 116 0
175 117 0
176 119 0
176 121 0
176 122 0
177 124 0
177 125 0
177 127 0
178 129 0
178 130 0
178 132 0
178 133 0
179 135 0
179 136 0
179 137 0
179 139 0
179 140 0
179 142 0
180 143 0
180 144 0
180 146 0
180 147 0
180 148 0
180 150 0
180 151 0
180 152 0
180 153 0
180 155 0
180 156 0
180 157 0
180 158 0
180 159 0
180 160 0
180 161 0
179 162 0
179 164 0
179 165 0
179 166 0
179 167 0
179 168 0
179 169 0
178 170 0
178 170 0
178 171 0
178 172 0
177 173 0
177 174 0
177 175 0
177 176 0
176 176 0
176 177 0
176 178 0
176 179 0
175 180 0
175 180 0
175 181 0
174 182 0
174 182 0
174 183 0
173 184 0
173 184 0
173 185 0
172 186 0
172 186 0
172 187 0
171 187 0
171 188 0
171 188 0
170 189 0
170 189 0
169 190 0
169 190 0
169 191 0
168 191 0
168 192 0
167 192 0
167 193 0
167 193 0
166 194 0
166 194 0
165 194 0
165 195 0
165 195 0
164 196 0
164 196 0
163 196 1
163 197 2
162 197 4
162 197 5
162 197 6
161 198 8
161 198 9
160 198 10
160 199 11
160 199 12
159 199 14
91 0 0
92 0 0
92 0 0
93 0 0
94 0 0
95 0 0
96 0 0
97 0 0
97 0 0
98 0 0
99 0 0
100 0 0
101 0 0
102 0 0
102 0 0
103 0 0
104 0 0
105 0 0
106 0 0
107 0 0
108 0 0
109 0 0
110 0 0
110 0 0
111 0 0
112 0 0
113 0 0
114 0 0
115 0 0
116 0 0
117 0 0
118 0 0
119 0 0
120 0 0
121 0 0
122 0 0
122 0 0
123 1 0
124 2 0
125 4 0
126 5 0
127 7 0
128 8 0
129 10 0
130 11 0
131 13 0
132 14 0
133 16 0
134 18 0
135 19 0
136 21 0
137 22 0
138 24 0
139 26 0
140 27 0
141 29 0
141 31 0
142 32 0
143 34 0
144 36 0
145 37 0
146 39 0
147 41 0
148 42 0
149 44 0
150 46 0
151 48 0
152 49 0
152 51 0
153 53 0
154 55 0
155 56 0
156 58 0
157 60 0
158 62 0
158 64 0
159 65 0
160 67 0
161 69 0
162 71 0
162 73 0
163 74 0
164 76 0
165 78 0
165 80 0
166 82 0
167 83 0
167 85 0
168 87 0
169 89 0
169 90 0
170 92 0
171 94 0
171 96 0
172 97 0
172 99 0
173 101 0
173 103 0
174 104 0
174 106 0
175 108 0
175 109 0
176 111 0
176 113 0
177 114 0
177 116 0
177 118 0
178 119 0
178 121 0
178 122 0
179 124 0
179 126 0
179 127 0
180 129 0
180 130 0
180 132 0
180 133 0
181 135 0
181 136 0
181 138 0
181 139 0
181 140 0
181 142 0
181 143 0
181 144 0
181 146 0
182 147 0
182 148 0
182 150 0
182 151 0
182 152 0
182 153 0
182 154 0
181 156 0
181 157 0
181 158 0
181 159 0
181 160 0
181 161 0
181 162 0
181 163 0
181 164 0
180 165 0
180 166 0
180 167 0
180 168 0
180 169 0
179 170 0
179 171 0
179 172 0
179 173 0
178 174 0
178 175 0
178 175 0
178 176 0
177 177 0
177 178 0
177 178 0
176 179 0
176 180 0
176 181 0
175 181 0
175 182 0
175 183 0
174 183 0
174 184 0
174 184 0
173 185 0
173 186 0
173 186 0
172 187 0
172 187 0
171 188 0
171 188 0
171 189 0
170 189 0
170 190 0
170 190 0
169 191 0
169 191 0
168 192 0
168 192 0
167 193 0
167 193 0
167 193 0
166 194 0
166 194 0
165 195 0
165 195 1
165 195 2
164 196 3
164 196 5
163 196 6
163 196 7
162 197 9
162 197 10
162 197 11
161 198 12
161 198 13
160 198 15
92 0 0
93 0 0
94 0 0
94 0 0
95 0 0
96 0 0
97 0 0
98 0 0
98 0 0
99 0 0
100 0 0
101 0 0
102 0 0
103 0 0
104 0 0
104 0 0
105 0 0
106 0 0
107 0 0
108 0 0
109 0 0
110 0 0
111 0 0
112 0 0
113 0 0
113 0 0
114 0 0
115 0 0
116 0 0
117 0 0
118 0 0
119 0 0
120 0 0
121 0 0
122 0 0
123 0 0
124 0 0
125 0 0
126 1 0
127 2 0
128 4 0
129 5 0
130 7 0
130 8 0
131 10 0
132 11 0
133 13 0
134 14 0
135 16 0
136 18 0
137 19 0
138 21 0
139 22 0
140 24 0
141 26 0
142 27 0
143 29 0
144 31 0
145 32 0
146 34 0
147 36 0
148 38 0
149 39 0
149 41 0
150 43 0
151 44 0
152 46 0
153 48 0
154 50 0
155 51 0
156 53 0
157 55 0
157 57 0
158 59 0
159 60 0
160 62 0
161 64 0
162 66 0
162 67 0
163 69 0
164 71 0
165 73 0
165 75 0
166 76 0
167 78 0
168 80 0
168 82 0
169 84 0
170 85 0
170 87 0
171 89 0
172 91 0
172 92 0
173 94 0
173 96 0
174 98 0
175 99 0
175 101 0
176 103 0
176 105 0
177 106 0
177 108 0
177 110 0
178 111 0
178 113 0
179 115 0
179 116 0
179 118 0
180 119 0
180 121 0
180 123 0
181 124 0
181 126 0
181 127 0
182 129 0
182 130 0
182 132 0
182 133 0
182 135 0
183 136 0
183 138 0
183 139 0
183 140 0
183 142 0
183 143 0
183 144 0
183 146 0
183 147 0
183 148 0
183 150 0
183 151 0
183 152 0
183 153 0
183 154 0
183 156 0
183 157 0
183 158 0
183 159 0
183 160 0
182 161 0
182 162 0
182 163 0
182 164 0
182 165 0
182 166 0
181 167 0
181 168 0
181 169 0
181 170 0
180 171 0
180 172 0
180 172 0
180 173 0
179 174 0
179 175 0
179 176 0
179 177 0
178 177 0
178 178 0
178 179 0
177 179 0
177 180 0
177 181 0
176 181 0
176 182 0
175 183 0
175 183 0
175 184 0
174 185 0
174 185 0
174 186 0
173 186 0
173 187 0
172 187 0
172 188 0
172 188 0
171 189 0
171 189 0
170 190 0
170 190 0
170 191 0
169 191 0
169 192 0
168 192 0
168 192 0
167 193 0
167 193 0
167 193 1
166 194 2
166 194 3
165 195 4
165 195 6
164 195 7
164 195 8
164 196 9
163 196 11
163 196 12
162 197 13
162 197 14
161 197 16
93 0 0
94 0 0
95 0 0
95 0 0
96 0 0
97 0 0
98 0 0
99 0 0
100 0 0
100 0 0
101 0 0
102 0 0
103 0 0
104 0 0
105 0 0
106 0 0
107 0 0
107 0 0
108 0 0
109 0 0
110 0 0
111 0 0
112 0 0
113 0 0
114 0 0
115 0 0
116 0 0
117 0 0
117 0 0
118 0 0
119 0 0
120 0 0
121 0 0
122 0 0
123 0 0
124 0 0
125 0 0
126 0 0
127 0 0
128 1 0
129 2 0
130 4 0
131 5 0
132 7 0
133 8 0
134 10 0
135 11 0
136 13 0
137 15 0
138 16 0
139 18 0
140 19 0
141 21 0
142 23 0
142 24 0
143 26 0
144 28 0
145 29 0
146 31 0
147 33 0
148 34 0
149 36 0
150 38 0
151 39 0
152 41 0
153 43 0
154 45 0
155 46 0
155 48 0
156 50 0
157 52 0
158 53 0
159 55 0
160 57 0
161 59 0
162 61 0
162 62 0
163 64 0
164 66 0
165 68 0
166 70 0
166 71 0
167 73 0
168 75 0
169 77 0
169 79 0
170 80 0
171 82 0
171 84 0
172 86 0
173 87 0
173 89 0
174 91 0
174 93 0
175 95 0
176 96 0
176 98 0
177 100 0
177 101 0
178 103 0
178 105 0
179 107 0
179 108 0
180 110 0
180 112 0
180 113 0
181 115 0
181 116 0
181 118 0
182 120 0
182 121 0
182 123 0
183 124 0
183 126 0
183 127 0
183 129 0
184 130 0
184 132 0
184 133 0
184 135 0
184 136 0
184 138 0
185 139 0
185 140 0
185 142 0
185 143 0
185 144 0
185 146 0
185 147 0
185 148 0
185 149 0
185 151 0
185 152 0
185 153 0
185 154 0
185 155 0
184 157 0
184 158 0
184 159 0
184 160 0
184 161 0
184 162 0
184 163 0
183 164 0
183 165 0
183 166 0
183 167 0
182 168 0
182 169 0
182 170 0
182 170 0
181 171 0
181 172 0
181 173 0
181 174 0
180 175 0
180 175 0
180 176 0
179 177 0
179 178 0
179 178 0
178 179 0
178 180 0
178 180 0
177 181 0
177 182 0
176 182 0
176 183 0
176 183 0
175 184 0
175 185 0
175 185 0
174 186 0
174 186 0
173 187 0
173 187 0
172 188 0
172 188 0
172 189 0
171 189 0
171 190 0
170 190 0
170 190 0
169 191 0
169 191 0
169 192 0
168 192 0
168 192 1
167 193 3
167 193 4
166 193 5
166 194 7
166 194 8
165 194 9
165 195 10
164 195 12
164 195 13
163 196 14
163 196 15
162 196 17
94 0 0
95 0 0
96 0 0
96 0 0
97 0 0
98 0 0
99 0 0
100 0 0
101 0 0
101 0 0
102 0 0
103 0 0
104 0 0
105 0 0
106 0 0
107 0 0
108 0 0
109 0 0
109 0 0
110 0 0
111 0 0
112 0 0
113 0 0
114 0 0
115 0 0
116 0 0
117 0 0
118 0 0
119 0 0
120 0 0
121 0 0
122 0 0
122 0 0
123 0 0
124 0 0
125 0 0
126 0 0
127 0 0
128 0 0
129 0 0
130 1 0
131 2 0
132 4 0
133 5 0
134 7 0
135 8 0
136 10 0
137 11 0
138 13 0
139 15 0
140 16 0
141 18 0
142 19 0
143 21 0
144 23 0
145 24 0
146 26 0
147 28 0
148 29 0
149 31 0
150 33 0
151 34 0
152 36 0
152 38 0
153 40 0
154 41 0
155 43 0
156 45 0
157 47 0
158 48 0
159 50 0
160 52 0
161 54 0
161 55 0
162 57 0
163 59 0
164 61 0
165 63 0
166 64 0
166 66 0
167 68 0
168 70 0
169 72 0
169 73 0
170 75 0
171 77 0
172 79 0
172 81 0
173 82 0
174 84 0
174 86 0
175 88 0
176 89 0
176 91 0
177 93 0
177 95 0
178 96 0
178 98 0
179 100 0
179 102 0
180 103 0
180 105 0
181 107 0
181 108 0
182 110 0
182 112 0
182 113 0
183 115 0
183 117 0
183 118 0
184 120 0
184 121 0
184 123 0
185 124 0
185 126 0
185 128 0
185 129 0
185 130 0
186 132 0
186 133 0
186 135 0
186 136 0
186 138 0
186 139 0
186 140 0
186 142 0
186 143 0
186 144 0
186 146 0
186 147 0
186 148 0
186 149 0
186 151 0
186 152 0
186 153 0
186 154 0
186 155 0
186 156 0
186 157 0
186 159 0
185 160 0
185 161 0
185 162 0
185 163 0
185 164 0
184 165 0
184 166 0
184 166 0
184 167 0
183 168 0
183 169 0
183 170 0
183 171 0
182 172 0
182 173 0
182 173 0
181 174 0
181 175 0
181 176 0
180 176 0
180 177 0
180 178 0
179 178 0
179 179 0
179 180 0
178 180 0
178 181 0
177 182 0
177 182 0
177 183 0
176 183 0
176 184 0
175 185 0
175 185 0
175 186 0
174 186 0
174 187 0
173 187 0
173 188 0
172 188 0
172 189 0
172 189 0
171 189 0
171 190 0
170 190 0
170 191 0
169 191 1
169 191 2
168 192 4
168 192 5
168 192 6
167 193 8
167 193 9
166 193 10
166 194 11
165 194 13
165 194 14
164 195 15
164 195 16
164 195 17
95 0 0
96 0 0
97 0 0
97 0 0
98 0 0
99 0 0
100 0 0
101 0 0
102 0 0
103 0 0
103 0 0
104 0 0
105 0 0
106 0 0
107 0 0
108 0 0
109 0 0
110 0 0
111 0 0
111 0 0
112 0 0
113 0 0
114 0 0
115 0 0
116 0 0
117 0 0
118 0 0
119 0 0
120 0 0
121 0 0
122 0 0
123 0 0
124 0 0
125 0 0
126 0 0
127 0 0
128 0 0
129 0 0
130 0 0
131 0 0
132 0 0
133 1 0
134 2 0
135 4 0
135 5 0
136 7 0
137 8 0
138 10 0
139 12 0
140 13 0
141 15 0
142 16 0
143 18 0
144 20 0
145 21 0
146 23 0
147 25 0
148 26 0
149 28 0
150 30 0
151 31 0
152 33 0
153 35 0
154 36 0
155 38 0
156 40 0
157 42 0
158 43 0
159 45 0
159 47 0
160 49 0
161 50 0
162 52 0
163 54 0
164 56 0
165 58 0
166 59 0
166 61 0
167 63 0
168 65 0
169 66 0
170 68 0
170 70 0
171 72 0
172 74 0
173 75 0
173 77 0
174 79 0
175 81 0
175 83 0
176 84 0
177 86 0
177 88 0
178 90 0
178 91 0
179 93 0
179 95 0
180 97 0
181 98 0
181 100 0
182 102 0
182 104 0
182 105 0
183 107 0
183 109 0
184 110 0
184 112 0
184 114 0
185 115 0
185 117 0
185 118 0
186 120 0
186 121 0
186 123 0
187 125 0
187 126 0
187 128 0
187 129 0
187 131 0
187 132 0
188 133 0
188 135 0
188 136 0
188 138 0
188 139 0
188 140 0
188 142 0
188 143 0
188 144 0
188 146 0
188 147 0
188 148 0
188 149 0
188 150 0
188 152 0
188 153 0
188 154 0
187 155 0
187 156 0
187 157 0
187 158 0
187 159 0
187 160 0
186 161 0
186 162 0
186 163 0
186 164 0
185 165 0
185 166 0
185 167 0
185 168 0
184 169 0
184 170 0
184 171 0
183 171 0
183 172 0
183 173 0
182 174 0
182 174 0
182 175 0
181 176 0
181 177 0
181 177 0
180 178 0
180 179 0
180 179 0
179 180 0
179 181 0
178 181 0
178 182 0
178 182 0
177 183 0
177 183 0
176 184 0
176 185 0
175 185 0
175 186 0
175 186 0
174 186 0
174 187 0
173 187 0
173 188 0
172 188 0
172 189 0
171 189 0
171 190 1
171 190 2
170 190 3
170 191 5
169 191 6
169 191 7
168 192 9
168 192 10
167 192 11
167 193 12
166 193 14
166 193 15
166 194 16
165 194 17
165 194 18
96 0 0
97 0 0
98 0 0
99 0 0
99 0 0
100 0 0
101 0 0
102 0 0
103 0 0
104 0 0
105 0 0
105 0 0
106 0 0
107 0 0
108 0 0
109 0 0
110 0 0
111 0 0
112 0 0
113 0 0
114 0 0
114 0 0
115 0 0
116 0 0
117 0 0
118 0 0
119 0 0
120 0 0
121 0 0
122 0 0
123 0 0
124 0 0
125 0 0
126 0 0
127 0 0
128 0 0
129 0 0
130 0 0
131 0 0
132 0 0
133 0 0
134 0 0
135 1 0
136 2 0
137 4 0
138 5 0
139 7 0
140 8 0
141 10 0
142 12 0
143 13 0
144 15 0
145 16 0
146 18 0
147 20 0
148 21 0
149 23 0
150 25 0
151 26 0
152 28 0
153 30 0
154 31 0
154 33 0
155 35 0
156 37 0
157 38 0
158 40 0
159 42 0
160 44 0
161 45 0
162 47 0
163 49 0
164 51 0
165 52 0
165 54 0
166 56 0
167 58 0
168 60 0
169 61 0
170 63 0
170 65 0
171 67 0
172 69 0
173 70 0
173 72 0
174 74 0
175 76 0
176 78 0
176 79 0
177 81 0
178 83 0
178 85 0
179 86 0
179 88 0
180 90 0
181 92 0
181 93 0
182 95 0
182 97 0
183 99 0
183 100 0
184 102 0
184 104 0
185 105 0
185 107 0
185 109 0
186 110 0
186 112 0
186 114 0
187 115 0
187 117 0
187 118 0
188 120 0
188 122 0
188 123 0
188 125 0
189 126 0
189 128 0
189 129 0
189 131 0
189 132 0
189 133 0
189 135 0
189 136 0
190 138 0
190 139 0
190 140 0
190 142 0
190 143 0
190 144 0
190 145 0
190 147 0
189 148 0
189 149 0
189 150 0
189 151 0
189 153 0
189 154 0
189 155 0
189 156 0
188 157 0
188 158 0
188 159 0
188 160 0
188 161 0
187 162 0
187 163 0
187 164 0
187 165 0
186 166 0
186 167 0
186 168 0
185 168 0
185 169 0
185 170 0
185 171 0
184 172 0
184 172 0
184 173 0
183 174 0
183 175 0
182 175 0
182 176 0
182 177 0
181 177 0
181 178 0
180 179 0
180 179 0
180 180 0
179 181 0
179 181 0
178 182 0
178 182 0
178 183 0
177 183 0
177 184 0
176 184 0
176 185 0
175 185 0
175 186 0
174 186 0
174 187 0
174 187 0
173 188 0
173 188 0
172 188 2
172 189 3
171 189 4
171 190 6
170 190 7
170 190 8
169 191 10
169 191 11
169 191 12
168 192 13
168 192 15
167 192 16
167 193 17
166 193 18
166 193 19
97 0 0
98 0 0
99 0 0
100 0 0
100 0 0
101 0 0
102 0 0
103 0 0
104 0 0
105 0 0
106 0 0
106 0 0
107 0 0
108 0 0
109 0 0
110 0 0
111 0 0
112 0 0
113 0 0
114 0 0
115 0 0
116 0 0
117 0 0
118 0 0
118 0 0
119 0 0
120 0 0
121 0 0
122 0 0
123 0 0
124 0 0
125 0 0
126 0 0
127 0 0
128 0 0
129 0 0
130 0 0
131 0 0
132 0 0
133 0 0
134 0 0
135 0 0
136 0 0
137 1 0
138 2 0
139 4 0
140 5 0
141 7 0
142 9 0
143 10 0
144 12 0
145 13 0
146 15 0
147 17 0
148 18 0
149 20 0
150 21 0
151 23 0
152 25 0
153 26 0
154 28 0
155 30 0
156 32 0
157 33 0
158 35 0
159 37 0
160 38 0
161 40 0
162 42 0
163 44 0
163 45 0
164 47 0
165 49 0
166 51 0
167 53 0
168 54 0
169 56 0
169 58 0
170 60 0
171 62 0
172 63 0
173 65 0
173 67 0
174 69 0
175 71 0
176 72 0
176 74 0
177 76 0
178 78 0
179 80 0
179 81 0
180 83 0
180 85 0
181 87 0
182 88 0
182 90 0
183 92 0
183 94 0
184 95 0
184 97 0
185 99 0
185 101 0
186 102 0
186 104 0
187 106 0
187 107 0
187 109 0
188 111 0
188 112 0
188 114 0
189 115 0
189 117 0
189 119 0
190 120 0
190 122 0
190 123 0
190 125 0
190 126 0
191 128 0
191 129 0
191 131 0
191 132 0
191 133 0
191 135 0
191 136 0
191 138 0
191 139 0
191 140 0
191 141 0
191 143 0
191 144 0
191 145 0
191 146 0
191 148 0
191 149 0
191 150 0
191 151 0
190 152 0
190 153 0
190 155 0
190 156 0
190 157 0
190 158 0
189 159 0
189 160 0
189 161 0
189 162 0
188 163 0
188 164 0
188 165 0
188 165 0
187 166 0
187 167 0
187 168 0
186 169 0
186 170 0
186 170 0
185 171 0
185 172 0
185 173 0
184 173 0
184 174 0
183 175 0
183 176 0
183 176 0
182 177 0
182 178 0
181 178 0
181 179 0
181 179 0
180 180 0
180 181 0
179 181 0
179 182 0
178 182 0
178 183 0
178 183 0
177 184 0
177 184 0
176 185 0
176 185 0
175 186 0
175 186 0
174 187 0
174 187 1
173 187 3
173 188 4
172 188 5
172 189 7
172 189 8
171 189 9
171 190 11
170 190 12
170 190 13
169 191 14
169 191 16
168 191 17
168 192 18
167 192 19
167 192 20
98 0 0
99 0 0
100 0 0
101 0 0
101 0 0
102 0 0
103 0 0
104 0 0
105 0 0
106 0 0
107 0 0
108 0 0
108 0 0
109 0 0
110 0 0
111 0 0
112 0 0
113 0 0
114 0 0
115 0 0
116 0 0
117 0 0
118 0 0
119 0 0
120 0 0
121 0 0
122 0 0
123 0 0
124 0 0
125 0 0
125 0 0
126 0 0
127 0 0
128 0 0
129 0 0
130 0 0
131 0 0
132 0 0
133 0 0
134 0 0
135 0 0
136 0 0
137 0 0
138 0 0
139 1 0
140 2 0
142 4 0
143 5 0
144 7 0
145 9 0
146 10 0
147 12 0
148 13 0
149 15 0
150 17 0
151 18 0
152 20 0
153 22 0
154 23 0
155 25 0
155 27 0
156 28 0
157 30 0
158 32 0
159 33 0
160 35 0
161 37 0
162 39 0
163 40 0
164 42 0
165 44 0
166 46 0
167 47 0
168 49 0
168 51 0
169 53 0
170 55 0
171 56 0
172 58 0
173 60 0
173 62 0
174 64 0
175 65 0
176 67 0
177 69 0
177 71 0
178 73 0
179 74 0
179 76 0
180 78 0
181 80 0
181 82 0
182 83 0
183 85 0
183 87 0
184 89 0
184 90 0
185 92 0
185 94 0
186 96 0
186 97 0
187 99 0
187 101 0
188 102 0
188 104 0
189 106 0
189 107 0
189 109 0
190 111 0
190 112 0
190 114 0
191 115 0
191 117 0
191 119 0
191 120 0
192 122 0
192 123 0
192 125 0
192 126 0
192 128 0
192 129 0
193 131 0
193 132 0
193 133 0
193 135 0
193 136 0
193 137 0
193 139 0
193 140 0
193 141 0
193 143 0
193 144 0
193 145 0
192 146 0
192 147 0
192 149 0
192 150 0
192 151 0
192 152 0
192 153 0
191 154 0
191 155 0
191 156 0
191 157 0
191 158 0
190 159 0
190 160 0
190 161 0
190 162 0
189 163 0
189 164 0
189 165 0
188 166 0
188 167 0
188 168 0
187 168 0
187 169 0
187 170 0
186 171 0
186 171 0
186 172 0
185 173 0
185 174 0
184 174 0
184 175 0
184 176 0
183 176 0
183 177 0
182 178 0
182 178 0
181 179 0
181 179 0
181 180 0
180 181 0
180 181 0
179 182 0
179 182 0
178 183 0
178 183 0
177 184 0
177 184 0
176 185 0
176 185 0
176 185 1
175 186 2
175 186 4
174 187 5
174 187 6
173 187 8
173 188 9
172 188 10
172 189 12
171 189 13
171 189 14
170 190 15
170 190 17
169 190 18
169 190 19
168 191 20
168 191 21
99 0 0
100 0 0
101 0 0
102 0 0
102 0 0
103 0 0
104 0 0
105 0 0
106 0 0
107 0 0
108 0 0
109 0 0
110 0 0
110 0 0
111 0 0
112 0 0
113 0 0
114 0 0
115 0 0
116 0 0
117 0 0
118 0 0
119 0 0
120 0 0
121 0 0
122 0 0
123 0 0
124 0 0
125 0 0
126 0 0
127 0 0
128 0 0
129 0 0
130 0 0
131 0 0
132 0 0
133 0 0
134 0 0
135 0 0
136 0 0
137 0 0
138 0 0
139 0 0
140 0 0
141 0 0
142 1 0
143 2 0
144 4 0
145 5 0
146 7 0
147 9 0
148 10 0
149 12 0
150 13 0
151 15 0
152 17 0
153 18 0
154 20 0
155 22 0
156 23 0
157 25 0
158 27 0
159 28 0
160 30 0
161 32 0
162 34 0
163 35 0
164 37 0
165 39 0
166 41 0
166 42 0
167 44 0
168 46 0
169 48 0
170 49 0
171 51 0
172 53 0
173 55 0
173 57 0
174 58 0
175 60 0
176 62 0
177 64 0
177 66 0
178 67 0
179 69 0
180 71 0
180 73 0
181 75 0
182 76 0
182 78 0
183 80 0
184 82 0
184 84 0
185 85 0
185 87 0
186 89 0
187 91 0
187 92 0
188 94 0
188 96 0
189 97 0
189 99 0
189 101 0
190 103 0
190 104 0
191 106 0
191 108 0
191 109 0
192 111 0
192 112 0
192 114 0
193 116 0
193 117 0
193 119 0
193 120 0
193 122 0
194 123 0
194 125 0
194 126 0
194 128 0
194 129 0
194 130 0
194 132 0
194 133 0
194 135 0
194 136 0
194 137 0
194 139 0
194 140 0
194 141 0
194 142 0
194 144 0
194 145 0
194 146 0
194 147 0
194 148 0
193 150 0
193 151 0
193 152 0
193 153 0
193 154 0
193 155 0
192 156 0
192 157 0
192 158 0
192 159 0
191 160 0
191 161 0
191 162 0
190 163 0
190 164 0
190 165 0
189 165 0
189 166 0
189 167 0
188 168 0
188 169 0
188 169 0
187 170 0
187 171 0
186 172 0
186 172 0
186 173 0
185 174 0
185 174 0
184 175 0
184 176 0
184 176 0
183 177 0
183 178 0
182 178 0
182 179 0
181 179 0
181 180 0
180 180 0
180 181 0
180 181 0
179 182 0
179 182 0
178 183 0
178 183 0
177 184 1
177 184 2
176 185 4
176 185 5
175 186 6
175 186 7
174 186 9
174 187 10
173 187 11
173 187 13
172 188 14
172 188 15
171 188 16
171 189 18
170 189 19
170 189 20
169 190 21
169 190 22
100 0 0
101 0 0
102 0 0
103 0 0
104 0 0
104 0 0
105 0 0
106 0 0
107 0 0
108 0 0
109 0 0
110 0 0
111 0 0
112 0 0
112 0 0
113 0 0
114 0 0
115 0 0
116 0 0
117 0 0
118 0 0
119 0 0
120 0 0
121 0 0
122 0 0
123 0 0
124 0 0
125 0 0
126 0 0
127 0 0
128 0 0
129 0 0
130 0 0
131 0 0
132 0 0
133 0 0
134 0 0
135 0 0
136 0 0
137 0 0
138 0 0
139 0 0
140 0 0
141 0 0
142 0 0
143 0 0
144 1 0
145 2 0
146 4 0
147 6 0
148 7 0
149 9 0
150 10 0
151 12 0
152 13 0
153 15 0
154 17 0
155 18 0
156 20 0
157 22 0
158 23 0
159 25 0
160 27 0
161 29 0
162 30 0
163 32 0
164 34 0
165 35 0
166 37 0
167 39 0
168 41 0
169 43 0
170 44 0
171 46 0
172 48 0
172 50 0
173 51 0
174 53 0
175 55 0
176 57 0
177 59 0
177 60 0
178 62 0
179 64 0
180 66 0
180 68 0
181 69 0
182 71 0
183 73 0
183 75 0
184 77 0
185 78 0
185 80 0
186 82 0
186 84 0
187 85 0
188 87 0
188 89 0
189 91 0
189 92 0
190 94 0
190 96 0
191 98 0
191 99 0
191 101 0
192 103 0
192 104 0
193 106 0
193 108 0
193 109 0
194 111 0
194 112 0
194 114 0
194 116 0
195 117 0
195 119 0
195 120 0
195 122 0
195 123 0
195 125 0
196 126 0
196 128 0
196 129 0
196 130 0
196 132 0
196 133 0
196 135 0
196 136 0
196 137 0
196 138 0
196 140 0
196 141 0
196 142 0
196 143 0
195 145 0
195 146 0
195 147 0
195 148 0
195 149 0
195 150 0
194 152 0
194 153 0
194 154 0
194 155 0
193 156 0
193 157 0
193 158 0
193 159 0
192 160 0
192 161 0
192 161 0
191 162 0
191 163 0
191 164 0
190 165 0
190 166 0
190 167 0
189 167 0
189 168 0
189 169 0
188 170 0
188 170 0
187 171 0
187 172 0
187 173 0
186 173 0
186 174 0
185 175 0
185 175 0
184 176 0
184 176 0
183 177 0
183 178 0
183 178 0
182 179 0
182 179 0
181 180 0
181 180 0
180 181 0
180 181 0
179 182 0
179 182 0
178 183 2
178 183 3
177 184 5
177 184 6
176 184 7
176 185 8
175 185 10
175 186 11
174 186 12
174 186 14
173 187 15
173 187 16
172 187 17
172 188 18
172 188 20
171 188 21
171 189 22
170 189 23
101 0 0
102 0 0
103 0 0
104 0 0
105 0 0
105 0 0
106 0 0
107 0 0
108 0 0
109 0 0
110 0 0
111 0 0
112 0 0
113 0 0
114 0 0
115 0 0
115 0 0
116 0 0
117 0 0
118 0 0
119 0 0
120 0 0
121 0 0
122 0 0
123 0 0
124 0 0
125 0 0
126 0 0
127 0 0
128 0 0
129 0 0
130 0 0
131 0 0
132 0 0
133 0 0
134 0 0
135 0 0
136 0 0
137 0 0
138 0 0
139 0 0
140 0 0
141 0 0
142 0 0
143 0 0
144 0 0
145 0 0
147 1 0
148 2 0
149 4 0
150 6 0
151 7 0
152 9 0
153 10 0
154 12 0
155 14 0
156 15 0
157 17 0
158 19 0
159 20 0
160 22 0
161 24 0
162 25 0
163 27 0
164 29 0
165 30 0
166 32 0
167 34 0
168 36 0
168 37 0
169 39 0
170 41 0
171 43 0
172 44 0
173 46 0
174 48 0
175 50 0
176 52 0
176 53 0
177 55 0
178 57 0
179 59 0
180 61 0
181 62 0
181 64 0
182 66 0
183 68 0
183 70 0
184 71 0
185 73 0
186 75 0
186 77 0
187 79 0
187 80 0
188 82 0
189 84 0
189 86 0
190 87 0
190 89 0
191 91 0
191 93 0
192 94 0
192 96 0
193 98 0
193 99 0
193 101 0
194 103 0
194 104 0
195 106 0
195 108 0
195 109 0
195 111 0
196 112 0
196 114 0
196 116 0
196 117 0
197 119 0
197 120 0
197 122 0
197 123 0
197 125 0
197 126 0
197 128 0
197 129 0
197 130 0
197 132 0
197 133 0
197 134 0
197 136 0
197 137 0
197 138 0
197 140 0
197 141 0
197 142 0
197 143 0
197 144 0
197 146 0
196 147 0
196 148 0
196 149 0
196 150 0
196 151 0
195 152 0
195 153 0
195 154 0
195 155 0
194 156 0
194 157 0
194 158 0
194 159 0
193 160 0
193 161 0
193 162 0
192 163 0
192 164 0
191 164 0
191 165 0
191 166 0
190 167 0
190 168 0
190 168 0
189 169 0
189 170 0
188 171 0
188 171 0
187 172 0
187 173 0
187 173 0
186 174 0
186 175 0
185 175 0
185 176 0
184 176 0
184 177 0
183 177 0
183 178 0
182 179 0
182 179 0
181 180 0
181 180 0
180 181 0
180 181 1
180 181 3
179 182 4
179 182 6
178 183 7
178 183 8
177 184 9
177 184 11
176 184 12
176 185 13
175 185 15
175 186 16
174 186 17
174 186 18
173 187 19
173 187 21
172 187 22
172 188 23
171 188 24
102 0 0
103 0 0
104 0 0
105 0 0
106 0 0
106 0 0
107 0 0
108 0 0
109 0 0
110 0 0
111 0 0
112 0 0
113 0 0
114 0 0
115 0 0
116 0 0
117 0 0
118 0 0
118 0 0
119 0 0
120 0 0
121 0 0
122 0 0
123 0 0
124 0 0
125 0 0
126 0 0
127 0 0
128 0 0
129 0 0
130 0 0
131 0 0
132 0 0
133 0 0
134 0 0
135 0 0
136 0 0
137 0 0
139 0 0
140 0 0
141 0 0
142 0 0
143 0 0
144 0 0
145 0 0
146 0 0
147 0 0
148 0 0
149 1 0
150 2 0
151 4 0
152 6 0
153 7 0
154 9 0
155 10 0
156 12 0
157 14 0
158 15 0
159 17 0
160 19 0
161 20 0
162 22 0
163 24 0
164 25 0
165 27 0
166 29 0
167 31 0
168 32 0
169 34 0
170 36 0
171 38 0
172 39 0
173 41 0
174 43 0
175 45 0
175 46 0
176 48 0
177 50 0
178 52 0
179 54 0
180 55 0
180 57 0
181 59 0
182 61 0
183 63 0
184 64 0
184 66 0
185 68 0
186 70 0
186 72 0
187 73 0
188 75 0
188 77 0
189 79 0
190 81 0
190 82 0
191 84 0
191 86 0
192 88 0
192 89 0
193 91 0
193 93 0
194 94 0
194 96 0
195 98 0
195 100 0
195 101 0
196 103 0
196 105 0
196 106 0
197 108 0
197 109 0
197 111 0
198 113 0
198 114 0
198 116 0
198 117 0
198 119 0
198 120 0
199 122 0
199 123 0
199 125 0
199 126 0
199 127 0
199 129 0
199 130 0
199 132 0
199 133 0
199 134 0
199 136 0
199 137 0
199 138 0
199 139 0
199 141 0
198 142 0
198 143 0
198 144 0
198 145 0
198 146 0
198 148 0
197 149 0
197 150 0
197 151 0
197 152 0
196 153 0
196 154 0
196 155 0
196 156 0
195 157 0
195 158 0
195 159 0
194 160 0
194 161 0
194 161 0
193 162 0
193 163 0
192 164 0
192 165 0
192 166 0
191 166 0
191 167 0
190 168 0
190 169 0
190 169 0
189 170 0
189 171 0
188 171 0
188 172 0
187 173 0
187 173 0
186 174 0
186 175 0
186 175 0
185 176 0
185 176 0
184 177 0
184 177 0
183 178 0
183 178 0
182 179 0
182 179 1
181 180 2
181 180 4
180 181 5
180 181 7
179 182 8
179 182 9
178 182 10
178 183 12
177 183 13
177 184 14
176 184 16
176 184 17
175 185 18
175 185 19
174 185 20
174 186 22
173 186 23
173 186 24
172 187 25
103 0 0
104 0 0
105 0 0
106 0 0
107 0 0
107 0 0
108 0 0
109 0 0
110 0 0
111 0 0
112 0 0
113 0 0
114 0 0
115 0 0
116 0 0
117 0 0
118 0 0
119 0 0
120 0 0
121 0 0
122 0 0
123 0 0
123 0 0
124 0 0
125 0 0
126 0 0
127 0 0
128 0 0
129 0 0
130 0 0
132 0 0
133 0 0
134 0 0
135 0 0
136 0 0
137 0 0
138 0 0
139 0 0
140 0 0
141 0 0
142 0 0
143 0 0
144 0 0
145 0 0
146 0 0
147 0 0
148 0 0
149 0 0
150 0 0
151 1 0
152 2 0
153 4 0
154 6 0
155 7 0
156 9 0
157 10 0
159 12 0
160 14 0
161 15 0
162 17 0
163 19 0
164 20 0
165 22 0
166 24 0
167 25 0
168 27 0
169 29 0
170 31 0
170 32 0
171 34 0
172 36 0
173 38 0
174 39 0
175 41 0
176 43 0
177 45 0
178 47 0
179 48 0
180 50 0
180 52 0
181 54 0
182 56 0
183 57 0
184 59 0
184 61 0
185 63 0
186 65 0
187 66 0
187 68 0
188 70 0
189 72 0
189 74 0
190 75 0
191 77 0
191 79 0
192 81 0
192 82 0
193 84 0
193 86 0
194 88 0
194 89 0
195 91 0
195 93 0
196 95 0
196 96 0
197 98 0
197 100 0
197 101 0
198 103 0
198 105 0
198 106 0
199 108 0
199 109 0
199 111 0
199 113 0
200 114 0
200 116 0
200 117 0
200 119 0
200 120 0
200 122 0
200 123 0
200 124 0
200 126 0
200 127 0
200 129 0
200 130 0
200 131 0
200 133 0
200 134 0
200 135 0
200 137 0
200 138 0
200 139 0
200 140 0
200 142 0
200 143 0
199 144 0
199 145 0
199 146 0
199 147 0
199 148 0
198 149 0
198 150 0
198 152 0
198 153 0
197 154 0
197 155 0
197 156 0
196 156 0
196 157 0
196 158 0
195 159 0
195 160 0
195 161 0
194 162 0
194 163 0
193 163 0
193 164 0
193 165 0
192 166 0
192 167 0
191 167 0
191 168 0
190 169 0
190 169 0
190 170 0
189 171 0
189 171 0
188 172 0
188 173 0
187 173 0
187 174 0
186 174 0
186 175 0
185 176 0
185 176 0
184 177 0
184 177 0
183 178 1
183 178 2
182 179 4
182 179 5
181 180 6
181 180 8
180 180 9
180 181 10
179 181 12
179 182 13
178 182 14
178 183 15
177 183 17
177 183 18
176 184 19
176 184 20
175 184 21
175 185 23
174 185 24
174 185 25
173 186 26
104 0 0
105 0 0
106 0 0
107 0 0
108 0 0
108 0 0
109 0 0
110 0 0
111 0 0
112 0 0
113 0 0
114 0 0
115 0 0
116 0 0
117 0 0
118 0 0
119 0 0
120 0 0
121 0 0
122 0 0
123 0 0
124 0 0
125 0 0
126 0 0
127 0 0
128 0 0
129 0 0
130 0 0
131 0 0
132 0 0
133 0 0
134 0 0
135 0 0
136 0 0
137 0 0
138 0 0
139 0 0
140 0 0
141 0 0
142 0 0
143 0 0
144 0 0
145 0 0
146 0 0
147 0 0
148 0 0
149 0 0
150 0 0
152 0 0
153 0 0
154 1 0
155 2 0
156 4 0
157 6 0
158 7 0
159 9 0
160 10 0
161 12 0
162 14 0
163 15 0
164 17 0
165 19 0
166 20 0
167 22 0
168 24 0
169 26 0
170 27 0
171 29 0
172 31 0
173 33 0
174 34 0
175 36 0
176 38 0
177 40 0
177 41 0
178 43 0
179 45 0
180 47 0
181 49 0
182 50 0
183 52 0
183 54 0
184 56 0
185 58 0
186 59 0
187 61 0
187 63 0
188 65 0
189 67 0
190 68 0
190 70 0
191 72 0
191 74 0
192 75 0
193 77 0
193 79 0
194 81 0
194 83 0
195 84 0
195 86 0
196 88 0
196 90 0
197 91 0
197 93 0
198 95 0
198 96 0
199 98 0
199 100 0
199 101 0
200 103 0
200 105 0
200 106 0
200 108 0
201 109 0
201 111 0
201 112 0
201 114 0
201 116 0
202 117 0
202 119 0
202 120 0
202 121 0
202 123 0
202 124 0
202 126 0
202 127 0
202 129 0
202 130 0
202 131 0
202 133 0
202 134 0
202 135 0
202 136 0
201 138 0
201 139 0
201 140 0
201 141 0
201 142 0
201 144 0
200 145 0
200 146 0
200 147 0
200 148 0
199 149 0
199 150 0
199 151 0
199 152 0
198 153 0
198 154 0
198 155 0
197 156 0
197 157 0
197 158 0
196 159 0
196 160 0
195 160 0
195 161 0
195 162 0
194 163 0
194 164 0
193 164 0
193 165 0
193 166 0
192 167 0
192 167 0
191 168 0
191 169 0
190 169 0
190 170 0
189 171 0
189 171 0
188 172 0
188 173 0
187 173 0
187 174 0
186 174 0
186 175 0
185 175 0
185 176 0
184 176 2
184 177 3
183 177 5
183 178 6
182 178 7
182 179 9
181 179 10
181 180 11
180 180 13
180 181 14
179 181 15
179 181 16
178 182 18
178 182 19
177 183 20
177 183 21
176 183 22
176 184 24
175 184 25
175 184 26
174 185 27
105 0 0
106 0 0
107 0 0
108 0 0
109 0 0
110 0 0
110 0 0
111 0 0
112 0 0
113 0 0
114 0 0
115 0 0
116 0 0
117 0 0
118 0 0
119 0 0
120 0 0
121 0 0
122 0 0
123 0 0
124 0 0
125 0 0
126 0 0
127 0 0
128 0 0
129 0 0
130 0 0
131 0 0
132 0 0
133 0 0
134 0 0
135 0 0
136 0 0
137 0 0
138 0 0
139 0 0
140 0 0
141 0 0
142 0 0
143 0 0
144 0 0
145 0 0
146 0 0
148 0 0
149 0 0
150 0 0
151 0 0
152 0 0
153 0 0
154 0 0
155 0 0
156 1 0
157 2 0
158 4 0
159 6 0
160 7 0
161 9 0
162 11 0
163 12 0
164 14 0
165 15 0
166 17 0
167 19 0
168 21 0
169 22 0
170 24 0
171 26 0
172 27 0
173 29 0
174 31 0
175 33 0
176 34 0
177 36 0
178 38 0
179 40 0
180 42 0
181 43 0
182 45 0
182 47 0
183 49 0
184 50 0
185 52 0
186 54 0
187 56 0
187 58 0
188 59 0
189 61 0
190 63 0
190 65 0
191 67 0
192 68 0
192 70 0
193 72 0
194 74 0
194 76 0
195 77 0
195 79 0
196 81 0
197 83 0
197 84 0
198 86 0
198 88 0
198 90 0
199 91 0
199 93 0
200 95 0
200 96 0
200 98 0
201 100 0
201 101 0
201 103 0
202 105 0
202 106 0
202 108 0
202 109 0
203 111 0
203 112 0
203 114 0
203 115 0
203 117 0
203 118 0
203 120 0
203 121 0
203 123 0
203 124 0
203 126 0
203 127 0
203 128 0
203 130 0
203 131 0
203 132 0
203 134 0
203 135 0
203 136 0
203 137 0
203 139 0
202 140 0
202 141 0
202 142 0
202 143 0
202 144 0
201 145 0
201 147 0
201 148 0
201 149 0
200 150 0
200 151 0
200 152 0
199 153 0
199 154 0
199 155 0
198 156 0
198 156 0
198 157 0
197 158 0
197 159 0
196 160 0
196 161 0
196 162 0
195 162 0
195 163 0
194 164 0
194 165 0
193 165 0
193 166 0
193 167 0
192 167 0
192 168 0
191 169 0
191 169 0
190 170 0
190 171 0
189 171 0
189 172 0
188 172 0
188 173 0
187 174 0
187 174 0
186 175 1
186 175 3
185 176 4
185 176 6
184 177 7
184 177 8
183 178 10
183 178 11
182 179 12
182 179 14
181 179 15
180 180 16
180 180 17
179 181 19
179 181 20
178 181 21
178 182 22
177 182 23
177 182 25
176 183 26
176 183 27
175 183 28
106 0 0
107 0 0
108 0 0
109 0 0
110 0 0
111 0 0
111 0 0
112 0 0
113 0 0
114 0 0
115 0 0
116 0 0
117 0 0
118 0 0
119 0 0
120 0 0
121 0 0
122 0 0
123 0 0
124 0 0
125 0 0
126 0 0
127 0 0
128 0 0
129 0 0
130 0 0
131 0 0
132 0 0
133 0 0
134 0 0
135 0 0
136 0 0
137 0 0
138 0 0
139 0 0
140 0 0
141 0 0
142 0 0
143 0 0
145 0 0
146 0 0
147 0 0
148 0 0
149 0 0
150 0 0
151 0 0
152 0 0
153 0 0
154 0 0
155 0 0
156 0 0
157 0 0
158 1 0
159 2 0
160 4 0
162 6 0
163 7 0
164 9 0
165 11 0
166 12 0
167 14 0
168 16 0
169 17 0
170 19 0
171 21 0
172 22 0
173 24 0
174 26 0
175 28 0
176 29 0
177 31 0
178 33 0
179 35 0
179 36 0
180 38 0
181 40 0
182 42 0
183 43 0
184 45 0
185 47 0
186 49 0
186 51 0
187 52 0
188 54 0
189 56 0
190 58 0
190 60 0
191 61 0
192 63 0
193 65 0
193 67 0
194 69 0
195 70 0
195 72 0
196 74 0
196 76 0
197 78 0
197 79 0
198 81 0
199 83 0
199 85 0
200 86 0
200 88 0
200 90 0
201 91 0
201 93 0
202 95 0
202 96 0
202 98 0
203 100 0
203 101 0
203 103 0
203 105 0
204 106 0
204 108 0
204 109 0
204 111 0
204 112 0
205 114 0
205 115 0
205 117 0
205 118 0
205 120 0
205 121 0
205 123 0
205 124 0
205 125 0
205 127 0
205 128 0
205 129 0
205 131 0
205 132 0
204 133 0
204 135 0
204 136 0
204 137 0
204 138 0
204 139 0
203 141 0
203 142 0
203 143 0
203 144 0
203 145 0
202 146 0
202 147 0
202 148 0
201 149 0
201 150 0
201 151 0
200 152 0
200 153 0
200 154 0
199 155 0
199 156 0
199 157 0
198 158 0
198 159 0
197 159 0
197 160 0
196 161 0
196 162 0
196 163 0
195 163 0
195 164 0
194 165 0
194 165 0
193 166 0
193 167 0
192 167 0
192 168 0
191 169 0
191 169 0
190 170 0
190 171 0
189 171 0
189 172 0
188 172 0
188 173 1
187 173 2
187 174 4
186 174 5
186 175 7
185 175 8
185 176 9
184 176 11
184 177 12
183 177 13
183 178 15
182 178 16
182 179 17
181 179 18
181 179 20
180 180 21
179 180 22
179 181 23
178 181 24
178 181 26
177 182 27
177 182 28
176 182 29
107 0 0
108 0 0
109 0 0
110 0 0
111 0 0
112 0 0
112 0 0
113 0 0
114 0 0
115 0 0
116 0 0
117 0 0
118 0 0
119 0 0
120 0 0
121 0 0
122 0 0
123 0 0
124 0 0
125 0 0
126 0 0
127 0 0
128 0 0
129 0 0
130 0 0
131 0 0
132 0 0
133 0 0
134 0 0
135 0 0
136 0 0
137 0 0
138 0 0
139 0 0
140 0 0
141 0 0
143 0 0
144 0 0
145 0 0
146 0 0
147 0 0
148 0 0
149 0 0
150 0 0
151 0 0
152 0 0
153 0 0
154 0 0
155 0 0
156 0 0
158 0 0
159 0 0
160 0 0
161 1 0
162 3 0
163 4 0
164 6 0
165 7 0
166 9 0
167 11 0
168 12 0
169 14 0
170 16 0
171 17 0
172 19 0
173 21 0
174 22 0
175 24 0
176 26 0
177 28 0
178 29 0
179 31 0
180 33 0
181 35 0
182 36 0
183 38 0
184 40 0
185 42 0
185 44 0
186 45 0
187 47 0
188 49 0
189 51 0
190 53 0
190 54 0
191 56 0
192 58 0
193 60 0
193 62 0
194 63 0
195 65 0
195 67 0
196 69 0
197 71 0
197 72 0
198 74 0
198 76 0
199 78 0
200 79 0
200 81 0
201 83 0
201 85 0
201 86 0
202 88 0
202 90 0
203 91 0
203 93 0
203 95 0
204 96 0
204 98 0
204 100 0
205 101 0
205 103 0
205 105 0
205 106 0
206 108 0
206 109 0
206 111 0
206 112 0
206 114 0
206 115 0
206 117 0
206 118 0
206 120 0
206 121 0
206 122 0
206 124 0
206 125 0
206 127 0
206 128 0
206 129 0
206 131 0
206 132 0
206 133 0
206 134 0
205 136 0
205 137 0
205 138 0
205 139 0
205 140 0
204 141 0
204 143 0
204 144 0
204 145 0
203 146 0
203 147 0
203 148 0
202 149 0
202 150 0
202 151 0
201 152 0
201 153 0
201 154 0
200 155 0
200 155 0
199 156 0
199 157 0
199 158 0
198 159 0
198 160 0
197 160 0
197 161 0
196 162 0
196 163 0
195 163 0
195 164 0
194 165 0
194 165 0
194 166 0
193 167 0
193 167 0
192 168 0
192 169 0
191 169 0
191 170 0
190 171 0
189 171 1
189 172 2
188 172 4
188 173 5
187 173 6
187 174 8
186 174 9
186 175 10
185 175 12
185 176 13
184 176 14
184 177 16
183 177 17
183 177 18
182 178 19
182 178 21
181 179 22
180 179 23
180 179 24
179 180 25
179 180 26
178 180 28
178 181 29
177 181 30
108 0 0
109 0 0
110 0 0
111 0 0
112 0 0
113 0 0
113 0 0
114 0 0
115 0 0
116 0 0
117 0 0
118 0 0
119 0 0
120 0 0
121 0 0
122 0 0
123 0 0
124 0 0
125 0 0
126 0 0
127 0 0
128 0 0
129 0 0
130 0 0
131 0 0
132 0 0
133 0 0
134 0 0
135 0 0
136 0 0
137 0 0
138 0 0
139 0 0
141 0 0
142 0 0
143 0 0
144 0 0
145 0 0
146 0 0
147 0 0
148 0 0
149 0 0
150 0 0
151 0 0
152 0 0
153 0 0
155 0 0
156 0 0
157 0 0
158 0 0
159 0 0
160 0 0
161 0 0
162 0 0
163 1 0
164 3 0
165 4 0
166 6 0
167 7 0
168 9 0
169 11 0
170 12 0
172 14 0
173 16 0
174 17 0
175 19 0
176 21 0
177 23 0
178 24 0
179 26 0
179 28 0
180 29 0
181 31 0
182 33 0
183 35 0
184 37 0
185 38 0
186 40 0
187 42 0
188 44 0
189 45 0
189 47 0
190 49 0
191 51 0
192 53 0
193 54 0
193 56 0
194 58 0
195 60 0
195 62 0
196 63 0
197 65 0
197 67 0
198 69 0
199 71 0
199 72 0
200 74 0
200 76 0
201 78 0
202 79 0
202 81 0
203 83 0
203 85 0
203 86 0
204 88 0
204 90 0
205 91 0
205 93 0
205 95 0
206 96 0
206 98 0
206 100 0
206 101 0
207 103 0
207 105 0
207 106 0
207 108 0
207 109 0
207 111 0
208 112 0
208 114 0
208 115 0
208 117 0
208 118 0
208 119 0
208 121 0
208 122 0
208 124 0
208 125 0
208 126 0
208 128 0
207 129 0
207 130 0
207 132 0
207 133 0
207 134 0
207 135 0
206 136 0
206 138 0
206 139 0
206 140 0
206 141 0
205 142 0
205 143 0
205 144 0
204 145 0
204 146 0
204 147 0
203 148 0
203 149 0
203 150 0
202 151 0
202 152 0
201 153 0
201 154 0
201 155 0
200 156 0
200 157 0
199 157 0
199 158 0
199 159 0
198 160 0
198 161 0
197 161 0
197 162 0
196 163 0
196 163 0
195 164 0
195 165 0
194 165 0
194 166 0
193 167 0
193 167 0
192 168 0
192 169 0
191 169 0
191 170 2
190 170 3
190 171 5
189 171 6
189 172 7
188 172 9
187 173 10
187 173 11
186 174 13
186 174 14
185 175 15
185 175 17
184 176 18
184 176 19
183 177 20
183 177 22
182 177 23
182 178 24
181 178 25
180 179 26
180 179 27
179 179 29
179 180 30
178 180 31
109 0 0
110 0 0
111 0 0
112 0 0
113 0 0
114 0 0
114 0 0
115 0 0
116 0 0
117 0 0
118 0 0
119 0 0
120 0 0
121 0 0
122 0 0
123 0 0
124 0 0
125 0 0
126 0 0
127 0 0
128 0 0
129 0 0
130 0 0
131 0 0
132 0 0
133 0 0
134 0 0
135 0 0
136 0 0
137 0 0
139 0 0
140 0 0
141 0 0
142 0 0
143 0 0
144 0 0
145 0 0
146 0 0
147 0 0
148 0 0
149 0 0
150 0 0
151 0 0
152 0 0
154 0 0
155 0 0
156 0 0
157 0 0
158 0 0
159 0 0
160 0 0
161 0 0
162 0 0
163 0 0
164 0 0
165 1 0
167 3 0
168 4 0
169 6 0
170 7 0
171 9 0
172 11 0
173 12 0
174 14 0
175 16 0
176 17 0
177 19 0
178 21 0
179 23 0
180 24 0
181 26 0
182 28 0
183 30 0
184 31 0
185 33 0
186 35 0
186 37 0
187 38 0
188 40 0
189 42 0
190 44 0
191 46 0
192 47 0
192 49 0
193 51 0
194 53 0
195 55 0
196 56 0
196 58 0
197 60 0
198 62 0
198 64 0
199 65 0
200 67 0
200 69 0
201 71 0
201 73 0
202 74 0
202 76 0
203 78 0
203 80 0
204 81 0
204 83 0
205 85 0
205 86 0
206 88 0
206 90 0
206 91 0
207 93 0
207 95 0
207 96 0
208 98 0
208 100 0
208 101 0
208 103 0
208 104 0
209 106 0
209 108 0
209 109 0
209 111 0
209 112 0
209 114 0
209 115 0
209 116 0
209 118 0
209 119 0
209 121 0
209 122 0
209 123 0
209 125 0
209 126 0
209 127 0
209 129 0
209 130 0
208 131 0
208 132 0
208 134 0
208 135 0
208 136 0
207 137 0
207 138 0
207 139 0
207 141 0
206 142 0
206 143 0
206 144 0
205 145 0
205 146 0
205 147 0
204 148 0
204 149 0
204 150 0
203 151 0
203 152 0
202 153 0
202 153 0
202 154 0
201 155 0
201 156 0
200 157 0
200 158 0
199 158 0
199 159 0
198 160 0
198 161 0
197 161 0
197 162 0
196 163 0
196 163 0
195 164 0
195 165 0
194 165 0
194 166 0
193 167 0
193 167 0
192 168 1
192 168 3
191 169 4
191 170 6
190 170 7
190 171 8
189 171 10
189 172 11
188 172 12
187 173 14
187 173 15
186 174 16
186 174 18
185 175 19
185 175 20
184 175 21
184 176 23
183 176 24
183 177 25
182 177 26
181 177 27
181 178 28
180 178 30
180 178 31
179 179 32
110 0 0
111 0 0
112 0 0
113 0 0
114 0 0
115 0 0
115 0 0
116 0 0
117 0 0
118 0 0
119 0 0
120 0 0
121 0 0
122 0 0
123 0 0
124 0 0
125 0 0
126 0 0
127 0 0
128 0 0
129 0 0
130 0 0
131 0 0
132 0 0
133 0 0
134 0 0
135 0 0
136 0 0
138 0 0
139 0 0
140 0 0
141 0 0
142 0 0
143 0 0
144 0 0
145 0 0
146 0 0
147 0 0
148 0 0
149 0 0
150 0 0
152 0 0
153 0 0
154 0 0
155 0 0
156 0 0
157 0 0
158 0 0
159 0 0
160 0 0
161 0 0
162 0 0
164 0 0
165 0 0
166 0 0
167 0 0
168 1 0
169 3 0
170 4 0
171 6 0
172 7 0
173 9 0
174 11 0
175 12 0
176 14 0
177 16 0
178 18 0
179 19 0
180 21 0
181 23 0
182 24 0
183 26 0
184 28 0
185 30 0
186 31 0
187 33 0
188 35 0
189 37 0
190 39 0
191 40 0
191 42 0
192 44 0
193 46 0
194 48 0
195 49 0
195 51 0
196 53 0
197 55 0
198 57 0
198 58 0
199 60 0
200 62 0
200 64 0
201 65 0
202 67 0
202 69 0
203 71 0
203 73 0
204 74 0
204 76 0
205 78 0
205 80 0
206 81 0
206 83 0
207 85 0
207 86 0
207 88 0
208 90 0
208 91 0
208 93 0
209 95 0
209 96 0
209 98 0
210 100 0
210 101 0
210 103 0
210 104 0
210 106 0
210 107 0
210 109 0
211 110 0
211 112 0
211 113 0
211 115 0
211 116 0
211 118 0
211 119 0
211 120 0
211 122 0
210 123 0
210 125 0
210 126 0
210 127 0
210 128 0
210 130 0
210 131 0
209 132 0
209 133 0
209 135 0
209 136 0
208 137 0
208 138 0
208 139 0
208 140 0
207 141 0
207 142 0
207 143 0
206 144 0
206 145 0
206 146 0
205 147 0
205 148 0
204 149 0
204 150 0
204 151 0
203 152 0
203 153 0
202 154 0
202 155 0
201 155 0
201 156 0
201 157 0
200 158 0
200 159 0
199 159 0
199 160 0
198 161 0
198 161 0
197 162 0
197 163 0
196 163 0
196 164 0
195 165 0
194 165 0
194 166 1
193 167 2
193 167 4
192 168 5
192 168 7
191 169 8
191 169 9
190 170 11
190 170 12
189 171 13
189 171 15
188 172 16
187 172 17
187 173 19
186 173 20
186 174 21
185 174 22
185 175 24
184 175 25
184 175 26
183 176 27
182 176 28
182 177 29
181 177 31
181 177 32
180 178 33
111 0 0
112 0 0
113 0 0
114 0 0
115 0 0
116 0 0
116 0 0
117 0 0
118 0 0
119 0 0
120 0 0
121 0 0
122 0 0
123 0 0
124 0 0
125 0 0
126 0 0
127 0 0
128 0 0
129 0 0
130 0 0
131 0 0
132 0 0
133 0 0
134 0 0
135 0 0
137 0 0
138 0 0
139 0 0
140 0 0
141 0 0
142 0 0
143 0 0
144 0 0
145 0 0
146 0 0
147 0 0
148 0 0
149 0 0
151 0 0
152 0 0
153 0 0
154 0 0
155 0 0
156 0 0
157 0 0
158 0 0
159 0 0
160 0 0
162 0 0
163 0 0
164 0 0
165 0 0
166 0 0
167 0 0
168 0 0
169 0 0
170 1 0
171 3 0
172 4 0
173 6 0
174 7 0
175 9 0
177 11 0
178 12 0
179 14 0
180 16 0
181 18 0
182 19 0
183 21 0
184 23 0
185 25 0
186 26 0
186 28 0
187 30 0
188 32 0
189 33 0
190 35 0
191 37 0
192 39 0
193 40 0
194 42 0
194 44 0
195 46 0
196 48 0
197 49 0
198 51 0
198 53 0
199 55 0
200 57 0
200 58 0
201 60 0
202 62 0
202 64 0
203 66 0
204 67 0
204 69 0
205 71 0
205 73 0
206 74 0
206 76 0
207 78 0
207 80 0
208 81 0
208 83 0
209 85 0
209 86 0
209 88 0
210 90 0
210 91 0
210 93 0
210 95 0
211 96 0
211 98 0
211 100 0
211 101 0
211 103 0
212 104 0
212 106 0
212 107 0
212 109 0
212 110 0
212 112 0
212 113 0
212 115 0
212 116 0
212 117 0
212 119 0
212 120 0
212 122 0
212 123 0
212 124 0
211 126 0
211 127 0
211 128 0
211 129 0
211 131 0
211 132 0
210 133 0
210 134 0
210 135 0
210 136 0
209 138 0
209 139 0
209 140 0
208 141 0
208 142 0
208 143 0
207 144 0
207 145 0
206 146 0
206 147 0
206 148 0
205 149 0
205 150 0
204 151 0
204 151 0
204 152 0
203 153 0
203 154 0
202 155 0
202 156 0
201 156 0
201 157 0
200 158 0
200 159 0
199 159 0
199 160 0
198 161 0
198 161 0
197 162 0
197 163 0
196 163 0
196 164 1
195 165 2
195 165 4
194 166 5
193 166 6
193 167 8
192 168 9
192 168 10
191 169 12
191 169 13
190 170 14
190 170 16
189 171 17
189 171 18
188 172 20
187 172 21
187 173 22
186 173 23
186 173 24
185 174 26
185 174 27
184 175 28
183 175 29
183 175 30
182 176 31
182 176 33
181 176 34
112 0 0
113 0 0
114 0 0
115 0 0
116 0 0
116 0 0
117 0 0
118 0 0
119 0 0
120 0 0
121 0 0
122 0 0
123 0 0
124 0 0
125 0 0
126 0 0
127 0 0
128 0 0
129 0 0
130 0 0
131 0 0
132 0 0
133 0 0
134 0 0
136 0 0
137 0 0
138 0 0
139 0 0
140 0 0
141 0 0
142 0 0
143 0 0
144 0 0
145 0 0
146 0 0
147 0 0
148 0 0
150 0 0
151 0 0
152 0 0
153 0 0
154 0 0
155 0 0
156 0 0
157 0 0
158 0 0
159 0 0
161 0 0
162 0 0
163 0 0
164 0 0
165 0 0
166 0 0
167 0 0
168 0 0
169 0 0
170 0 0
171 0 0
173 1 0
174 3 0
175 4 0
176 6 0
177 8 0
178 9 0
179 11 0
180 13 0
181 14 0
182 16 0
183 18 0
184 19 0
185 21 0
186 23 0
187 25 0
188 26 0
189 28 0
190 30 0
191 32 0
192 33 0
192 35 0
193 37 0
194 39 0
195 41 0
196 42 0
197 44 0
197 46 0
198 48 0
199 50 0
200 51 0
200 53 0
201 55 0
202 57 0
203 58 0
203 60 0
204 62 0
204 64 0
205 66 0
206 67 0
206 69 0
207 71 0
207 73 0
208 74 0
208 76 0
209 78 0
209 80 0
210 81 0
210 83 0
210 85 0
211 86 0
211 88 0
211 90 0
212 91 0
212 93 0
212 95 0
212 96 0
213 98 0
213 99 0
213 101 0
213 103 0
213 104 0
213 106 0
213 107 0
213 109 0
213 110 0
213 112 0
213 113 0
213 114 0
213 116 0
213 117 0
213 119 0
213 120 0
213 121 0
213 123 0
213 124 0
213 125 0
212 126 0
212 128 0
212 129 0
212 130 0
212 131 0
211 133 0
211 134 0
211 135 0
211 136 0
210 137 0
210 138 0
210 139 0
209 140 0
209 141 0
208 142 0
208 143 0
208 144 0
207 145 0
207 146 0
207 147 0
206 148 0
206 149 0
205 150 0
205 151 0
204 152 0
204 152 0
203 153 0
203 154 0
202 155 0
202 156 0
201 156 0
201 157 0
200 158 0
200 159 0
199 159 0
199 160 0
198 161 0
198 161 0
197 162 0
197 163 2
196 163 3
196 164 5
195 165 6
195 165 7
194 166 9
193 166 10
193 167 12
192 167 13
192 168 14
191 168 15
191 169 17
190 169 18
190 170 19
189 170 21
188 171 22
188 171 23
187 172 24
187 172 25
186 173 27
186 173 28
185 173 29
184 174 30
184 174 31
183 175 32
183 175 34
182 175 35
113 0 0
114 0 0
115 0 0
116 0 0
117 0 0
117 0 0
118 0 0
119 0 0
120 0 0
121 0 0
122 0 0
123 0 0
124 0 0
125 0 0
126 0 0
127 0 0
128 0 0
129 0 0
130 0 0
131 0 0
132 0 0
133 0 0
134 0 0
136 0 0
137 0 0
138 0 0
139 0 0
140 0 0
141 0 0
142 0 0
143 0 0
144 0 0
145 0 0
146 0 0
147 0 0
148 0 0
150 0 0
151 0 0
152 0 0
153 0 0
154 0 0
155 0 0
156 0 0
157 0 0
158 0 0
160 0 0
161 0 0
162 0 0
163 0 0
164 0 0
165 0 0
166 0 0
167 0 0
168 0 0
169 0 0
171 0 0
172 0 0
173 0 0
174 0 0
175 1 0
176 3 0
177 4 0
178 6 0
179 8 0
180 9 0
181 11 0
182 13 0
183 14 0
184 16 0
185 18 0
186 19 0
187 21 0
188 23 0
189 25 0
190 26 0
191 28 0
192 30 0
193 32 0
194 33 0
195 35 0
196 37 0
196 39 0
197 41 0
198 42 0
199 44 0
200 46 0
200 48 0
201 50 0
202 51 0
203 53 0
203 55 0
204 57 0
205 59 0
205 60 0
206 62 0
206 64 0
207 66 0
208 67 0
208 69 0
209 71 0
209 73 0
210 74 0
210 76 0
211 78 0
211 80 0
211 81 0
212 83 0
212 85 0
212 86 0
213 88 0
213 90 0
213 91 0
214 93 0
214 95 0
214 96 0
214 98 0
214 99 0
214 101 0
215 102 0
215 104 0
215 105 0
215 107 0
215 108 0
215 110 0
215 111 0
215 113 0
215 114 0
215 116 0
215 117 0
215 118 0
214 120 0
214 121 0
214 122 0
214 124 0
214 125 0
214 126 0
213 127 0
213 129 0
213 130 0
213 131 0
212 132 0
212 133 0
212 134 0
211 136 0
211 137 0
211 138 0
210 139 0
210 140 0
210 141 0
209 142 0
209 143 0
209 144 0
208 145 0
208 146 0
207 147 0
207 148 0
206 148 0
206 149 0
206 150 0
205 151 0
205 152 0
204 153 0
204 153 0
203 154 0
203 155 0
202 156 0
202 157 0
201 157 0
201 158 0
200 159 0
199 159 0
199 160 0
198 161 1
198 161 3
197 162 4
197 163 6
196 163 7
196 164 8
195 164 10
195 165 11
194 165 13
193 166 14
193 167 15
192 167 17
192 168 18
191 168 19
191 169 20
190 169 22
189 170 23
189 170 24
188 170 25
188 171 26
187 171 28
187 172 29
186 172 30
185 173 31
185 173 32
184 173 33
184 174 35
183 174 36
114 0 0
115 0 0
116 0 0
117 0 0
117 0 0
118 0 0
119 0 0
120 0 0
121 0 0
122 0 0
123 0 0
124 0 0
125 0 0
126 0 0
127 0 0
128 0 0
129 0 0
130 0 0
131 0 0
132 0 0
133 0 0
135 0 0
136 0 0
137 0 0
138 0 0
139 0 0
140 0 0
141 0 0
142 0 0
143 0 0
144 0 0
145 0 0
146 0 0
147 0 0
149 0 0
150 0 0
151 0 0
152 0 0
153 0 0
154 0 0
155 0 0
156 0 0
157 0 0
158 0 0
160 0 0
161 0 0
162 0 0
163 0 0
164 0 0
165 0 0
166 0 0
167 0 0
169 0 0
170 0 0
171 0 0
172 0 0
173 0 0
174 0 0
175 0 0
176 0 0
177 1 0
178 3 0
179 4 0
180 6 0
181 8 0
183 9 0
184 11 0
185 13 0
186 14 0
187 16 0
188 18 0
189 19 0
190 21 0
190 23 0
191 25 0
192 26 0
193 28 0
194 30 0
195 32 0
196 34 0
197 35 0
198 37 0
199 39 0
199 41 0
200 43 0
201 44 0
202 46 0
202 48 0
203 50 0
204 51 0
205 53 0
205 55 0
206 57 0
207 59 0
207 60 0
208 62 0
208 64 0
209 66 0
210 67 0
210 69 0
211 71 0
211 73 0
211 74 0
212 76 0
212 78 0
213 80 0
213 81 0
213 83 0
214 85 0
214 86 0
214 88 0
215 90 0
215 91 0
215 93 0
215 94 0
215 96 0
216 98 0
216 99 0
216 101 0
216 102 0
216 104 0
216 105 0
216 107 0
216 108 0
216 110 0
216 111 0
216 113 0
216 114 0
216 115 0
216 117 0
216 118 0
216 119 0
215 121 0
215 122 0
215 123 0
215 125 0
215 126 0
214 127 0
214 128 0
214 129 0
214 131 0
213 132 0
213 133 0
213 134 0
212 135 0
212 136 0
212 137 0
211 138 0
211 139 0
211 140 0
210 141 0
210 142 0
209 143 0
209 144 0
209 145 0
208 146 0
208 147 0
207 148 0
207 149 0
206 150 0
206 150 0
205 151 0
205 152 0
204 153 0
204 154 0
203 154 0
203 155 0
202 156 0
202 157 0
201 157 0
201 158 0
200 159 1
199 159 2
199 160 4
198 161 5
198 161 7
197 162 8
197 162 10
196 163 11
196 164 12
195 164 14
194 165 15
194 165 16
193 166 18
193 166 19
192 167 20
192 167 21
191 168 23
190 168 24
190 169 25
189 169 26
189 170 27
188 170 29
188 170 30
187 171 31
186 171 32
186 172 33
185 172 34
185 172 35
184 173 37
115 0 0
116 0 0
117 0 0
118 0 0
118 0 0
119 0 0
120 0 0
121 0 0
122 0 0
123 0 0
124 0 0
125 0 0
126 0 0
127 0 0
128 0 0
129 0 0
130 0 0
131 0 0
132 0 0
133 0 0
135 0 0
136 0 0
137 0 0
138 0 0
139 0 0
140 0 0
141 0 0
142 0 0
143 0 0
144 0 0
145 0 0
146 0 0
147 0 0
149 0 0
150 0 0
151 0 0
152 0 0
153 0 0
154 0 0
155 0 0
156 0 0
157 0 0
159 0 0
160 0 0
161 0 0
162 0 0
163 0 0
164 0 0
165 0 0
166 0 0
167 0 0
169 0 0
170 0 0
171 0 0
172 0 0
173 0 0
174 0 0
175 0 0
176 0 0
177 0 0
178 0 0
180 1 0
181 3 0
182 4 0
183 6 0
184 8 0
185 9 0
186 11 0
187 13 0
188 14 0
189 16 0
190 18 0
191 20 0
192 21 0
193 23 0
194 25 0
195 27 0
196 28 0
196 30 0
197 32 0
198 34 0
199 35 0
200 37 0
201 39 0
202 41 0
202 43 0
203 44 0
204 46 0
205 48 0
205 50 0
206 52 0
207 53 0
207 55 0
208 57 0
209 59 0
209 60 0
210 62 0
210 64 0
211 66 0
211 67 0
212 69 0
212 71 0
213 73 0
213 74 0
214 76 0
214 78 0
214 80 0
215 81 0
215 83 0
215 85 0
216 86 0
216 88 0
216 90 0
216 91 0
217 93 0
217 94 0
217 96 0
217 97 0
217 99 0
217 101 0
217 102 0
217 104 0
217 105 0
217 107 0
217 108 0
217 109 0
217 111 0
217 112 0
217 114 0
217 115 0
217 116 0
217 118 0
217 119 0
217 120 0
216 122 0
216 123 0
216 124 0
216 125 0
215 127 0
215 128 0
215 129 0
215 130 0
214 131 0
214 132 0
214 134 0
213 135 0
213 136 0
213 137 0
212 138 0
212 139 0
211 140 0
211 141 0
211 142 0
210 143 0
210 144 0
209 145 0
209 145 0
208 146 0
208 147 0
207 148 0
207 149 0
206 150 0
206 151 0
205 151 0
205 152 0
204 153 0
204 154 0
203 154 0
203 155 0
202 156 0
202 157 1
201 157 2
201 158 4
200 159 5
199 159 6
199 160 8
198 160 9
198 161 11
197 162 12
197 162 13
196 163 15
196 163 16
195 164 17
194 164 19
194 165 20
193 165 21
193 166 22
192 166 24
191 167 25
191 167 26
190 168 27
190 168 28
189 169 30
189 169 31
188 170 32
187 170 33
187 170 34
186 171 35
186 171 36
185 172 38
116 0 0
117 0 0
118 0 0
118 0 0
119 0 0
120 0 0
121 0 0
122 0 0
123 0 0
124 0 0
125 0 0
126 0 0
127 0 0
128 0 0
129 0 0
130 0 0
131 0 0
132 0 0
133 0 0
134 0 0
136 0 0
137 0 0
138 0 0
139 0 0
140 0 0
141 0 0
142 0 0
143 0 0
144 0 0
145 0 0
146 0 0
147 0 0
149 0 0
150 0 0
151 0 0
152 0 0
153 0 0
154 0 0
155 0 0
156 0 0
157 0 0
159 0 0
160 0 0
161 0 0
162 0 0
163 0 0
164 0 0
165 0 0
166 0 0
168 0 0
169 0 0
170 0 0
171 0 0
172 0 0
173 0 0
174 0 0
175 0 0
176 0 0
178 0 0
179 0 0
180 0 0
181 0 0
182 1 0
183 3 0
184 4 0
185 6 0
186 8 0
187 9 0
188 11 0
189 13 0
190 14 0
191 16 0
192 18 0
193 20 0
194 21 0
195 23 0
196 25 0
197 27 0
198 28 0
199 30 0
199 32 0
200 34 0
201 35 0
202 37 0
203 39 0
204 41 0
204 43 0
205 44 0
206 46 0
207 48 0
207 50 0
208 52 0
209 53 0
209 55 0
210 57 0
211 59 0
211 60 0
212 62 0
212 64 0
213 66 0
213 68 0
214 69 0
214 71 0
215 73 0
215 74 0
215 76 0
216 78 0
216 80 0
216 81 0
217 83 0
217 85 0
217 86 0
218 88 0
218 89 0
218 91 0
218 93 0
218 94 0
218 96 0
219 97 0
219 99 0
219 100 0
219 102 0
219 103 0
219 105 0
219 106 0
219 108 0
219 109 0
219 111 0
219 112 0
218 113 0
218 115 0
218 116 0
218 117 0
218 119 0
218 120 0
217 121 0
217 123 0
217 124 0
217 125 0
216 126 0
216 127 0
216 129 0
216 130 0
215 131 0
215 132 0
215 133 0
214 134 0
214 135 0
213 136 0
213 137 0
213 138 0
212 139 0
212 140 0
211 141 0
211 142 0
210 143 0
210 144 0
209 145 0
209 146 0
209 147 0
208 147 0
208 148 0
207 149 0
206 150 0
206 151 0
205 151 0
205 152 0
204 153 0
204 154 0
203 154 0
203 155 2
202 156 3
202 156 5
201 157 6
201 158 7
200 158 9
199 159 10
199 160 12
198 160 13
198 161 14
197 161 16
197 162 17
196 163 18
195 163 20
195 164 21
194 164 22
194 165 23
193 165 25
192 166 26
192 166 27
191 167 28
191 167 29
190 168 31
190 168 32
189 168 33
188 169 34
188 169 35
187 170 36
187 170 37
186 170 38
117 0 0
117 0 0
118 0 0
119 0 0
120 0 0
121 0 0
122 0 0
123 0 0
124 0 0
125 0 0
126 0 0
127 0 0
128 0 0
129 0 0
130 0 0
131 0 0
132 0 0
133 0 0
134 0 0
136 0 0
137 0 0
138 0 0
139 0 0
140 0 0
141 0 0
142 0 0
143 0 0
144 0 0
145 0 0
146 0 0
147 0 0
148 0 0
150 0 0
151 0 0
152 0 0
153 0 0
154 0 0
155 0 0
156 0 0
157 0 0
159 0 0
160 0 0
161 0 0
162 0 0
163 0 0
164 0 0
165 0 0
166 0 0
168 0 0
169 0 0
170 0 0
171 0 0
172 0 0
173 0 0
174 0 0
175 0 0
177 0 0
178 0 0
179 0 0
180 0 0
181 0 0
182 0 0
183 0 0
184 1 0
185 3 0
186 4 0
187 6 0
188 8 0
189 9 0
190 11 0
191 13 0
192 14 0
193 16 0
194 18 0
195 20 0
196 21 0
197 23 0
198 25 0
199 27 0
200 28 0
201 30 0
202 32 0
202 34 0
203 36 0
204 37 0
205 39 0
206 41 0
206 43 0
207 44 0
208 46 0
209 48 0
209 50 0
210 52 0
211 53 0
211 55 0
212 57 0
212 59 0
213 60 0
214 62 0
214 64 0
215 66 0
215 67 0
215 69 0
216 71 0
216 73 0
217 74 0
217 76 0
217 78 0
218 79 0
218 81 0
218 83 0
219 84 0
219 86 0
219 88 0
219 89 0
219 91 0
220 92 0
220 94 0
220 96 0
220 97 0
220 99 0
220 100 0
220 102 0
220 103 0
220 105 0
220 106 0
220 107 0
220 109 0
220 110 0
220 112 0
220 113 0
219 114 0
219 116 0
219 117 0
219 118 0
219 120 0
218 121 0
218 122 0
218 123 0
218 125 0
217 126 0
217 127 0
217 128 0
216 129 0
216 130 0
216 131 0
215 133 0
215 134 0
215 135 0
214 136 0
214 137 0
213 138 0
213 139 0
212 140 0
212 141 0
212 142 0
211 142 0
211 143 0
210 144 0
210 145 0
209 146 0
209 147 0
208 148 0
208 148 0
207 149 0
207 150 0
206 151 0
205 152 0
205 152 0
204 153 1
204 154 3
203 154 4
203 155 6
202 156 7
202 156 9
201 157 10
200 158 11
200 158 13
199 159 14
199 159 15
198 160 17
198 161 18
197 161 19
196 162 21
196 162 22
195 163 23
195 163 24
194 164 26
193 164 27
193 165 28
192 165 29
192 166 30
191 166 32
191 167 33
190 167 34
189 168 35
189 168 36
188 168 37
188 169 38
187 169 39
117 0 0
118 0 0
119 0 0
120 0 0
121 0 0
122 0 0
123 0 0
124 0 0
125 0 0
126 0 0
127 0 0
128 0 0
129 0 0
130 0 0
131 0 0
132 0 0
133 0 0
134 0 0
135 0 0
137 0 0
138 0 0
139 0 0
140 0 0
141 0 0
142 0 0
143 0 0
144 0 0
145 0 0
146 0 0
147 0 0
148 0 0
150 0 0
151 0 0
152 0 0
153 0 0
154 0 0
155 0 0
156 0 0
157 0 0
159 0 0
160 0 0
161 0 0
162 0 0
163 0 0
164 0 0
165 0 0
166 0 0
168 0 0
169 0 0
170 0 0
171 0 0
172 0 0
173 0 0
174 0 0
176 0 0
177 0 0
178 0 0
179 0 0
180 0 0
181 0 0
182 0 0
183 0 0
184 0 0
185 0 0
186 1 0
187 3 0
189 4 0
190 6 0
191 8 0
192 9 0
193 11 0
194 13 0
195 14 0
196 16 0
197 18 0
198 20 0
198 21 0
199 23 0
200 25 0
201 27 0
202 28 0
203 30 0
204 32 0
205 34 0
205 36 0
206 37 0
207 39 0
208 41 0
208 43 0
209 45 0
210 46 0
211 48 0
211 50 0
212 52 0
213 53 0
213 55 0
214 57 0
214 59 0
215 60 0
215 62 0
216 64 0
216 66 0
217 67 0
217 69 0
218 71 0
218 73 0
218 74 0
219 76 0
219 78 0
219 79 0
220 81 0
220 83 0
220 84 0
220 86 0
221 88 0
221 89 0
221 91 0
221 92 0
221 94 0
221 95 0
221 97 0
221 98 0
221 100 0
221 101 0
221 103 0
221 104 0
221 106 0
221 107 0
221 109 0
221 110 0
221 111 0
221 113 0
220 114 0
220 115 0
220 117 0
220 118 0
220 119 0
219 120 0
219 122 0
219 123 0
219 124 0
218 125 0
218 126 0
218 128 0
217 129 0
217 130 0
216 131 0
216 132 0
216 133 0
215 134 0
215 135 0
214 136 0
214 137 0
214 138 0
213 139 0
213 140 0
212 141 0
212 142 0
211 143 0
211 144 0
210 144 0
210 145 0
209 146 0
209 147 0
208 148 0
208 149 0
207 149 0
207 150 0
206 151 1
205 152 2
205 152 4
204 153 5
204 154 7
203 154 8
203 155 10
202 156 11
201 156 12
201 157 14
200 158 15
200 158 16
199 159 18
199 159 19
198 160 20
197 160 22
197 161 23
196 161 24
196 162 25
195 163 27
194 163 28
194 164 29
193 164 30
193 164 31
192 165 33
191 165 34
191 166 35
190 166 36
190 167 37
189 167 38
188 168 39
188 168 40
118 0 0
119 0 0
120 0 0
121 0 0
122 0 0
123 0 0
124 0 0
125 0 0
126 0 0
127 0 0
128 0 0
129 0 0
130 0 0
131 0 0
132 0 0
133 0 0
134 0 0
135 0 0
136 0 0
138 0 0
139 0 0
140 0 0
141 0 0
142 0 0
143 0 0
144 0 0
145 0 0
146 0 0
147 0 0
148 0 0
150 0 0
151 0 0
152 0 0
153 0 0
154 0 0
155 0 0
156 0 0
157 0 0
159 0 0
160 0 0
161 0 0
162 0 0
163 0 0
164 0 0
165 0 0
166 0 0
168 0 0
169 0 0
170 0 0
171 0 0
172 0 0
173 0 0
174 0 0
176 0 0
177 0 0
178 0 0
179 0 0
180 0 0
181 0 0
182 0 0
183 0 0
184 0 0
185 0 0
187 0 0
188 0 0
189 1 0
190 3 0
191 4 0
192 6 0
193 8 0
194 9 0
195 11 0
196 13 0
197 15 0
198 16 0
199 18 0
200 20 0
201 21 0
202 23 0
202 25 0
203 27 0
204 29 0
205 30 0
206 32 0
207 34 0
207 36 0
208 37 0
209 39 0
210 41 0
210 43 0
211 45 0
212 46 0
213 48 0
213 50 0
214 52 0
214 53 0
215 55 0
216 57 0
216 59 0
217 60 0
217 62 0
218 64 0
218 66 0
218 67 0
219 69 0
219 71 0
220 73 0
220 74 0
220 76 0
221 78 0
221 79 0
221 81 0
221 83 0
222 84 0
222 86 0
222 87 0
222 89 0
222 91 0
222 92 0
222 94 0
222 95 0
222 97 0
223 98 0
223 100 0
222 101 0
222 103 0
222 104 0
222 106 0
222 107 0
222 108 0
222 110 0
222 111 0
222 112 0
221 114 0
221 115 0
221 116 0
221 118 0
221 119 0
220 120 0
220 121 0
220 122 0
219 124 0
219 125 0
219 126 0
218 127 0
218 128 0
218 129 0
217 130 0
217 131 0
216 132 0
216 134 0
216 135 0
215 136 0
215 137 0
214 137 0
214 138 0
213 139 0
213 140 0
212 141 0
212 142 0
211 143 0
211 144 0
210 145 0
210 145 0
209 146 0
209 147 0
208 148 0
208 149 1
207 149 2
206 150 4
206 151 5
205 152 6
205 152 8
204 153 9
204 154 11
203 154 12
202 155 13
202 155 15
201 156 16
201 157 17
200 157 19
200 158 20
199 158 21
198 159 23
198 160 24
197 160 25
197 161 26
196 161 28
195 162 29
195 162 30
194 163 31
194 163 32
193 164 34
192 164 35
192 165 36
191 165 37
191 165 38
190 166 39
189 166 40
189 167 41
119 0 0
120 0 0
121 0 0
122 0 0
123 0 0
124 0 0
125 0 0
126 0 0
127 0 0
128 0 0
129 0 0
130 0 0
131 0 0
132 0 0
133 0 0
134 0 0
135 0 0
136 0 0
137 0 0
139 0 0
140 0 0
141 0 0
142 0 0
143 0 0
144 0 0
145 0 0
146 0 0
147 0 0
148 0 0
149 0 0
151 0 0
152 0 0
153 0 0
154 0 0
155 0 0
156 0 0
157 0 0
158 0 0
160 0 0
161 0 0
162 0 0
163 0 0
164 0 0
165 0 0
166 0 0
168 0 0
169 0 0
170 0 0
171 0 0
172 0 0
173 0 0
174 0 0
176 0 0
177 0 0
178 0 0
179 0 0
180 0 0
181 0 0
182 0 0
183 0 0
184 0 0
186 0 0
187 0 0
188 0 0
189 0 0
190 0 0
191 1 0
192 3 0
193 4 0
194 6 0
195 8 0
196 9 0
197 11 0
198 13 0
199 15 0
200 16 0
201 18 0
202 20 0
203 22 0
204 23 0
205 25 0
205 27 0
206 29 0
207 30 0
208 32 0
209 34 0
209 36 0
210 37 0
211 39 0
212 41 0
212 43 0
213 45 0
214 46 0
214 48 0
215 50 0
216 52 0
216 53 0
217 55 0
217 57 0
218 59 0
218 60 0
219 62 0
219 64 0
220 66 0
220 67 0
221 69 0
221 71 0
221 73 0
222 74 0
222 76 0
222 78 0
222 79 0
223 81 0
223 82 0
223 84 0
223 86 0
223 87 0
223 89 0
224 90 0
224 92 0
224 93 0
224 95 0
224 96 0
224 98 0
224 99 0
224 101 0
224 102 0
224 104 0
223 105 0
223 107 0
223 108 0
223 109 0
223 111 0
223 112 0
222 113 0
222 115 0
222 116 0
222 117 0
221 118 0
221 120 0
221 121 0
221 122 0
220 123 0
220 124 0
220 125 0
219 127 0
219 128 0
218 129 0
218 130 0
218 131 0
217 132 0
217 133 0
216 134 0
216 135 0
215 136 0
215 137 0
214 138 0
214 139 0
213 140 0
213 141 0
212 141 0
212 142 0
211 143 0
211 144 0
210 145 0
210 146 0
209 146 0
209 147 2
208 148 3
208 149 5
207 149 6
206 150 8
206 151 9
205 151 10
205 152 12
204 153 13
203 153 14
203 154 16
202 155 17
202 155 19
201 156 20
201 157 21
200 157 22
199 158 24
199 158 25
198 159 26
198 159 27
197 160 29
196 160 30
196 161 31
195 161 32
195 162 33
194 162 35
193 163 36
193 163 37
192 164 38
192 164 39
191 165 40
190 165 41
190 165 42
120 0 0
121 0 0
122 0 0
123 0 0
124 0 0
125 0 0
126 0 0
127 0 0
128 0 0
129 0 0
130 0 0
131 0 0
132 0 0
133 0 0
134 0 0
135 0 0
136 0 0
137 0 0
138 0 0
140 0 0
141 0 0
142 0 0
143 0 0
144 0 0
145 0 0
146 0 0
147 0 0
148 0 0
149 0 0
150 0 0
152 0 0
153 0 0
154 0 0
155 0 0
156 0 0
157 0 0
158 0 0
160 0 0
161 0 0
162 0 0
163 0 0
164 0 0
165 0 0
166 0 0
168 0 0
169 0 0
170 0 0
171 0 0
172 0 0
173 0 0
174 0 0
176 0 0
177 0 0
178 0 0
179 0 0
180 0 0
181 0 0
182 0 0
183 0 0
185 0 0
186 0 0
187 0 0
188 0 0
189 0 0
190 0 0
191 0 0
192 0 0
193 1 0
194 3 0
195 4 0
196 6 0
197 8 0
198 9 0
199 11 0
200 13 0
201 15 0
202 16 0
203 18 0
204 20 0
205 22 0
206 23 0
207 25 0
207 27 0
208 29 0
209 30 0
210 32 0
211 34 0
211 36 0
212 37 0
213 39 0
214 41 0
214 43 0
215 45 0
216 46 0
216 48 0
217 50 0
217 52 0
218 53 0
219 55 0
219 57 0
220 59 0
220 60 0
221 62 0
221 64 0
221 66 0
222 67 0
222 69 0
222 71 0
223 72 0
223 74 0
223 76 0
224 77 0
224 79 0
224 81 0
224 82 0
224 84 0
225 85 0
225 87 0
225 89 0
225 90 0
225 92 0
225 93 0
225 95 0
225 96 0
225 98 0
225 99 0
225 101 0
225 102 0
225 103 0
224 105 0
224 106 0
224 108 0
224 109 0
224 110 0
224 112 0
223 113 0
223 114 0
223 115 0
223 117 0
222 118 0
222 119 0
222 120 0
221 122 0
221 123 0
221 124 0
220 125 0
220 126 0
220 127 0
219 128 0
219 129 0
218 130 0
218 131 0
217 132 0
217 133 0
216 134 0
216 135 0
215 136 0
215 137 0
214 138 0
214 139 0
213 140 0
213 141 0
212 142 0
212 142 0
211 143 0
211 144 0
210 145 1
210 146 3
209 146 4
209 147 6
208 148 7
207 149 9
207 149 10
206 150 11
206 151 13
205 151 14
204 152 16
204 153 17
203 153 18
203 154 20
202 155 21
201 155 22
201 156 23
200 156 25
200 157 26
199 157 27
198 158 28
198 158 30
197 159 31
197 160 32
196 160 33
195 161 34
195 161 35
194 161 37
194 162 38
193 162 39
192 163 40
192 163 41
191 164 42
191 164 43
121 0 0
122 0 0
123 0 0
124 0 0
125 0 0
126 0 0
127 0 0
128 0 0
129 0 0
130 0 0
131 0 0
132 0 0
133 0 0
134 0 0
135 0 0
136 0 0
137 0 0
138 0 0
139 0 0
140 0 0
142 0 0
143 0 0
144 0 0
145 0 0
146 0 0
147 0 0
148 0 0
149 0 0
150 0 0
151 0 0
153 0 0
154 0 0
155 0 0
156 0 0
157 0 0
158 0 0
159 0 0
161 0 0
162 0 0
163 0 0
164 0 0
165 0 0
166 0 0
167 0 0
169 0 0
170 0 0
171 0 0
172 0 0
173 0 0
174 0 0
176 0 0
177 0 0
178 0 0
179 0 0
180 0 0
181 0 0
182 0 0
183 0 0
185 0 0
186 0 0
187 0 0
188 0 0
189 0 0
190 0 0
191 0 0
192 0 0
193 0 0
194 0 0
195 1 0
196 3 0
197 4 0
198 6 0
199 8 0
200 9 0
201 11 0
202 13 0
203 15 0
204 16 0
205 18 0
206 20 0
207 22 0
208 23 0
209 25 0
209 27 0
210 29 0
211 30 0
212 32 0
213 34 0
213 36 0
214 38 0
215 39 0
216 41 0
216 43 0
217 45 0
217 46 0
218 48 0
219 50 0
219 52 0
220 53 0
220 55 0
221 57 0
221 59 0
222 60 0
222 62 0
223 64 0
223 66 0
223 67 0
224 69 0
224 71 0
224 72 0
225 74 0
225 76 0
225 77 0
225 79 0
225 81 0
226 82 0
226 84 0
226 85 0
226 87 0
226 88 0
226 90 0
226 91 0
226 93 0
226 95 0
226 96 0
226 97 0
226 99 0
226 100 0
226 102 0
226 103 0
225 105 0
225 106 0
225 107 0
225 109 0
225 110 0
225 111 0
224 113 0
224 114 0
224 115 0
223 116 0
223 117 0
223 119 0
222 120 0
222 121 0
222 122 0
221 123 0
221 124 0
221 126 0
220 127 0
220 128 0
219 129 0
219 130 0
218 131 0
218 132 0
218 133 0
217 134 0
217 135 0
216 136 0
216 137 0
215 137 0
215 138 0
214 139 0
213 140 0
213 141 0
212 142 0
212 143 1
211 143 2
211 144 4
210 145 5
210 146 7
209 146 8
208 147 10
208 148 11
207 149 12
207 149 14
206 150 15
205 151 17
205 151 18
204 152 19
204 153 21
203 153 22
202 154 23
202 154 24
201 155 26
201 155 27
200 156 28
199 157 29
199 157 31
198 158 32
198 158 33
197 159 34
196 159 35
196 160 36
195 160 38
195 161 39
194 161 40
193 162 41
193 162 42
192 162 43
191 163 44
122 0 0
123 0 0
124 0 0
125 0 0
126 0 0
127 0 0
128 0 0
129 0 0
130 0 0
131 0 0
132 0 0
133 0 0
134 0 0
135 0 0
136 0 0
137 0 0
138 0 0
139 0 0
140 0 0
141 0 0
143 0 0
144 0 0
145 0 0
146 0 0
147 0 0
148 0 0
149 0 0
150 0 0
151 0 0
153 0 0
154 0 0
155 0 0
156 0 0
157 0 0
158 0 0
159 0 0
160 0 0
162 0 0
163 0 0
164 0 0
165 0 0
166 0 0
167 0 0
169 0 0
170 0 0
171 0 0
172 0 0
173 0 0
174 0 0
175 0 0
177 0 0
178 0 0
179 0 0
180 0 0
181 0 0
182 0 0
183 0 0
185 0 0
186 0 0
187 0 0
188 0 0
189 0 0
190 0 0
191 0 0
192 0 0
193 0 0
194 0 0
195 0 0
196 0 0
198 1 0
199 3 0
200 4 0
201 6 0
202 8 0
203 9 0
203 11 0
204 13 0
205 15 0
206 16 0
207 18 0
208 20 0
209 22 0
210 23 0
211 25 0
211 27 0
212 29 0
213 30 0
214 32 0
215 34 0
215 36 0
216 38 0
217 39 0
217 41 0
218 43 0
219 45 0
219 46 0
220 48 0
220 50 0
221 52 0
221 53 0
222 55 0
222 57 0
223 59 0
223 60 0
224 62 0
224 64 0
224 65 0
225 67 0
225 69 0
225 71 0
226 72 0
226 74 0
226 75 0
226 77 0
227 79 0
227 80 0
227 82 0
227 84 0
227 85 0
227 87 0
227 88 0
227 90 0
227 91 0
227 93 0
227 94 0
227 96 0
227 97 0
227 99 0
227 100 0
227 101 0
227 103 0
226 104 0
226 106 0
226 107 0
226 108 0
226 110 0
225 111 0
225 112 0
225 113 0
225 115 0
224 116 0
224 117 0
224 118 0
223 119 0
223 121 0
222 122 0
222 123 0
222 124 0
221 125 0
221 126 0
220 127 0
220 128 0
219 129 0
219 130 0
219 131 0
218 132 0
218 133 0
217 134 0
217 135 0
216 136 0
216 137 0
215 138 0
214 139 0
214 139 0
213 140 1
213 141 2
212 142 4
212 143 5
211 143 6
211 144 8
210 145 9
209 146 11
209 146 12
208 147 14
208 148 15
207 148 16
206 149 18
206 150 19
205 150 20
205 151 22
204 152 23
203 152 24
203 153 25
202 154 27
202 154 28
201 155 29
200 155 30
200 156 32
199 156 33
198 157 34
198 157 35
197 158 36
197 158 37
196 159 39
195 159 40
195 160 41
194 160 42
194 161 43
193 161 44
192 162 45
123 0 0
124 0 0
125 0 0
126 0 0
127 0 0
128 0 0
129 0 0
130 0 0
131 0 0
132 0 0
133 0 0
134 0 0
135 0 0
136 0 0
137 0 0
138 0 0
139 0 0
140 0 0
141 0 0
142 0 0
144 0 0
145 0 0
146 0 0
147 0 0
148 0 0
149 0 0
150 0 0
151 0 0
152 0 0
153 0 0
155 0 0
156 0 0
157 0 0
158 0 0
159 0 0
160 0 0
161 0 0
163 0 0
164 0 0
165 0 0
166 0 0
167 0 0
168 0 0
170 0 0
171 0 0
172 0 0
173 0 0
174 0 0
175 0 0
177 0 0
178 0 0
179 0 0
180 0 0
181 0 0
182 0 0
183 0 0
185 0 0
186 0 0
187 0 0
188 0 0
189 0 0
190 0 0
191 0 0
192 0 0
193 0 0
194 0 0
196 0 0
197 0 0
198 0 0
199 0 0
200 1 0
201 3 0
202 4 0
203 6 0
204 8 0
205 9 0
206 11 0
207 13 0
207 15 0
208 16 0
209 18 0
210 20 0
211 22 0
212 23 0
213 25 0
213 27 0
214 29 0
215 30 0
216 32 0
216 34 0
217 36 0
218 38 0
219 39 0
219 41 0
220 43 0
220 45 0
221 46 0
222 48 0
222 50 0
223 52 0
223 53 0
224 55 0
224 57 0
224 59 0
225 60 0
225 62 0
226 64 0
226 65 0
226 67 0
227 69 0
227 70 0
227 72 0
227 74 0
228 75 0
228 77 0
228 79 0
228 80 0
228 82 0
228 83 0
228 85 0
228 86 0
228 88 0
228 89 0
228 91 0
228 92 0
228 94 0
228 95 0
228 97 0
228 98 0
228 100 0
228 101 0
228 102 0
227 104 0
227 105 0
227 106 0
227 108 0
226 109 0
226 110 0
226 112 0
226 113 0
225 114 0
225 115 0
225 117 0
224 118 0
224 119 0
224 120 0
223 121 0
223 122 0
222 123 0
222 124 0
221 125 0
221 127 0
221 128 0
220 129 0
220 130 0
219 131 0
219 131 0
218 132 0
218 133 0
217 134 0
217 135 0
216 136 0
215 137 0
215 138 0
214 139 2
214 139 3
213 140 5
213 141 6
212 142 8
212 143 9
211 143 10
210 144 12
210 145 13
209 146 15
209 146 16
208 147 17
207 148 19
207 148 20
206 149 21
206 150 23
205 150 24
204 151 25
204 152 26
203 152 28
202 153 29
202 153 30
201 154 31
201 154 33
200 155 34
199 155 35
199 156 36
198 157 37
198 157 38
197 157 39
196 158 41
196 158 42
195 159 43
194 159 44
194 160 45
193 160 46
124 0 0
125 0 0
126 0 0
127 0 0
128 0 0
129 0 0
130 0 0
131 0 0
132 0 0
133 0 0
134 0 0
135 0 0
136 0 0
137 0 0
138 0 0
139 0 0
140 0 0
141 0 0
142 0 0
143 0 0
144 0 0
146 0 0
147 0 0
148 0 0
149 0 0
150 0 0
151 0 0
152 0 0
153 0 0
154 0 0
156 0 0
157 0 0
158 0 0
159 0 0
160 0 0
161 0 0
162 0 0
164 0 0
165 0 0
166 0 0
167 0 0
168 0 0
169 0 0
171 0 0
172 0 0
173 0 0
174 0 0
175 0 0
176 0 0
178 0 0
179 0 0
180 0 0
181 0 0
182 0 0
183 0 0
184 0 0
186 0 0
187 0 0
188 0 0
189 0 0
190 0 0
191 0 0
192 0 0
193 0 0
194 0 0
196 0 0
197 0 0
198 0 0
199 0 0
200 0 0
201 0 0
202 1 0
203 3 0
204 4 0
205 6 0
206 8 0
207 9 0
208 11 0
209 13 0
209 15 0
210 16 0
211 18 0
212 20 0
213 22 0
214 23 0
215 25 0
215 27 0
216 29 0
217 30 0
218 32 0
218 34 0
219 36 0
220 38 0
220 39 0
221 41 0
222 43 0
222 45 0
223 46 0
223 48 0
224 50 0
224 52 0
225 53 0
225 55 0
226 57 0
226 58 0
226 60 0
227 62 0
227 64 0
227 65 0
228 67 0
228 69 0
228 70 0
228 72 0
229 74 0
229 75 0
229 77 0
229 78 0
229 80 0
229 82 0
229 83 0
229 85 0
229 86 0
229 88 0
229 89 0
229 91 0
229 92 0
229 94 0
229 95 0
229 97 0
229 98 0
229 99 0
229 101 0
228 102 0
228 103 0
228 105 0
228 106 0
228 107 0
227 109 0
227 110 0
227 111 0
226 112 0
226 114 0
226 115 0
225 116 0
225 117 0
225 118 0
224 119 0
224 121 0
223 122 0
223 123 0
222 124 0
222 125 0
222 126 0
221 127 0
221 128 0
220 129 0
220 130 0
219 131 0
219 132 0
218 133 0
218 134 0
217 135 0
216 135 0
216 136 1
215 137 3
215 138 4
214 139 6
214 140 7
213 140 9
212 141 10
212 142 12
211 143 13
211 143 14
210 144 16
210 145 17
209 146 18
208 146 20
208 147 21
207 148 22
206 148 24
206 149 25
205 149 26
205 150 27
204 151 29
203 151 30
203 152 31
202 152 32
202 153 34
201 154 35
200 154 36
200 155 37
199 155 38
198 156 39
198 156 40
197 157 42
197 157 43
196 158 44
195 158 45
195 159 46
194 159 47
125 0 0
126 0 0
127 0 0
128 0 0
129 0 0
130 0 0
131 0 0
132 0 0
133 0 0
134 0 0
135 0 0
136 0 0
137 0 0
138 0 0
139 0 0
140 0 0
141 0 0
142 0 0
143 0 0
144 0 0
145 0 0
146 0 0
148 0 0
149 0 0
150 0 0
151 0 0
152 0 0
153 0 0
154 0 0
155 0 0
157 0 0
158 0 0
159 0 0
160 0 0
161 0 0
162 0 0
163 0 0
165 0 0
166 0 0
167 0 0
168 0 0
169 0 0
170 0 0
172 0 0
173 0 0
174 0 0
175 0 0
176 0 0
177 0 0
179 0 0
180 0 0
181 0 0
182 0 0
183 0 0
184 0 0
186 0 0
187 0 0
188 0 0
189 0 0
190 0 0
191 0 0
192 0 0
193 0 0
194 0 0
196 0 0
197 0 0
198 0 0
199 0 0
200 0 0
201 0 0
202 0 0
203 0 0
204 1 0
205 3 0
206 4 0
207 6 0
208 8 0
209 10 0
210 11 0
211 13 0
211 15 0
212 16 0
213 18 0
214 20 0
215 22 0
216 23 0
216 25 0
217 27 0
218 29 0
219 30 0
219 32 0
220 34 0
221 36 0
221 38 0
222 39 0
223 41 0
223 43 0
224 45 0
224 46 0
225 48 0
225 50 0
226 52 0
226 53 0
227 55 0
227 57 0
227 58 0
228 60 0
228 62 0
228 63 0
229 65 0
229 67 0
229 68 0
230 70 0
230 72 0
230 73 0
230 75 0
230 77 0
230 78 0
230 80 0
230 81 0
231 83 0
231 84 0
231 86 0
231 87 0
230 89 0
230 90 0
230 92 0
230 93 0
230 95 0
230 96 0
230 98 0
230 99 0
230 100 0
229 102 0
229 103 0
229 104 0
229 106 0
228 107 0
228 108 0
228 109 0
227 111 0
227 112 0
227 113 0
226 114 0
226 116 0
226 117 0
225 118 0
225 119 0
224 120 0
224 121 0
223 122 0
223 123 0
223 124 0
222 125 0
222 126 0
221 127 0
221 128 0
220 129 0
220 130 0
219 131 0
219 132 0
218 133 0
217 134 1
217 135 2
216 136 4
216 136 5
215 137 7
215 138 8
214 139 10
213 140 11
213 140 13
212 141 14
212 142 15
211 143 17
210 143 18
210 144 19
209 145 21
209 145 22
208 146 23
207 147 25
207 147 26
206 148 27
206 149 28
205 149 30
204 150 31
204 150 32
203 151 33
202 152 35
202 152 36
201 153 37
201 153 38
200 154 39
199 154 40
199 155 41
198 155 43
197 156 44
197 156 45
196 157 46
196 157 47
195 158 48
125 0 0
126 0 0
127 0 0
128 0 0
129 0 0
130 0 0
131 0 0
133 0 0
134 0 0
135 0 0
136 0 0
137 0 0
138 0 0
139 0 0
140 0 0
141 0 0
142 0 0
143 0 0
144 0 0
145 0 0
146 0 0
147 0 0
149 0 0
150 0 0
151 0 0
152 0 0
153 0 0
154 0 0
155 0 0
156 0 0
158 0 0
159 0 0
160 0 0
161 0 0
162 0 0
163 0 0
164 0 0
166 0 0
167 0 0
168 0 0
169 0 0
170 0 0
171 0 0
173 0 0
174 0 0
175 0 0
176 0 0
177 0 0
178 0 0
180 0 0
181 0 0
182 0 0
183 0 0
184 0 0
185 0 0
187 0 0
188 0 0
189 0 0
190 0 0
191 0 0
192 0 0
193 0 0
194 0 0
196 0 0
197 0 0
198 0 0
199 0 0
200 0 0
201 0 0
202 0 0
203 0 0
204 0 0
205 0 0
206 1 0
207 3 0
208 4 0
209 6 0
210 8 0
211 10 0
212 11 0
213 13 0
213 15 0
214 16 0
215 18 0
216 20 0
217 22 0
218 23 0
218 25 0
219 27 0
220 29 0
220 30 0
221 32 0
222 34 0
222 36 0
223 38 0
224 39 0
224 41 0
225 43 0
225 45 0
226 46 0
226 48 0
227 50 0
227 51 0
228 53 0
228 55 0
229 57 0
229 58 0
229 60 0
230 62 0
230 63 0
230 65 0
230 67 0
231 68 0
231 70 0
231 72 0
231 73 0
231 75 0
231 76 0
231 78 0
232 80 0
232 81 0
232 83 0
232 84 0
232 86 0
232 87 0
231 89 0
231 90 0
231 92 0
231 93 0
231 94 0
231 96 0
231 97 0
231 99 0
230 100 0
230 101 0
230 103 0
230 104 0
229 105 0
229 107 0
229 108 0
228 109 0
228 110 0
228 111 0
227 113 0
227 114 0
227 115 0
226 116 0
226 117 0
225 118 0
225 119 0
224 121 0
224 122 0
224 123 0
223 124 0
223 125 0
222 126 0
222 127 0
221 128 0
221 129 0
220 130 0
219 130 0
219 131 1
218 132 2
218 133 4
217 134 5
217 135 6
216 136 8
216 137 9
215 137 11
214 138 12
214 139 14
213 140 15
213 140 16
212 141 18
211 142 19
211 143 21
210 143 22
210 144 23
209 145 24
208 145 26
208 146 27
207 147 28
206 147 30
206 148 31
205 148 32
205 149 33
204 150 34
203 150 36
203 151 37
202 151 38
201 152 39
201 152 40
200 153 41
199 153 42
199 154 43
198 154 45
198 155 46
197 155 47
196 156 48
196 156 49
126 0 0
127 0 0
128 0 0
129 0 0
130 0 0
131 0 0
132 0 0
133 0 0
134 0 0
135 0 0
136 0 0
138 0 0
139 0 0
140 0 0
141 0 0
142 0 0
143 0 0
144 0 0
145 0 0
146 0 0
147 0 0
148 0 0
149 0 0
151 0 0
152 0 0
153 0 0
154 0 0
155 0 0
156 0 0
157 0 0
159 0 0
160 0 0
161 0 0
162 0 0
163 0 0
164 0 0
165 0 0
167 0 0
168 0 0
169 0 0
170 0 0
171 0 0
172 0 0
174 0 0
175 0 0
176 0 0
177 0 0
178 0 0
179 0 0
181 0 0
182 0 0
183 0 0
184 0 0
185 0 0
186 0 0
188 0 0
189 0 0
190 0 0
191 0 0
192 0 0
193 0 0
194 0 0
195 0 0
197 0 0
198 0 0
199 0 0
200 0 0
201 0 0
202 0 0
203 0 0
204 0 0
205 0 0
206 0 0
207 0 0
208 1 0
209 3 0
210 4 0
211 6 0
212 8 0
213 10 0
214 11 0
214 13 0
215 15 0
216 16 0
217 18 0
218 20 0
219 22 0
219 23 0
220 25 0
221 27 0
222 29 0
222 30 0
223 32 0
224 34 0
224 36 0
225 37 0
225 39 0
226 41 0
226 43 0
227 44 0
227 46 0
228 48 0
228 50 0
229 51 0
229 53 0
230 55 0
230 57 0
230 58 0
231 60 0
231 62 0
231 63 0
231 65 0
232 67 0
232 68 0
232 70 0
232 71 0
232 73 0
232 75 0
232 76 0
233 78 0
233 79 0
233 81 0
233 82 0
233 84 0
233 85 0
233 87 0
232 88 0
232 90 0
232 91 0
232 93 0
232 94 0
232 95 0
232 97 0
231 98 0
231 100 0
231 101 0
231 102 0
230 104 0
230 105 0
230 106 0
229 107 0
229 109 0
229 110 0
228 111 0
228 112 0
228 113 0
227 114 0
227 116 0
226 117 0
226 118 0
225 119 0
225 120 0
225 121 0
224 122 0
224 123 0
223 124 0
223 125 0
222 126 0
221 127 0
221 128 0
220 129 0
220 130 2
219 131 3
219 132 5
218 132 6
218 133 8
217 134 9
216 135 10
216 136 12
215 137 13
215 137 15
214 138 16
213 139 18
213 140 19
212 140 20
212 141 22
211 142 23
210 142 24
210 143 25
209 144 27
209 145 28
208 145 29
207 146 31
207 146 32
206 147 33
205 148 34
205 148 35
204 149 37
203 149 38
203 150 39
202 150 40
202 151 41
201 152 42
200 152 43
200 153 44
199 153 45
198 154 47
198 154 48
197 155 49
197 155 50
127 0 0
128 0 0
129 0 0
130 0 0
131 0 0
132 0 0
133 0 0
134 0 0
135 0 0
136 0 0
137 0 0
138 0 0
139 0 0
141 0 0
142 0 0
143 0 0
144 0 0
145 0 0
146 0 0
147 0 0
148 0 0
149 0 0
150 0 0
152 0 0
153 0 0
154 0 0
155 0 0
156 0 0
157 0 0
158 0 0
159 0 0
161 0 0
162 0 0
163 0 0
164 0 0
165 0 0
166 0 0
168 0 0
169 0 0
170 0 0
171 0 0
172 0 0
173 0 0
175 0 0
176 0 0
177 0 0
178 0 0
179 0 0
180 0 0
182 0 0
183 0 0
184 0 0
185 0 0
186 0 0
187 0 0
189 0 0
190 0 0
191 0 0
192 0 0
193 0 0
194 0 0
195 0 0
196 0 0
198 0 0
199 0 0
200 0 0
201 0 0
202 0 0
203 0 0
204 0 0
205 0 0
206 0 0
207 0 0
208 0 0
209 0 0
210 1 0
211 3 0
212 4 0
213 6 0
214 8 0
215 10 0
215 11 0
216 13 0
217 15 0
218 16 0
219 18 0
220 20 0
220 22 0
221 23 0
222 25 0
223 27 0
223 29 0
224 30 0
225 32 0
225 34 0
226 36 0
226 37 0
227 39 0
227 41 0
228 43 0
228 44 0
229 46 0
229 48 0
230 50 0
230 51 0
231 53 0
231 55 0
231 56 0
232 58 0
232 60 0
232 61 0
232 63 0
233 65 0
233 66 0
233 68 0
233 70 0
233 71 0
233 73 0
234 74 0
234 76 0
234 78 0
234 79 0
234 81 0
234 82 0
234 84 0
234 85 0
233 87 0
233 88 0
233 89 0
233 91 0
233 92 0
233 94 0
233 95 0
232 96 0
232 98 0
232 99 0
232 100 0
231 102 0
231 103 0
231 104 0
230 106 0
230 107 0
230 108 0
229 109 0
229 110 0
229 112 0
228 113 0
228 114 0
227 115 0
227 116 0
226 117 0
226 118 0
225 119 0
225 120 0
224 121 0
224 122 0
223 123 0
223 124 0
222 125 0
222 126 0
221 127 1
221 128 3
220 129 4
220 130 6
219 131 7
219 132 9
218 133 10
217 133 12
217 134 13
216 135 14
216 136 16
215 137 17
214 137 19
214 138 20
213 139 21
213 140 23
212 140 24
211 141 25
211 142 26
210 142 28
209 143 29
209 144 30
208 144 32
208 145 33
207 146 34
206 146 35
206 147 36
205 147 37
204 148 39
204 149 40
203 149 41
202 150 42
202 150 43
201 151 44
201 151 45
200 152 46
199 152 47
199 153 49
198 153 50
197 154 51
128 0 0
129 0 0
130 0 0
131 0 0
132 0 0
133 0 0
134 0 0
135 0 0
136 0 0
137 0 0
138 0 0
139 0 0
140 0 0
141 0 0
143 0 0
144 0 0
145 0 0
146 0 0
147 0 0
148 0 0
149 0 0
150 0 0
151 0 0
152 0 0
154 0 0
155 0 0
156 0 0
157 0 0
158 0 0
159 0 0
160 0 0
162 0 0
163 0 0
164 0 0
165 0 0
166 0 0
167 0 0
169 0 0
170 0 0
171 0 0
172 0 0
173 0 0
174 0 0
176 0 0
177 0 0
178 0 0
179 0 0
180 0 0
181 0 0
183 0 0
184 0 0
185 0 0
186 0 0
187 0 0
188 0 0
190 0 0
191 0 0
192 0 0
193 0 0
194 0 0
195 0 0
196 0 0
197 0 0
199 0 0
200 0 0
201 0 0
202 0 0
203 0 0
204 0 0
205 0 0
206 0 0
207 0 0
208 0 0
209 0 0
210 0 0
211 0 0
212 1 0
213 3 0
214 4 0
215 6 0
216 8 0
216 10 0
217 11 0
218 13 0
219 15 0
220 16 0
221 18 0
221 20 0
222 22 0
223 23 0
224 25 0
224 27 0
225 29 0
226 30 0
226 32 0
227 34 0
227 36 0
228 37 0
228 39 0
229 41 0
230 43 0
230 44 0
230 46 0
231 48 0
231 50 0
232 51 0
232 53 0
232 55 0
233 56 0
233 58 0
233 60 0
233 61 0
234 63 0
234 65 0
234 66 0
234 68 0
234 69 0
234 71 0
234 73 0
235 74 0
235 76 0
235 77 0
235 79 0
235 80 0
235 82 0
234 83 0
234 85 0
234 86 0
234 88 0
234 89 0
234 91 0
234 92 0
234 93 0
233 95 0
233 96 0
233 97 0
233 99 0
232 100 0
232 101 0
232 103 0
231 104 0
231 105 0
231 106 0
230 108 0
230 109 0
229 110 0
229 111 0
229 112 0
228 113 0
228 114 0
227 116 0
227 117 0
226 118 0
226 119 0
225 120 0
225 121 0
224 122 0
224 123 0
223 124 0
223 125 1
222 126 2
222 127 4
221 128 5
221 128 7
220 129 8
219 130 10
219 131 11
218 132 13
218 133 14
217 133 15
216 134 17
216 135 18
215 136 20
215 137 21
214 137 22
213 138 24
213 139 25
212 140 26
212 140 28
211 141 29
210 142 30
210 142 31
209 143 33
208 144 34
208 144 35
207 145 36
206 145 37
206 146 38
205 147 40
205 147 41
204 148 42
203 148 43
203 149 44
202 149 45
201 150 46
201 150 47
200 151 48
199 151 49
199 152 50
198 152 51
129 0 0
130 0 0
131 0 0
132 0 0
133 0 0
134 0 0
135 0 0
136 0 0
137 0 0
138 0 0
139 0 0
140 0 0
141 0 0
142 0 0
143 0 0
144 0 0
146 0 0
147 0 0
148 0 0
149 0 0
150 0 0
151 0 0
152 0 0
153 0 0
154 0 0
156 0 0
157 0 0
158 0 0
159 0 0
160 0 0
161 0 0
162 0 0
164 0 0
165 0 0
166 0 0
167 0 0
168 0 0
169 0 0
171 0 0
172 0 0
173 0 0
174 0 0
175 0 0
177 0 0
178 0 0
179 0 0
180 0 0
181 0 0
182 0 0
184 0 0
185 0 0
186 0 0
187 0 0
188 0 0
189 0 0
191 0 0
192 0 0
193 0 0
194 0 0
195 0 0
196 0 0
197 0 0
198 0 0
200 0 0
201 0 0
202 0 0
203 0 0
204 0 0
205 0 0
206 0 0
207 0 0
208 0 0
209 0 0
210 0 0
211 0 0
212 0 0
213 0 0
214 1 0
215 3 0
216 4 0
217 6 0
217 8 0
218 10 0
219 11 0
220 13 0
221 15 0
222 16 0
222 18 0
223 20 0
224 22 0
225 23 0
225 25 0
226 27 0
227 29 0
227 30 0
228 32 0
228 34 0
229 36 0
229 37 0
230 39 0
230 41 0
231 43 0
231 44 0
232 46 0
232 48 0
233 49 0
233 51 0
233 53 0
234 54 0
234 56 0
234 58 0
234 59 0
235 61 0
235 63 0
235 64 0
235 66 0
235 68 0
235 69 0
235 71 0
236 72 0
236 74 0
236 75 0
236 77 0
236 79 0
236 80 0
235 82 0
235 83 0
235 84 0
235 86 0
235 87 0
235 89 0
235 90 0
234 92 0
234 93 0
234 94 0
234 96 0
233 97 0
233 98 0
233 100 0
233 101 0
232 102 0
232 103 0
232 105 0
231 106 0
231 107 0
230 108 0
230 109 0
230 111 0
229 112 0
229 113 0
228 114 0
228 115 0
227 116 0
227 117 0
226 118 0
226 119 0
225 120 0
225 121 0
224 122 0
224 123 2
223 124 4
223 125 5
222 126 6
221 127 8
221 128 9
220 129 11
220 129 12
219 130 14
219 131 15
218 132 17
217 133 18
217 134 19
216 134 21
215 135 22
215 136 23
214 137 25
214 137 26
213 138 27
212 139 29
212 139 30
211 140 31
210 141 32
210 141 34
209 142 35
209 143 36
208 143 37
207 144 38
207 145 39
206 145 41
205 146 42
205 146 43
204 147 44
203 147 45
203 148 46
202 148 47
201 149 48
201 150 49
200 150 50
200 151 51
199 151 52
130 0 0
131 0 0
132 0 0
133 0 0
134 0 0
135 0 0
136 0 0
137 0 0
138 0 0
139 0 0
140 0 0
141 0 0
142 0 0
143 0 0
144 0 0
145 0 0
146 0 0
148 0 0
149 0 0
150 0 0
151 0 0
152 0 0
153 0 0
154 0 0
155 0 0
156 0 0
158 0 0
159 0 0
160 0 0
161 0 0
162 0 0
163 0 0
165 0 0
166 0 0
167 0 0
168 0 0
169 0 0
170 0 0
172 0 0
173 0 0
174 0 0
175 0 0
176 0 0
177 0 0
179 0 0
180 0 0
181 0 0
182 0 0
183 0 0
185 0 0
186 0 0
187 0 0
188 0 0
189 0 0
190 0 0
191 0 0
193 0 0
194 0 0
195 0 0
196 0 0
197 0 0
198 0 0
199 0 0
201 0 0
202 0 0
203 0 0
204 0 0
205 0 0
206 0 0
207 0 0
208 0 0
209 0 0
210 0 0
211 0 0
212 0 0
213 0 0
214 0 0
215 0 0
216 1 0
217 3 0
218 4 0
218 6 0
219 8 0
220 10 0
221 11 0
222 13 0
223 15 0
223 16 0
224 18 0
225 20 0
226 22 0
226 23 0
227 25 0
228 27 0
228 29 0
229 30 0
229 32 0
230 34 0
230 36 0
231 37 0
231 39 0
232 41 0
232 43 0
233 44 0
233 46 0
234 48 0
234 49 0
234 51 0
235 53 0
235 54 0
235 56 0
235 58 0
236 59 0
236 61 0
236 63 0
236 64 0
236 66 0
236 67 0
236 69 0
236 71 0
237 72 0
237 74 0
237 75 0
236 77 0
236 78 0
236 80 0
236 81 0
236 83 0
236 84 0
236 86 0
236 87 0
236 88 0
235 90 0
235 91 0
235 93 0
235 94 0
234 95 0
234 97 0
234 98 0
233 99 0
233 100 0
233 102 0
232 103 0
232 104 0
232 105 0
231 106 0
231 108 0
230 109 0
230 110 0
230 111 0
229 112 0
229 113 0
228 114 0
228 115 0
227 116 0
227 118 0
226 119 0
226 120 0
225 121 2
225 121 3
224 122 5
223 123 6
223 124 8
222 125 9
222 126 11
221 127 12
221 128 13
220 129 15
219 130 16
219 130 18
218 131 19
218 132 20
217 133 22
216 134 23
216 134 24
215 135 26
214 136 27
214 137 28
213 137 30
213 138 31
212 139 32
211 139 33
211 140 34
210 141 36
209 141 37
209 142 38
208 143 39
207 143 40
207 144 42
206 144 43
205 145 44
205 145 45
204 146 46
204 147 47
203 147 48
202 148 49
202 148 50
201 149 51
200 149 52
200 150 53
131 0 0
132 0 0
133 0 0
134 0 0
135 0 0
136 0 0
137 0 0
138 0 0
139 0 0
140 0 0
141 0 0
142 0 0
143 0 0
144 0 0
145 0 0
146 0 0
147 0 0
148 0 0
149 0 0
151 0 0
152 0 0
153 0 0
154 0 0
155 0 0
156 0 0
157 0 0
159 0 0
160 0 0
161 0 0
162 0 0
163 0 0
164 0 0
165 0 0
167 0 0
168 0 0
169 0 0
170 0 0
171 0 0
172 0 0
174 0 0
175 0 0
176 0 0
177 0 0
178 0 0
180 0 0
181 0 0
182 0 0
183 0 0
184 0 0
185 0 0
187 0 0
188 0 0
189 0 0
190 0 0
191 0 0
192 0 0
194 0 0
195 0 0
196 0 0
197 0 0
198 0 0
199 0 0
200 0 0
201 0 0
203 0 0
204 0 0
205 0 0
206 0 0
207 0 0
208 0 0
209 0 0
210 0 0
211 0 0
212 0 0
213 0 0
214 0 0
215 0 0
216 0 0
217 0 0
218 1 0
219 3 0
219 4 0
220 6 0
221 8 0
222 10 0
223 11 0
224 13 0
224 15 0
225 16 0
226 18 0
226 20 0
227 22 0
228 23 0
228 25 0
229 27 0
230 29 0
230 30 0
231 32 0
231 34 0
232 36 0
232 37 0
233 39 0
233 41 0
234 42 0
234 44 0
234 46 0
235 48 0
235 49 0
235 51 0
236 53 0
236 54 0
236 56 0
236 58 0
237 59 0
237 61 0
237 62 0
237 64 0
237 66 0
237 67 0
237 69 0
237 70 0
237 72 0
237 73 0
237 75 0
237 76 0
237 78 0
237 79 0
237 81 0
237 82 0
237 84 0
237 85 0
236 87 0
236 88 0
236 89 0
236 91 0
236 92 0
235 93 0
235 95 0
235 96 0
234 97 0
234 99 0
234 100 0
233 101 0
233 102 0
233 104 0
232 105 0
232 106 0
231 107 0
231 108 0
230 109 0
230 111 0
230 112 0
229 113 0
229 114 0
228 115 0
228 116 0
227 117 0
226 118 1
226 119 3
225 120 4
225 121 6
224 122 7
224 123 9
223 124 10
223 125 12
222 125 13
221 126 15
221 127 16
220 128 17
220 129 19
219 130 20
218 130 21
218 131 23
217 132 24
217 133 25
216 134 27
215 134 28
215 135 29
214 136 31
213 136 32
213 137 33
212 138 34
211 139 35
211 139 37
210 140 38
210 140 39
209 141 40
208 142 41
208 142 42
207 143 44
206 143 45
206 144 46
205 145 47
204 145 48
204 146 49
203 146 50
202 147 51
202 147 52
201 148 53
200 148 54
131 0 0
132 0 0
133 0 0
134 0 0
135 0 0
136 0 0
137 0 0
138 0 0
140 0 0
141 0 0
142 0 0
143 0 0
144 0 0
145 0 0
146 0 0
147 0 0
148 0 0
149 0 0
150 0 0
151 0 0
153 0 0
154 0 0
155 0 0
156 0 0
157 0 0
158 0 0
159 0 0
161 0 0
162 0 0
163 0 0
164 0 0
165 0 0
166 0 0
167 0 0
169 0 0
170 0 0
171 0 0
172 0 0
173 0 0
175 0 0
176 0 0
177 0 0
178 0 0
179 0 0
180 0 0
182 0 0
183 0 0
184 0 0
185 0 0
186 0 0
188 0 0
189 0 0
190 0 0
191 0 0
192 0 0
193 0 0
194 0 0
196 0 0
197 0 0
198 0 0
199 0 0
200 0 0
201 0 0
202 0 0
203 0 0
205 0 0
206 0 0
207 0 0
208 0 0
209 0 0
210 0 0
211 0 0
212 0 0
213 0 0
214 0 0
215 0 0
216 0 0
217 0 0
218 0 0
219 0 0
219 1 0
220 3 0
221 4 0
222 6 0
223 8 0
224 10 0
224 11 0
225 13 0
226 15 0
227 16 0
227 18 0
228 20 0
229 22 0
229 23 0
230 25 0
231 27 0
231 29 0
232 30 0
232 32 0
233 34 0
233 35 0
234 37 0
234 39 0
235 41 0
235 42 0
235 44 0
236 46 0
236 47 0
236 49 0
237 51 0
237 52 0
237 54 0
237 56 0
238 57 0
238 59 0
238 61 0
238 62 0
238 64 0
238 65 0
238 67 0
238 69 0
238 70 0
238 72 0
238 73 0
238 75 0
238 76 0
238 78 0
238 79 0
238 81 0
238 82 0
238 83 0
237 85 0
237 86 0
237 88 0
237 89 0
236 90 0
236 92 0
236 93 0
236 94 0
235 96 0
235 97 0
235 98 0
234 99 0
234 101 0
233 102 0
233 103 0
233 104 0
232 105 0
232 107 0
231 108 0
231 109 0
230 110 0
230 111 0
229 112 0
229 113 0
228 114 0
228 115 1
227 116 2
227 117 4
226 118 5
226 119 7
225 120 8
225 121 10
224 122 11
223 123 13
223 124 14
222 125 16
222 126 17
221 126 18
220 127 20
220 128 21
219 129 22
219 130 24
218 130 25
217 131 26
217 132 28
216 133 29
215 134 30
215 134 32
214 135 33
214 136 34
213 136 35
212 137 36
212 138 38
211 138 39
210 139 40
210 140 41
209 140 42
208 141 43
208 141 45
207 142 46
206 143 47
206 143 48
205 144 49
204 144 50
204 145 51
203 145 52
203 146 53
202 146 54
201 147 55
132 0 0
133 0 0
134 0 0
135 0 0
136 0 0
137 0 0
138 0 0
139 0 0
140 0 0
141 0 0
142 0 0
144 0 0
145 0 0
146 0 0
147 0 0
148 0 0
149 0 0
150 0 0
151 0 0
152 0 0
153 0 0
155 0 0
156 0 0
157 0 0
158 0 0
159 0 0
160 0 0
161 0 0
163 0 0
164 0 0
165 0 0
166 0 0
167 0 0
168 0 0
170 0 0
171 0 0
172 0 0
173 0 0
174 0 0
175 0 0
177 0 0
178 0 0
179 0 0
180 0 0
181 0 0
183 0 0
184 0 0
185 0 0
186 0 0
187 0 0
188 0 0
190 0 0
191 0 0
192 0 0
193 0 0
194 0 0
195 0 0
197 0 0
198 0 0
199 0 0
200 0 0
201 0 0
202 0 0
203 0 0
204 0 0
205 0 0
207 0 0
208 0 0
209 0 0
210 0 0
211 0 0
212 0 0
213 0 0
214 0 0
215 0 0
216 0 0
217 0 0
218 0 0
219 0 0
219 0 0
220 0 0
221 1 0
222 3 0
223 4 0
224 6 0
225 8 0
225 10 0
226 11 0
227 13 0
228 15 0
228 16 0
229 18 0
230 20 0
230 22 0
231 23 0
231 25 0
232 27 0
233 29 0
233 30 0
234 32 0
234 34 0
235 35 0
235 37 0
235 39 0
236 41 0
236 42 0
237 44 0
237 46 0
237 47 0
238 49 0
238 51 0
238 52 0
238 54 0
238 56 0
239 57 0
239 59 0
239 60 0
239 62 0
239 64 0
239 65 0
239 67 0
239 68 0
239 70 0
239 71 0
239 73 0
239 74 0
239 76 0
239 77 0
239 79 0
239 80 0
238 82 0
238 83 0
238 84 0
238 86 0
238 87 0
237 89 0
237 90 0
237 91 0
236 93 0
236 94 0
236 95 0
235 96 0
235 98 0
235 99 0
234 100 0
234 101 0
233 103 0
233 104 0
233 105 0
232 106 0
232 107 0
231 108 0
231 109 0
230 110 0
230 111 0
229 113 0
229 114 2
228 115 3
228 116 5
227 117 6
226 118 8
226 119 9
225 119 11
225 120 12
224 121 14
224 122 15
223 123 17
222 124 18
222 125 19
221 126 21
221 127 22
220 127 24
219 128 25
219 129 26
218 130 27
217 130 29
217 131 30
216 132 31
216 133 33
215 133 34
214 134 35
214 135 36
213 136 37
212 136 39
212 137 40
211 138 41
210 138 42
210 139 43
209 139 44
208 140 45
208 141 47
207 141 48
207 142 49
206 142 50
205 143 51
205 144 52
204 144 53
203 145 54
203 145 55
202 146 56
133 0 0
134 0 0
135 0 0
136 0 0
137 0 0
138 0 0
139 0 0
140 0 0
141 0 0
142 0 0
143 0 0
144 0 0
145 0 0
147 0 0
148 0 0
149 0 0
150 0 0
151 0 0
152 0 0
153 0 0
154 0 0
155 0 0
157 0 0
158 0 0
159 0 0
160 0 0
161 0 0
162 0 0
163 0 0
165 0 0
166 0 0
167 0 0
168 0 0
169 0 0
170 0 0
172 0 0
173 0 0
174 0 0
175 0 0
176 0 0
177 0 0
179 0 0
180 0 0
181 0 0
182 0 0
183 0 0
185 0 0
186 0 0
187 0 0
188 0 0
189 0 0
190 0 0
192 0 0
193 0 0
194 0 0
195 0 0
196 0 0
197 0 0
199 0 0
200 0 0
201 0 0
202 0 0
203 0 0
204 0 0
205 0 0
206 0 0
207 0 0
208 0 0
210 0 0
211 0 0
212 0 0
213 0 0
214 0 0
215 0 0
216 0 0
217 0 0
218 0 0
218 0 0
219 0 0
220 0 0
221 0 0
222 0 0
223 1 0
224 3 0
225 4 0
225 6 0
226 8 0
227 10 0
228 11 0
228 13 0
229 15 0
230 16 0
230 18 0
231 20 0
232 22 0
232 23 0
233 25 0
233 27 0
234 28 0
235 30 0
235 32 0
235 34 0
236 35 0
236 37 0
237 39 0
237 40 0
237 42 0
238 44 0
238 45 0
238 47 0
239 49 0
239 50 0
239 52 0
239 54 0
239 55 0
240 57 0
240 59 0
240 60 0
240 62 0
240 63 0
240 65 0
240 66 0
240 68 0
240 70 0
240 71 0
240 73 0
240 74 0
240 76 0
240 77 0
239 78 0
239 80 0
239 81 0
239 83 0
239 84 0
238 85 0
238 87 0
238 88 0
238 90 0
237 91 0
237 92 0
237 93 0
236 95 0
236 96 0
235 97 0
235 98 0
235 100 0
234 101 0
234 102 0
233 103 0
233 104 0
232 105 0
232 107 0
232 108 0
231 109 0
231 110 0
230 111 2
229 112 3
229 113 5
228 114 6
228 115 8
227 116 9
227 117 11
226 118 12
226 119 13
225 120 15
224 121 16
224 122 18
223 122 19
223 123 21
222 124 22
221 125 23
221 126 25
220 127 26
220 127 27
219 128 29
218 129 30
218 130 31
217 130 32
216 131 34
216 132 35
215 133 36
214 133 37
214 134 38
213 135 40
212 135 41
212 136 42
211 137 43
211 137 44
210 138 45
209 139 46
209 139 48
208 140 49
207 140 50
207 141 51
206 142 52
205 142 53
205 143 54
204 143 55
203 144 56
203 144 57
134 0 0
135 0 0
136 0 0
137 0 0
138 0 0
139 0 0
140 0 0
141 0 0
142 0 0
143 0 0
144 0 0
145 0 0
146 0 0
147 0 0
148 0 0
150 0 0
151 0 0
152 0 0
153 0 0
154 0 0
155 0 0
156 0 0
157 0 0
158 0 0
160 0 0
161 0 0
162 0 0
163 0 0
164 0 0
165 0 0
167 0 0
168 0 0
169 0 0
170 0 0
171 0 0
172 0 0
174 0 0
175 0 0
176 0 0
177 0 0
178 0 0
180 0 0
181 0 0
182 0 0
183 0 0
184 0 0
185 0 0
187 0 0
188 0 0
189 0 0
190 0 0
191 0 0
193 0 0
194 0 0
195 0 0
196 0 0
197 0 0
198 0 0
199 0 0
201 0 0
202 0 0
203 0 0
204 0 0
205 0 0
206 0 0
207 0 0
208 0 0
209 0 0
210 0 0
211 0 0
212 0 0
213 0 0
214 0 0
215 0 0
216 0 0
217 0 0
218 0 0
219 0 0
220 0 0
221 0 0
222 0 0
223 0 0
224 0 0
225 1 0
225 3 0
226 4 0
227 6 0
228 8 0
229 10 0
229 11 0
230 13 0
231 15 0
231 16 0
232 18 0
233 20 0
233 22 0
234 23 0
234 25 0
235 27 0
235 28 0
236 30 0
236 32 0
237 34 0
237 35 0
238 37 0
238 39 0
238 40 0
239 42 0
239 44 0
239 45 0
239 47 0
240 49 0
240 50 0
240 52 0
240 54 0
240 55 0
241 57 0
241 58 0
241 60 0
241 62 0
241 63 0
241 65 0
241 66 0
241 68 0
241 69 0
241 71 0
241 72 0
240 74 0
240 75 0
240 77 0
240 78 0
240 80 0
240 81 0
239 82 0
239 84 0
239 85 0
239 86 0
238 88 0
238 89 0
238 90 0
237 92 0
237 93 0
237 94 0
236 95 0
236 97 0
235 98 0
235 99 0
235 100 0
234 101 0
234 103 0
233 104 0
233 105 0
232 106 0
232 107 0
231 108 1
231 109 3
230 110 4
230 111 6
229 112 7
229 113 9
228 114 10
228 115 12
227 116 13
226 117 15
226 118 16
225 119 17
225 120 19
224 121 20
223 122 22
223 123 23
222 123 24
222 124 26
221 125 27
220 126 28
220 127 30
219 127 31
218 128 32
218 129 33
217 130 35
216 130 36
216 131 37
215 132 38
215 133 39
214 133 41
213 134 42
213 135 43
212 135 44
211 136 45
211 137 46
210 137 47
209 138 48
209 138 50
208 139 51
207 140 52
207 140 53
206 141 54
205 141 55
205 142 56
204 142 57
203 143 58
135 0 0
136 0 0
137 0 0
138 0 0
139 0 0
140 0 0
141 0 0
142 0 0
143 0 0
144 0 0
145 0 0
146 0 0
147 0 0
148 0 0
149 0 0
150 0 0
151 0 0
153 0 0
154 0 0
155 0 0
156 0 0
157 0 0
158 0 0
159 0 0
160 0 0
162 0 0
163 0 0
164 0 0
165 0 0
166 0 0
167 0 0
169 0 0
170 0 0
171 0 0
172 0 0
173 0 0
174 0 0
176 0 0
177 0 0
178 0 0
179 0 0
180 0 0
182 0 0
183 0 0
184 0 0
185 0 0
186 0 0
187 0 0
189 0 0
190 0 0
191 0 0
192 0 0
193 0 0
195 0 0
196 0 0
197 0 0
198 0 0
199 0 0
200 0 0
201 0 0
203 0 0
204 0 0
205 0 0
206 0 0
207 0 0
208 0 0
209 0 0
210 0 0
211 0 0
212 0 0
213 0 0
214 0 0
215 0 0
216 0 0
217 0 0
218 0 0
219 0 0
220 0 0
221 0 0
222 0 0
223 0 0
224 0 0
225 0 0
225 0 0
226 1 0
227 3 0
228 4 0
229 6 0
229 8 0
230 10 0
231 11 0
231 13 0
232 15 0
233 16 0
233 18 0
234 20 0
235 22 0
235 23 0
236 25 0
236 27 0
237 28 0
237 30 0
238 32 0
238 33 0
238 35 0
239 37 0
239 39 0
239 40 0
240 42 0
240 44 0
240 45 0
241 47 0
241 49 0
241 50 0
241 52 0
241 53 0
241 55 0
241 57 0
242 58 0
242 60 0
242 61 0
242 63 0
242 64 0
242 66 0
242 67 0
241 69 0
241 70 0
241 72 0
241 73 0
241 75 0
241 76 0
241 78 0
240 79 0
240 81 0
240 82 0
240 83 0
239 85 0
239 86 0
239 87 0
238 89 0
238 90 0
238 91 0
237 92 0
237 94 0
237 95 0
236 96 0
236 97 0
235 99 0
235 100 0
235 101 0
234 102 0
234 103 0
233 104 0
233 105 1
232 106 2
232 108 4
231 109 5
230 110 7
230 111 8
229 112 10
229 113 11
228 114 13
228 115 14
227 116 16
227 116 17
226 117 18
225 118 20
225 119 21
224 120 23
224 121 24
223 122 25
222 123 27
222 123 28
221 124 29
220 125 31
220 126 32
219 127 33
218 127 34
218 128 36
217 129 37
217 130 38
216 130 39
215 131 40
215 132 42
214 132 43
213 133 44
213 134 45
212 134 46
211 135 47
211 136 48
210 136 49
209 137 50
209 138 51
208 138 53
207 139 54
207 139 55
206 140 56
205 140 57
205 141 58
204 142 59
135 0 0
136 0 0
137 0 0
138 0 0
139 0 0
140 0 0
141 0 0
143 0 0
144 0 0
145 0 0
146 0 0
147 0 0
148 0 0
149 0 0
150 0 0
151 0 0
152 0 0
153 0 0
154 0 0
156 0 0
157 0 0
158 0 0
159 0 0
160 0 0
161 0 0
162 0 0
164 0 0
165 0 0
166 0 0
167 0 0
168 0 0
169 0 0
171 0 0
172 0 0
173 0 0
174 0 0
175 0 0
176 0 0
178 0 0
179 0 0
180 0 0
181 0 0
182 0 0
184 0 0
185 0 0
186 0 0
187 0 0
188 0 0
189 0 0
191 0 0
192 0 0
193 0 0
194 0 0
195 0 0
196 0 0
198 0 0
199 0 0
200 0 0
201 0 0
202 0 0
203 0 0
204 0 0
206 0 0
207 0 0
208 0 0
209 0 0
210 0 0
211 0 0
212 0 0
213 0 0
214 0 0
215 0 0
216 0 0
217 0 0
218 0 0
219 0 0
220 0 0
221 0 0
222 0 0
223 0 0
224 0 0
225 0 0
225 0 0
226 0 0
227 0 0
228 1 0
229 3 0
229 4 0
230 6 0
231 8 0
232 10 0
232 11 0
233 13 0
234 15 0
234 16 0
235 18 0
235 20 0
236 21 0
236 23 0
237 25 0
237 27 0
238 28 0
238 30 0
239 32 0
239 33 0
240 35 0
240 37 0
240 38 0
241 40 0
241 42 0
241 43 0
241 45 0
241 47 0
242 48 0
242 50 0
242 52 0
242 53 0
242 55 0
242 56 0
242 58 0
242 60 0
242 61 0
242 63 0
242 64 0
242 66 0
242 67 0
242 69 0
242 70 0
242 72 0
242 73 0
242 75 0
241 76 0
241 77 0
241 79 0
241 80 0
240 82 0
240 83 0
240 84 0
240 86 0
239 87 0
239 88 0
239 89 0
238 91 0
238 92 0
237 93 0
237 94 0
237 96 0
236 97 0
236 98 0
235 99 0
235 100 0
234 101 0
234 103 0
233 104 2
233 105 3
232 106 5
232 107 6
231 108 8
231 109 9
230 110 11
230 111 12
229 112 14
228 113 15
228 114 17
227 115 18
227 116 20
226 117 21
225 118 22
225 118 24
224 119 25
224 120 26
223 121 28
222 122 29
222 123 30
221 124 32
220 124 33
220 125 34
219 126 35
219 127 37
218 127 38
217 128 39
217 129 40
216 130 41
215 130 42
215 131 44
214 132 45
213 132 46
213 133 47
212 134 48
211 134 49
211 135 50
210 136 51
209 136 52
209 137 53
208 137 54
207 138 55
207 138 57
206 139 58
205 140 58
205 140 59
136 0 0
137 0 0
138 0 0
139 0 0
140 0 0
141 0 0
142 0 0
143 0 0
144 0 0
145 0 0
146 0 0
148 0 0
149 0 0
150 0 0
151 0 0
152 0 0
153 0 0
154 0 0
155 0 0
156 0 0
158 0 0
159 0 0
160 0 0
161 0 0
162 0 0
163 0 0
164 0 0
166 0 0
167 0 0
168 0 0
169 0 0
170 0 0
171 0 0
173 0 0
174 0 0
175 0 0
176 0 0
177 0 0
178 0 0
180 0 0
181 0 0
182 0 0
183 0 0
184 0 0
186 0 0
187 0 0
188 0 0
189 0 0
190 0 0
191 0 0
193 0 0
194 0 0
195 0 0
196 0 0
197 0 0
198 0 0
200 0 0
201 0 0
202 0 0
203 0 0
204 0 0
205 0 0
206 0 0
207 0 0
209 0 0
210 0 0
211 0 0
212 0 0
213 0 0
214 0 0
215 0 0
216 0 0
217 0 0
218 0 0
219 0 0
220 0 0
221 0 0
222 0 0
223 0 0
224 0 0
224 0 0
225 0 0
226 0 0
227 0 0
228 0 0
229 0 0
229 1 0
230 3 0
231 4 0
232 6 0
232 8 0
233 9 0
234 11 0
234 13 0
235 15 0
236 16 0
236 18 0
237 20 0
237 21 0
238 23 0
238 25 0
239 27 0
239 28 0
240 30 0
240 32 0
240 33 0
241 35 0
241 37 0
241 38 0
242 40 0
242 42 0
242 43 0
242 45 0
242 47 0
243 48 0
243 50 0
243 51 0
243 53 0
243 55 0
243 56 0
243 58 0
243 59 0
243 61 0
243 62 0
243 64 0
243 65 0
243 67 0
243 68 0
243 70 0
242 71 0
242 73 0
242 74 0
242 76 0
242 77 0
241 78 0
241 80 0
241 81 0
241 82 0
240 84 0
240 85 0
240 86 0
239 88 0
239 89 0
239 90 0
238 91 0
238 93 0
237 94 0
237 95 0
236 96 0
236 97 0
236 99 0
235 100 0
235 101 1
234 102 3
234 103 5
233 104 6
233 105 8
232 106 9
231 107 11
231 108 12
230 109 14
230 110 15
229 111 16
229 112 18
228 113 19
227 114 21
227 115 22
226 116 23
226 117 25
225 118 26
224 119 27
224 119 29
223 120 30
222 121 31
222 122 33
221 123 34
221 124 35
220 124 36
219 125 38
219 126 39
218 127 40
217 127 41
217 128 42
216 129 43
215 129 45
215 130 46
214 131 47
213 132 48
213 132 49
212 133 50
211 133 51
211 134 52
210 135 53
209 135 54
209 136 55
208 136 56
207 137 57
207 138 58
206 138 59
206 139 60
137 0 0
138 0 0
139 0 0
140 0 0
141 0 0
142 0 0
143 0 0
144 0 0
145 0 0
146 0 0
147 0 0
148 0 0
149 0 0
151 0 0
152 0 0
153 0 0
154 0 0
155 0 0
156 0 0
157 0 0
158 0 0
159 0 0
161 0 0
162 0 0
163 0 0
164 0 0
165 0 0
166 0 0
167 0 0
169 0 0
170 0 0
171 0 0
172 0 0
173 0 0
175 0 0
176 0 0
177 0 0
178 0 0
179 0 0
180 0 0
182 0 0
183 0 0
184 0 0
185 0 0
186 0 0
188 0 0
189 0 0
190 0 0
191 0 0
192 0 0
193 0 0
195 0 0
196 0 0
197 0 0
198 0 0
199 0 0
200 0 0
202 0 0
203 0 0
204 0 0
205 0 0
206 0 0
207 0 0
208 0 0
209 0 0
210 0 0
212 0 0
213 0 0
214 0 0
215 0 0
216 0 0
217 0 0
218 0 0
219 0 0
220 0 0
221 0 0
222 0 0
223 0 0
223 0 0
224 0 0
225 0 0
226 0 0
227 0 0
228 0 0
229 0 0
229 0 0
230 0 0
231 1 0
232 3 0
232 4 0
233 6 0
234 8 0
234 9 0
235 11 0
236 13 0
236 15 0
237 16 0
237 18 0
238 20 0
238 21 0
239 23 0
239 25 0
240 26 0
240 28 0
241 30 0
241 32 0
241 33 0
242 35 0
242 37 0
242 38 0
243 40 0
243 42 0
243 43 0
243 45 0
243 46 0
243 48 0
244 50 0
244 51 0
244 53 0
244 54 0
244 56 0
244 58 0
244 59 0
244 61 0
244 62 0
244 64 0
244 65 0
243 67 0
243 68 0
243 70 0
243 71 0
243 72 0
243 74 0
242 75 0
242 77 0
242 78 0
242 79 0
241 81 0
241 82 0
241 83 0
240 85 0
240 86 0
240 87 0
239 89 0
239 90 0
238 91 0
238 92 0
238 93 0
237 95 0
237 96 0
236 97 0
236 98 1
235 99 3
235 100 4
234 101 6
234 102 7
233 104 9
233 105 10
232 106 12
232 107 13
231 108 15
230 109 16
230 110 17
229 111 19
229 112 20
228 113 22
228 113 23
227 114 24
226 115 26
226 116 27
225 117 28
224 118 30
224 119 31
223 120 32
223 120 34
222 121 35
221 122 36
221 123 37
220 124 38
219 124 40
219 125 41
218 126 42
217 127 43
217 127 44
216 128 46
215 129 47
215 129 48
214 130 49
213 131 50
213 131 51
212 132 52
211 133 53
211 133 54
210 134 55
209 134 56
209 135 57
208 136 58
208 136 59
207 137 60
206 137 61
138 0 0
139 0 0
140 0 0
141 0 0
142 0 0
143 0 0
144 0 0
145 0 0
146 0 0
147 0 0
148 0 0
149 0 0
150 0 0
151 0 0
152 0 0
153 0 0
155 0 0
156 0 0
157 0 0
158 0 0
159 0 0
160 0 0
161 0 0
162 0 0
164 0 0
165 0 0
166 0 0
167 0 0
168 0 0
169 0 0
171 0 0
172 0 0
173 0 0
174 0 0
175 0 0
176 0 0
178 0 0
179 0 0
180 0 0
181 0 0
182 0 0
184 0 0
185 0 0
186 0 0
187 0 0
188 0 0
189 0 0
191 0 0
192 0 0
193 0 0
194 0 0
195 0 0
197 0 0
198 0 0
199 0 0
200 0 0
201 0 0
202 0 0
203 0 0
205 0 0
206 0 0
207 0 0
208 0 0
209 0 0
210 0 0
211 0 0
212 0 0
213 0 0
214 0 0
215 0 0
216 0 0
217 0 0
218 0 0
219 0 0
220 0 0
221 0 0
222 0 0
223 0 0
224 0 0
225 0 0
226 0 0
227 0 0
228 0 0
229 0 0
229 0 0
230 0 0
231 0 0
232 0 0
232 1 0
233 3 0
234 4 0
234 6 0
235 8 0
236 9 0
236 11 0
237 13 0
238 15 0
238 16 0
239 18 0
239 20 0
240 21 0
240 23 0
241 25 0
241 26 0
241 28 0
242 30 0
242 31 0
242 33 0
243 35 0
243 36 0
243 38 0
243 40 0
244 41 0
244 43 0
244 45 0
244 46 0
244 48 0
244 49 0
244 51 0
244 53 0
245 54 0
245 56 0
245 57 0
244 59 0
244 60 0
244 62 0
244 63 0
244 65 0
244 66 0
244 68 0
244 69 0
244 71 0
243 72 0
243 73 0
243 75 0
243 76 0
242 78 0
242 79 0
242 80 0
241 82 0
241 83 0
241 84 0
240 85 0
240 87 0
240 88 0
239 89 0
239 90 0
238 92 0
238 93 0
237 94 0
237 95 1
236 96 2
236 97 4
235 99 5
235 100 7
234 101 8
234 102 10
233 103 11
233 104 13
232 105 14
232 106 16
231 107 17
231 108 19
230 109 20
229 110 21
229 111 23
228 112 24
228 113 25
227 114 27
226 115 28
226 115 29
225 116 31
225 117 32
224 118 33
223 119 35
223 120 36
222 120 37
221 121 38
221 122 39
220 123 41
219 124 42
219 124 43
218 125 44
217 126 45
217 127 46
216 127 48
215 128 49
215 129 50
214 129 51
213 130 52
213 131 53
212 131 54
211 132 55
211 132 56
210 133 57
209 134 58
209 134 59
208 135 60
208 135 61
207 136 62
138 0 0
139 0 0
140 0 0
141 0 0
142 0 0
143 0 0
145 0 0
146 0 0
147 0 0
148 0 0
149 0 0
150 0 0
151 0 0
152 0 0
153 0 0
154 0 0
155 0 0
156 0 0
158 0 0
159 0 0
160 0 0
161 0 0
162 0 0
163 0 0
164 0 0
166 0 0
167 0 0
168 0 0
169 0 0
170 0 0
171 0 0
173 0 0
174 0 0
175 0 0
176 0 0
177 0 0
178 0 0
180 0 0
181 0 0
182 0 0
183 0 0
184 0 0
186 0 0
187 0 0
188 0 0
189 0 0
190 0 0
191 0 0
193 0 0
194 0 0
195 0 0
196 0 0
197 0 0
198 0 0
200 0 0
201 0 0
202 0 0
203 0 0
204 0 0
205 0 0
206 0 0
208 0 0
209 0 0
210 0 0
211 0 0
212 0 0
213 0 0
214 0 0
215 0 0
216 0 0
217 0 0
218 0 0
219 0 0
220 0 0
221 0 0
222 0 0
223 0 0
224 0 0
225 0 0
226 0 0
227 0 0
228 0 0
228 0 0
229 0 0
230 0 0
231 0 0
232 0 0
232 0 0
233 0 0
234 1 0
235 3 0
235 4 0
236 6 0
236 8 0
237 9 0
238 11 0
238 13 0
239 15 0
239 16 0
240 18 0
240 20 0
241 21 0
241 23 0
242 25 0
242 26 0
242 28 0
243 30 0
243 31 0
243 33 0
244 35 0
244 36 0
244 38 0
244 40 0
245 41 0
245 43 0
245 44 0
245 46 0
245 48 0
245 49 0
245 51 0
245 52 0
245 54 0
245 55 0
245 57 0
245 59 0
245 60 0
245 62 0
245 63 0
245 65 0
245 66 0
244 67 0
244 69 0
244 70 0
244 72 0
244 73 0
243 74 0
243 76 0
243 77 0
242 79 0
242 80 0
242 81 0
241 82 0
241 84 0
241 85 0
240 86 0
240 88 0
239 89 0
239 90 0
239 91 0
238 92 0
238 94 2
237 95 3
237 96 5
236 97 6
236 98 8
235 99 9
235 100 11
234 101 12
233 102 14
233 103 15
232 104 17
232 105 18
231 106 20
231 107 21
230 108 22
229 109 24
229 110 25
228 111 26
228 112 28
227 113 29
226 114 30
226 115 32
225 116 33
225 116 34
224 117 36
223 118 37
223 119 38
222 120 39
221 121 40
221 121 42
220 122 43
219 123 44
219 124 45
218 124 46
217 125 47
217 126 48
216 126 50
215 127 51
215 128 52
214 128 53
213 129 54
213 130 55
212 130 56
211 131 57
211 132 58
210 132 59
209 133 60
209 133 61
208 134 62
208 135 63
139 0 0
140 0 0
141 0 0
142 0 0
143 0 0
144 0 0
145 0 0
146 0 0
147 0 0
148 0 0
150 0 0
151 0 0
152 0 0
153 0 0
154 0 0
155 0 0
156 0 0
157 0 0
158 0 0
159 0 0
161 0 0
162 0 0
163 0 0
164 0 0
165 0 0
166 0 0
167 0 0
169 0 0
170 0 0
171 0 0
172 0 0
173 0 0
174 0 0
176 0 0
177 0 0
178 0 0
179 0 0
180 0 0
182 0 0
183 0 0
184 0 0
185 0 0
186 0 0
187 0 0
189 0 0
190 0 0
191 0 0
192 0 0
193 0 0
195 0 0
196 0 0
197 0 0
198 0 0
199 0 0
200 0 0
202 0 0
203 0 0
204 0 0
205 0 0
206 0 0
207 0 0
208 0 0
209 0 0
210 0 0
212 0 0
213 0 0
214 0 0
215 0 0
216 0 0
217 0 0
218 0 0
219 0 0
220 0 0
221 0 0
222 0 0
223 0 0
224 0 0
225 0 0
226 0 0
226 0 0
227 0 0
228 0 0
229 0 0
230 0 0
231 0 0
232 0 0
232 0 0
233 0 0
234 0 0
234 0 0
235 1 0
236 3 0
237 4 0
237 6 0
238 8 0
238 9 0
239 11 0
239 13 0
240 14 0
240 16 0
241 18 0
241 20 0
242 21 0
242 23 0
243 25 0
243 26 0
243 28 0
244 30 0
244 31 0
244 33 0
245 35 0
245 36 0
245 38 0
245 39 0
245 41 0
245 43 0
246 44 0
246 46 0
246 47 0
246 49 0
246 51 0
246 52 0
246 54 0
246 55 0
246 57 0
246 58 0
246 60 0
245 61 0
245 63 0
245 64 0
245 66 0
245 67 0
245 69 0
244 70 0
244 71 0
244 73 0
244 74 0
243 75 0
243 77 0
243 78 0
242 79 0
242 81 0
242 82 0
241 83 0
241 85 0
240 86 0
240 87 0
240 88 0
239 89 0
239 91 1
238 92 3
238 93 5
237 94 6
237 95 8
236 96 9
236 97 11
235 99 12
235 100 14
234 101 15
234 102 16
233 103 18
232 104 19
232 105 21
231 106 22
231 107 23
230 108 25
230 109 26
229 110 28
228 110 29
228 111 30
227 112 31
226 113 33
226 114 34
225 115 35
225 116 37
224 117 38
223 117 39
223 118 40
222 119 41
221 120 43
221 121 44
220 121 45
219 122 46
219 123 47
218 124 48
217 124 49
217 125 51
216 126 52
215 126 53
215 127 54
214 128 55
213 128 56
213 129 57
212 130 58
211 130 59
211 131 60
210 131 61
209 132 62
209 133 63
208 133 64
140 0 0
141 0 0
142 0 0
143 0 0
144 0 0
145 0 0
146 0 0
147 0 0
148 0 0
149 0 0
150 0 0
151 0 0
152 0 0
154 0 0
155 0 0
156 0 0
157 0 0
158 0 0
159 0 0
160 0 0
161 0 0
162 0 0
164 0 0
165 0 0
166 0 0
167 0 0
168 0 0
169 0 0
171 0 0
172 0 0
173 0 0
174 0 0
175 0 0
176 0 0
178 0 0
179 0 0
180 0 0
181 0 0
182 0 0
183 0 0
185 0 0
186 0 0
187 0 0
188 0 0
189 0 0
191 0 0
192 0 0
193 0 0
194 0 0
195 0 0
196 0 0
198 0 0
199 0 0
200 0 0
201 0 0
202 0 0
203 0 0
205 0 0
206 0 0
207 0 0
208 0 0
209 0 0
210 0 0
211 0 0
212 0 0
213 0 0
214 0 0
215 0 0
217 0 0
218 0 0
219 0 0
220 0 0
221 0 0
222 0 0
223 0 0
223 0 0
224 0 0
225 0 0
226 0 0
227 0 0
228 0 0
229 0 0
230 0 0
231 0 0
231 0 0
232 0 0
233 0 0
234 0 0
234 0 0
235 0 0
236 0 0
237 1 0
237 3 0
238 4 0
238 6 0
239 8 0
240 9 0
240 11 0
241 13 0
241 14 0
242 16 0
242 18 0
243 19 0
243 21 0
243 23 0
244 25 0
244 26 0
244 28 0
245 29 0
245 31 0
245 33 0
245 34 0
246 36 0
246 38 0
246 39 0
246 41 0
246 43 0
246 44 0
246 46 0
246 47 0
246 49 0
246 50 0
246 52 0
246 53 0
246 55 0
246 56 0
246 58 0
246 59 0
246 61 0
246 62 0
246 64 0
245 65 0
245 67 0
245 68 0
245 70 0
245 71 0
244 72 0
244 74 0
244 75 0
243 76 0
243 78 0
243 79 0
242 80 0
242 82 0
242 83 0
241 84 0
241 85 0
240 87 0
240 88 1
239 89 3
239 90 4
238 91 6
238 92 7
237 94 9
237 95 10
236 96 12
236 97 13
235 98 15
235 99 16
234 100 18
234 101 19
233 102 20
233 103 22
232 104 23
231 105 24
231 106 26
230 107 27
230 108 29
229 109 30
228 110 31
228 111 32
227 112 34
226 112 35
226 113 36
225 114 37
225 115 39
224 116 40
223 117 41
223 117 42
222 118 44
221 119 45
221 120 46
220 121 47
219 121 48
219 122 49
218 123 50
217 123 51
217 124 53
216 125 54
215 126 55
215 126 56
214 127 57
213 128 58
213 128 59
212 129 60
211 129 61
211 130 62
210 131 63
209 131 64
209 132 65
140 0 0
141 0 0
143 0 0
144 0 0
145 0 0
146 0 0
147 0 0
148 0 0
149 0 0
150 0 0
151 0 0
152 0 0
153 0 0
154 0 0
155 0 0
156 0 0
158 0 0
159 0 0
160 0 0
161 0 0
162 0 0
163 0 0
164 0 0
165 0 0
167 0 0
168 0 0
169 0 0
170 0 0
171 0 0
172 0 0
174 0 0
175 0 0
176 0 0
177 0 0
178 0 0
179 0 0
181 0 0
182 0 0
183 0 0
184 0 0
185 0 0
187 0 0
188 0 0
189 0 0
190 0 0
191 0 0
192 0 0
194 0 0
195 0 0
196 0 0
197 0 0
198 0 0
199 0 0
201 0 0
202 0 0
203 0 0
204 0 0
205 0 0
206 0 0
207 0 0
209 0 0
210 0 0
211 0 0
212 0 0
213 0 0
214 0 0
215 0 0
216 0 0
217 0 0
218 0 0
219 0 0
220 0 0
221 0 0
222 0 0
223 0 0
224 0 0
225 0 0
226 0 0
227 0 0
228 0 0
229 0 0
230 0 0
230 0 0
231 0 0
232 0 0
233 0 0
234 0 0
234 0 0
235 0 0
236 0 0
236 0 0
237 0 0
238 1 0
238 3 0
239 4 0
240 6 0
240 8 0
241 9 0
241 11 0
242 13 0
242 14 0
243 16 0
243 18 0
244 19 0
244 21 0
244 23 0
245 24 0
245 26 0
245 28 0
246 29 0
246 31 0
246 33 0
246 34 0
246 36 0
247 38 0
247 39 0
247 41 0
247 42 0
247 44 0
247 45 0
247 47 0
247 49 0
247 50 0
247 52 0
247 53 0
247 55 0
247 56 0
247 58 0
247 59 0
246 61 0
246 62 0
246 64 0
246 65 0
246 66 0
245 68 0
245 69 0
245 71 0
245 72 0
244 73 0
244 75 0
244 76 0
243 77 0
243 79 0
243 80 0
242 81 0
242 82 0
241 84 0
241 85 1
240 86 2
240 87 4
240 88 5
239 90 7
239 91 8
238 92 10
238 93 11
237 94 13
236 95 14
236 96 16
235 97 17
235 98 19
234 99 20
234 100 21
233 101 23
233 102 24
232 103 26
231 104 27
231 105 28
230 106 30
230 107 31
229 108 32
228 109 33
228 110 35
227 111 36
226 112 37
226 113 38
225 113 40
225 114 41
224 115 42
223 116 43
223 117 44
222 118 46
221 118 47
221 119 48
220 120 49
219 121 50
219 121 51
218 122 52
217 123 53
217 123 54
216 124 56
215 125 57
215 125 58
214 126 59
213 127 60
213 127 61
212 128 62
211 129 63
211 129 64
210 130 64
209 130 65
141 0 0
142 0 0
143 0 0
144 0 0
145 0 0
146 0 0
147 0 0
148 0 0
150 0 0
151 0 0
152 0 0
153 0 0
154 0 0
155 0 0
156 0 0
157 0 0
158 0 0
159 0 0
161 0 0
162 0 0
163 0 0
164 0 0
165 0 0
166 0 0
167 0 0
168 0 0
170 0 0
171 0 0
172 0 0
173 0 0
174 0 0
175 0 0
177 0 0
178 0 0
179 0 0
180 0 0
181 0 0
183 0 0
184 0 0
185 0 0
186 0 0
187 0 0
188 0 0
190 0 0
191 0 0
192 0 0
193 0 0
194 0 0
195 0 0
197 0 0
198 0 0
199 0 0
200 0 0
201 0 0
202 0 0
204 0 0
205 0 0
206 0 0
207 0 0
208 0 0
209 0 0
210 0 0
211 0 0
213 0 0
214 0 0
215 0 0
216 0 0
217 0 0
218 0 0
219 0 0
220 0 0
221 0 0
222 0 0
223 0 0
224 0 0
225 0 0
226 0 0
227 0 0
228 0 0
228 0 0
229 0 0
230 0 0
231 0 0
232 0 0
233 0 0
233 0 0
234 0 0
235 0 0
236 0 0
236 0 0
237 0 0
238 0 0
238 0 0
239 1 0
240 3 0
240 4 0
241 6 0
241 8 0
242 9 0
242 11 0
243 13 0
243 14 0
244 16 0
244 18 0
244 19 0
245 21 0
245 23 0
246 24 0
246 26 0
246 28 0
246 29 0
247 31 0
247 33 0
247 34 0
247 36 0
247 37 0
247 39 0
247 41 0
248 42 0
248 44 0
248 45 0
248 47 0
248 48 0
248 50 0
248 51 0
247 53 0
247 54 0
247 56 0
247 57 0
247 59 0
247 60 0
247 62 0
246 63 0
246 65 0
246 66 0
246 67 0
245 69 0
245 70 0
245 72 0
245 73 0
244 74 0
244 76 0
243 77 0
243 78 0
243 79 0
242 81 0
242 82 0
241 83 2
241 84 3
241 85 5
240 87 6
240 88 8
239 89 9
239 90 11
238 91 12
238 92 14
237 94 15
237 95 17
236 96 18
235 97 20
235 98 21
234 99 22
234 100 24
233 101 25
233 102 27
232 103 28
231 104 29
231 105 31
230 106 32
230 107 33
229 108 34
228 108 36
228 109 37
227 110 38
226 111 39
226 112 41
225 113 42
225 114 43
224 114 44
223 115 45
223 116 47
222 117 48
221 118 49
221 118 50
220 119 51
219 120 52
219 120 53
218 121 54
217 122 55
217 123 56
216 123 57
215 124 58
215 125 59
214 125 60
213 126 61
213 127 62
212 127 63
211 128 64
211 128 65
210 129 66
142 0 0
143 0 0
144 0 0
145 0 0
146 0 0
147 0 0
148 0 0
149 0 0
150 0 0
151 0 0
152 0 0
153 0 0
155 0 0
156 0 0
157 0 0
158 0 0
159 0 0
160 0 0
161 0 0
162 0 0
163 0 0
165 0 0
166 0 0
167 0 0
168 0 0
169 0 0
170 0 0
171 0 0
173 0 0
174 0 0
175 0 0
176 0 0
177 0 0
178 0 0
180 0 0
181 0 0
182 0 0
183 0 0
184 0 0
186 0 0
187 0 0
188 0 0
189 0 0
190 0 0
191 0 0
193 0 0
194 0 0
195 0 0
196 0 0
197 0 0
198 0 0
200 0 0
201 0 0
202 0 0
203 0 0
204 0 0
205 0 0
207 0 0
208 0 0
209 0 0
210 0 0
211 0 0
212 0 0
213 0 0
214 0 0
215 0 0
216 0 0
217 0 0
218 0 0
219 0 0
221 0 0
222 0 0
222 0 0
223 0 0
224 0 0
225 0 0
226 0 0
227 0 0
228 0 0
229 0 0
230 0 0
231 0 0
232 0 0
232 0 0
233 0 0
234 0 0
235 0 0
236 0 0
236 0 0
237 0 0
238 0 0
238 0 0
239 0 0
240 0 0
240 1 0
241 3 0
241 4 0
242 6 0
242 8 0
243 9 0
243 11 0
244 13 0
244 14 0
245 16 0
245 18 0
245 19 0
246 21 0
246 23 0
246 24 0
247 26 0
247 28 0
247 29 0
247 31 0
248 32 0
248 34 0
248 36 0
248 37 0
248 39 0
248 40 0
248 42 0
248 44 0
248 45 0
248 47 0
248 48 0
248 50 0
248 51 0
248 53 0
248 54 0
248 56 0
248 57 0
247 59 0
247 60 0
247 61 0
247 63 0
247 64 0
246 66 0
246 67 0
246 68 0
245 70 0
245 71 0
245 72 0
244 74 0
244 75 0
244 76 0
243 78 0
243 79 0
242 80 1
242 81 3
242 83 4
241 84 6
241 85 8
240 86 9
240 87 11
239 88 12
239 90 14
238 91 15
238 92 16
237 93 18
237 94 19
236 95 21
235 96 22
235 97 24
234 98 25
234 99 26
233 100 28
233 101 29
232 102 30
231 103 32
231 104 33
230 105 34
230 106 35
229 107 37
228 108 38
228 109 39
227 109 40
226 110 42
226 111 43
225 112 44
224 113 45
224 114 46
223 114 47
223 115 49
222 116 50
221 117 51
221 118 52
220 118 53
219 119 54
219 120 55
218 120 56
217 121 57
217 122 58
216 123 59
215 123 60
215 124 61
214 124 62
213 125 63
213 126 64
212 126 65
211 127 66
211 128 67
143 0 0
144 0 0
145 0 0
146 0 0
147 0 0
148 0 0
149 0 0
150 0 0
151 0 0
152 0 0
153 0 0
154 0 0
155 0 0
156 0 0
157 0 0
159 0 0
160 0 0
161 0 0
162 0 0
163 0 0
164 0 0
165 0 0
166 0 0
168 0 0
169 0 0
170 0 0
171 0 0
172 0 0
173 0 0
175 0 0
176 0 0
177 0 0
178 0 0
179 0 0
180 0 0
182 0 0
183 0 0
184 0 0
185 0 0
186 0 0
187 0 0
189 0 0
190 0 0
191 0 0
192 0 0
193 0 0
194 0 0
196 0 0
197 0 0
198 0 0
199 0 0
200 0 0
201 0 0
203 0 0
204 0 0
205 0 0
206 0 0
207 0 0
208 0 0
209 0 0
211 0 0
212 0 0
213 0 0
214 0 0
215 0 0
216 0 0
217 0 0
218 0 0
219 0 0
220 0 0
221 0 0
222 0 0
223 0 0
224 0 0
225 0 0
226 0 0
227 0 0
228 0 0
229 0 0
230 0 0
230 0 0
231 0 0
232 0 0
233 0 0
234 0 0
235 0 0
235 0 0
236 0 0
237 0 0
238 0 0
238 0 0
239 0 0
240 0 0
240 0 0
241 0 0
241 1 0
242 3 0
242 4 0
243 6 0
243 8 0
244 9 0
244 11 0
245 13 0
245 14 0
246 16 0
246 18 0
246 19 0
247 21 0
247 23 0
247 24 0
247 26 0
248 27 0
248 29 0
248 31 0
248 32 0
248 34 0
248 35 0
249 37 0
249 39 0
249 40 0
249 42 0
249 43 0
249 45 0
249 46 0
249 48 0
249 49 0
248 51 0
248 52 0
248 54 0
248 55 0
248 57 0
248 58 0
248 60 0
247 61 0
247 63 0
247 64 0
247 65 0
246 67 0
246 68 0
246 69 0
245 71 0
245 72 0
245 73 0
244 75 0
244 76 0
243 77 1
243 78 3
243 80 4
242 81 6
242 82 7
241 83 9
241 84 10
240 86 12
240 87 13
239 88 15
239 89 16
238 90 18
238 91 19
237 92 20
237 93 22
236 94 23
235 96 25
235 97 26
234 98 27
234 99 29
233 100 30
233 101 31
232 102 33
231 102 34
231 103 35
230 104 36
229 105 38
229 106 39
228 107 40
228 108 41
227 109 43
226 110 44
226 110 45
225 111 46
224 112 47
224 113 48
223 114 50
222 114 51
222 115 52
221 116 53
220 117 54
220 118 55
219 118 56
218 119 57
218 120 58
217 120 59
216 121 60
216 122 61
215 122 62
214 123 63
214 124 64
213 124 65
213 125 66
212 126 67
211 126 68
143 0 0
144 0 0
145 0 0
146 0 0
147 0 0
148 0 0
149 0 0
151 0 0
152 0 0
153 0 0
154 0 0
155 0 0
156 0 0
157 0 0
158 0 0
159 0 0
160 0 0
161 0 0
163 0 0
164 0 0
165 0 0
166 0 0
167 0 0
168 0 0
169 0 0
171 0 0
172 0 0
173 0 0
174 0 0
175 0 0
176 0 0
178 0 0
179 0 0
180 0 0
181 0 0
182 0 0
183 0 0
185 0 0
186 0 0
187 0 0
188 0 0
189 0 0
190 0 0
192 0 0
193 0 0
194 0 0
195 0 0
196 0 0
197 0 0
199 0 0
200 0 0
201 0 0
202 0 0
203 0 0
204 0 0
206 0 0
207 0 0
208 0 0
209 0 0
210 0 0
211 0 0
212 0 0
213 0 0
214 0 0
215 0 0
217 0 0
218 0 0
219 0 0
220 0 0
221 0 0
222 0 0
223 0 0
224 0 0
225 0 0
226 0 0
227 0 0
227 0 0
228 0 0
229 0 0
230 0 0
231 0 0
232 0 0
233 0 0
234 0 0
234 0 0
235 0 0
236 0 0
237 0 0
237 0 0
238 0 0
239 0 0
239 0 0
240 0 0
241 0 0
241 0 0
242 0 0
242 1 0
243 3 0
243 4 0
244 6 0
244 8 0
245 9 0
245 11 0
246 13 0
246 14 0
246 16 0
247 18 0
247 19 0
247 21 0
248 22 0
248 24 0
248 26 0
248 27 0
249 29 0
249 31 0
249 32 0
249 34 0
249 35 0
249 37 0
249 38 0
249 40 0
249 42 0
249 43 0
249 45 0
249 46 0
249 48 0
249 49 0
249 51 0
249 52 0
249 54 0
248 55 0
248 57 0
248 58 0
248 59 0
248 61 0
247 62 0
247 64 0
247 65 0
246 66 0
246 68 0
246 69 0
245 70 0
245 72 0
245 73 0
244 74 1
244 75 2
244 77 4
243 78 5
243 79 7
242 80 8
242 82 10
241 83 11
241 84 13
240 85 14
240 86 16
239 87 17
239 88 19
238 90 20
238 91 21
237 92 23
237 93 24
236 94 26
235 95 27
235 96 28
234 97 30
234 98 31
233 99 32
233 100 34
232 101 35
231 102 36
231 103 37
230 104 39
229 105 40
229 105 41
228 106 42
228 107 44
227 108 45
226 109 46
226 110 47
225 111 48
224 111 49
224 112 50
223 113 52
222 114 53
222 115 54
221 115 55
220 116 56
220 117 57
219 117 58
218 118 59
218 119 60
217 120 61
216 120 62
216 121 63
215 122 64
214 122 65
214 123 66
213 124 67
212 124 68
212 125 69
144 0 0
145 0 0
146 0 0
147 0 0
148 0 0
149 0 0
150 0 0
151 0 0
152 0 0
153 0 0
154 0 0
156 0 0
157 0 0
158 0 0
159 0 0
160 0 0
161 0 0
162 0 0
163 0 0
164 0 0
166 0 0
167 0 0
168 0 0
169 0 0
170 0 0
171 0 0
172 0 0
174 0 0
175 0 0
176 0 0
177 0 0
178 0 0
179 0 0
181 0 0
182 0 0
183 0 0
184 0 0
185 0 0
186 0 0
188 0 0
189 0 0
190 0 0
191 0 0
192 0 0
193 0 0
195 0 0
196 0 0
197 0 0
198 0 0
199 0 0
200 0 0
202 0 0
203 0 0
204 0 0
205 0 0
206 0 0
207 0 0
208 0 0
210 0 0
211 0 0
212 0 0
213 0 0
214 0 0
215 0 0
216 0 0
217 0 0
218 0 0
219 0 0
220 0 0
221 0 0
222 0 0
223 0 0
224 0 0
225 0 0
226 0 0
227 0 0
228 0 0
229 0 0
230 0 0
231 0 0
232 0 0
232 0 0
233 0 0
234 0 0
235 0 0
236 0 0
236 0 0
237 0 0
238 0 0
239 0 0
239 0 0
240 0 0
241 0 0
241 0 0
242 0 0
242 0 0
243 0 0
243 1 0
244 3 0
244 4 0
245 6 0
245 8 0
246 9 0
246 11 0
247 13 0
247 14 0
247 16 0
248 17 0
248 19 0
248 21 0
248 22 0
249 24 0
249 26 0
249 27 0
249 29 0
249 30 0
249 32 0
250 34 0
250 35 0
250 37 0
250 38 0
250 40 0
250 41 0
250 43 0
250 44 0
250 46 0
249 47 0
249 49 0
249 50 0
249 52 0
249 53 0
249 55 0
249 56 0
248 58 0
248 59 0
248 60 0
248 62 0
247 63 0
247 65 0
247 66 0
246 67 0
246 69 0
246 70 0
245 71 0
245 72 2
244 74 3
244 75 5
244 76 6
243 77 8
243 79 9
242 80 11
242 81 12
241 82 14
241 83 15
240 85 17
240 86 18
239 87 20
239 88 21
238 89 22
238 90 24
237 91 25
237 92 27
236 93 28
235 94 29
235 95 31
234 96 32
234 97 33
233 98 35
232 99 36
232 100 37
231 101 38
231 102 40
230 103 41
229 104 42
229 105 43
228 106 44
227 107 46
227 107 47
226 108 48
226 109 49
225 110 50
224 111 51
224 111 52
223 112 54
222 113 55
222 114 56
221 115 57
220 115 58
220 116 59
219 117 60
218 117 61
218 118 62
217 119 63
216 120 64
216 120 65
215 121 66
214 121 67
214 122 68
213 123 69
212 123 69
145 0 0
146 0 0
147 0 0
148 0 0
149 0 0
150 0 0
151 0 0
152 0 0
153 0 0
154 0 0
155 0 0
156 0 0
157 0 0
158 0 0
159 0 0
161 0 0
162 0 0
163 0 0
164 0 0
165 0 0
166 0 0
167 0 0
168 0 0
170 0 0
171 0 0
172 0 0
173 0 0
174 0 0
175 0 0
176 0 0
178 0 0
179 0 0
180 0 0
181 0 0
182 0 0
183 0 0
185 0 0
186 0 0
187 0 0
188 0 0
189 0 0
191 0 0
192 0 0
193 0 0
194 0 0
195 0 0
196 0 0
198 0 0
199 0 0
200 0 0
201 0 0
202 0 0
203 0 0
204 0 0
206 0 0
207 0 0
208 0 0
209 0 0
210 0 0
211 0 0
212 0 0
213 0 0
214 0 0
216 0 0
217 0 0
218 0 0
219 0 0
220 0 0
221 0 0
222 0 0
223 0 0
224 0 0
225 0 0
226 0 0
227 0 0
228 0 0
229 0 0
229 0 0
230 0 0
231 0 0
232 0 0
233 0 0
234 0 0
235 0 0
235 0 0
236 0 0
237 0 0
238 0 0
238 0 0
239 0 0
240 0 0
240 0 0
241 0 0
242 0 0
242 0 0
243 0 0
243 0 0
244 0 0
244 1 0
245 3 0
245 4 0
246 6 0
246 8 0
247 9 0
247 11 0
247 12 0
248 14 0
248 16 0
248 17 0
249 19 0
249 21 0
249 22 0
249 24 0
250 25 0
250 27 0
250 29 0
250 30 0
250 32 0
250 33 0
250 35 0
250 37 0
250 38 0
250 40 0
250 41 0
250 43 0
250 44 0
250 46 0
250 47 0
250 49 0
250 50 0
249 52 0
249 53 0
249 54 0
249 56 0
249 57 0
248 59 0
248 60 0
248 61 0
247 63 0
247 64 0
247 66 0
246 67 0
246 68 0
246 69 1
245 71 3
245 72 4
245 73 6
244 75 7
244 76 9
243 77 11
243 78 12
242 79 13
242 81 15
241 82 16
241 83 18
240 84 19
240 85 21
239 86 22
239 87 24
238 88 25
238 90 26
237 91 28
237 92 29
236 93 30
235 94 32
235 95 33
234 96 34
234 97 36
233 98 37
232 99 38
232 100 39
231 100 41
231 101 42
230 102 43
229 103 44
229 104 45
228 105 47
227 106 48
227 107 49
226 107 50
225 108 51
225 109 52
224 110 53
223 111 54
223 112 55
222 112 57
221 113 58
221 114 59
220 115 60
219 115 61
219 116 62
218 117 63
217 117 64
217 118 65
216 119 66
216 119 67
215 120 68
214 121 68
214 121 69
213 122 70
145 0 0
146 0 0
147 0 0
148 0 0
149 0 0
150 0 0
151 0 0
153 0 0
154 0 0
155 0 0
156 0 0
157 0 0
158 0 0
159 0 0
160 0 0
161 0 0
162 0 0
163 0 0
165 0 0
166 0 0
167 0 0
168 0 0
169 0 0
170 0 0
171 0 0
173 0 0
174 0 0
175 0 0
176 0 0
177 0 0
178 0 0
179 0 0
181 0 0
182 0 0
183 0 0
184 0 0
185 0 0
186 0 0
188 0 0
189 0 0
190 0 0
191 0 0
192 0 0
193 0 0
195 0 0
196 0 0
197 0 0
198 0 0
199 0 0
200 0 0
202 0 0
203 0 0
204 0 0
205 0 0
206 0 0
207 0 0
208 0 0
210 0 0
211 0 0
212 0 0
213 0 0
214 0 0
215 0 0
216 0 0
217 0 0
218 0 0
219 0 0
220 0 0
221 0 0
222 0 0
223 0 0
224 0 0
225 0 0
226 0 0
227 0 0
228 0 0
229 0 0
230 0 0
231 0 0
232 0 0
233 0 0
233 0 0
234 0 0
235 0 0
236 0 0
237 0 0
237 0 0
238 0 0
239 0 0
240 0 0
240 0 0
241 0 0
241 0 0
242 0 0
243 0 0
243 0 0
244 0 0
244 0 0
245 0 0
245 1 0
246 3 0
246 4 0
247 6 0
247 8 0
248 9 0
248 11 0
248 12 0
249 14 0
249 16 0
249 17 0
249 19 0
250 21 0
250 22 0
250 24 0
250 25 0
250 27 0
250 29 0
250 30 0
251 32 0
251 33 0
251 35 0
251 36 0
251 38 0
251 39 0
251 41 0
250 42 0
250 44 0
250 45 0
250 47 0
250 48 0
250 50 0
250 51 0
249 53 0
249 54 0
249 56 0
249 57 0
249 58 0
248 60 0
248 61 0
248 62 0
247 64 0
247 65 0
247 66 1
246 68 2
246 69 4
245 70 6
245 72 7
245 73 9
244 74 10
244 75 12
243 77 13
243 78 15
242 79 16
242 80 17
241 81 19
241 82 20
240 83 22
240 85 23
239 86 25
239 87 26
238 88 27
238 89 29
237 90 30
236 91 31
236 92 33
235 93 34
235 94 35
234 95 37
233 96 38
233 97 39
232 98 40
232 99 42
231 100 43
230 101 44
230 102 45
229 103 46
228 103 47
228 104 49
227 105 50
227 106 51
226 107 52
225 108 53
225 108 54
224 109 55
223 110 56
223 111 57
222 112 58
221 112 60
221 113 61
220 114 62
219 114 63
219 115 64
218 116 65
217 117 65
217 117 66
216 118 67
215 119 68
215 119 69
214 120 70
213 121 71
146 0 0
147 0 0
148 0 0
149 0 0
150 0 0
151 0 0
152 0 0
153 0 0
154 0 0
155 0 0
156 0 0
157 0 0
159 0 0
160 0 0
161 0 0
162 0 0
163 0 0
164 0 0
165 0 0
166 0 0
167 0 0
169 0 0
170 0 0
171 0 0
172 0 0
173 0 0
174 0 0
175 0 0
177 0 0
178 0 0
179 0 0
180 0 0
181 0 0
182 0 0
184 0 0
185 0 0
186 0 0
187 0 0
188 0 0
189 0 0
191 0 0
192 0 0
193 0 0
194 0 0
195 0 0
196 0 0
198 0 0
199 0 0
200 0 0
201 0 0
202 0 0
203 0 0
204 0 0
206 0 0
207 0 0
208 0 0
209 0 0
210 0 0
211 0 0
212 0 0
213 0 0
214 0 0
216 0 0
217 0 0
218 0 0
219 0 0
220 0 0
221 0 0
222 0 0
223 0 0
224 0 0
225 0 0
226 0 0
227 0 0
228 0 0
229 0 0
230 0 0
230 0 0
231 0 0
232 0 0
233 0 0
234 0 0
235 0 0
236 0 0
236 0 0
237 0 0
238 0 0
239 0 0
239 0 0
240 0 0
241 0 0
241 0 0
242 0 0
243 0 0
243 0 0
244 0 0
244 0 0
245 0 0
245 0 0
246 0 0
246 1 0
247 3 0
247 4 0
248 6 0
248 8 0
248 9 0
249 11 0
249 12 0
249 14 0
249 16 0
250 17 0
250 19 0
250 20 0
250 22 0
251 24 0
251 25 0
251 27 0
251 28 0
251 30 0
251 32 0
251 33 0
251 35 0
251 36 0
251 38 0
251 39 0
251 41 0
251 42 0
251 44 0
251 45 0
250 47 0
250 48 0
250 50 0
250 51 0
250 52 0
249 54 0
249 55 0
249 57 0
249 58 0
248 59 0
248 61 0
248 62 0
247 63 0
247 65 2
247 66 4
246 67 5
246 69 7
245 70 8
245 71 10
245 72 11
244 74 13
244 75 14
243 76 16
243 77 17
242 78 19
242 80 20
241 81 21
241 82 23
240 83 24
240 84 26
239 85 27
239 86 28
238 87 30
238 88 31
237 89 32
236 90 34
236 91 35
235 92 36
235 93 37
234 94 39
233 95 40
233 96 41
232 97 42
232 98 44
231 99 45
230 100 46
230 101 47
229 102 48
228 103 50
228 104 51
227 104 52
226 105 53
226 106 54
225 107 55
224 108 56
224 108 57
223 109 58
223 110 59
222 111 60
221 112 61
221 112 62
220 113 63
219 114 64
219 114 65
218 115 66
217 116 67
217 117 68
216 117 69
215 118 70
215 119 71
214 119 72
146 0 0
148 0 0
149 0 0
150 0 0
151 0 0
152 0 0
153 0 0
154 0 0
155 0 0
156 0 0
157 0 0
158 0 0
159 0 0
160 0 0
161 0 0
162 0 0
164 0 0
165 0 0
166 0 0
167 0 0
168 0 0
169 0 0
170 0 0
171 0 0
173 0 0
174 0 0
175 0 0
176 0 0
177 0 0
178 0 0
180 0 0
181 0 0
182 0 0
183 0 0
184 0 0
185 0 0
186 0 0
188 0 0
189 0 0
190 0 0
191 0 0
192 0 0
193 0 0
195 0 0
196 0 0
197 0 0
198 0 0
199 0 0
200 0 0
202 0 0
203 0 0
204 0 0
205 0 0
206 0 0
207 0 0
208 0 0
210 0 0
211 0 0
212 0 0
213 0 0
214 0 0
215 0 0
216 0 0
217 0 0
218 0 0
219 0 0
220 0 0
221 0 0
222 0 0
223 0 0
224 0 0
225 0 0
226 0 0
227 0 0
228 0 0
229 0 0
230 0 0
231 0 0
232 0 0
233 0 0
234 0 0
234 0 0
235 0 0
236 0 0
237 0 0
238 0 0
238 0 0
239 0 0
240 0 0
240 0 0
241 0 0
242 0 0
242 0 0
243 0 0
244 0 0
244 0 0
245 0 0
245 0 0
246 0 0
246 0 0
247 0 0
247 1 0
248 3 0
248 4 0
248 6 0
249 7 0
249 9 0
249 11 0
250 12 0
250 14 0
250 16 0
250 17 0
251 19 0
251 20 0
251 22 0
251 24 0
251 25 0
251 27 0
251 28 0
251 30 0
251 31 0
251 33 0
251 34 0
251 36 0
251 38 0
251 39 0
251 41 0
251 42 0
251 43 0
251 45 0
251 46 0
251 48 0
250 49 0
250 51 0
250 52 0
250 54 0
249 55 0
249 56 0
249 58 0
248 59 0
248 60 0
248 62 2
247 63 3
247 64 5
247 66 6
246 67 8
246 68 9
245 69 11
245 71 12
245 72 14
244 73 15
244 74 17
243 76 18
243 77 20
242 78 21
242 79 22
241 80 24
241 81 25
240 82 27
240 84 28
239 85 29
239 86 31
238 87 32
237 88 33
237 89 35
236 90 36
236 91 37
235 92 38
234 93 40
234 94 41
233 95 42
233 96 43
232 97 45
231 98 46
231 99 47
230 99 48
229 100 49
229 101 50
228 102 52
228 103 53
227 104 54
226 105 55
226 105 56
225 106 57
224 107 58
224 108 59
223 109 60
222 109 61
222 110 62
221 111 63
220 112 64
220 112 65
219 113 66
218 114 67
218 114 68
217 115 69
216 116 70
216 116 71
215 117 72
214 118 73
147 0 0
148 0 0
149 0 0
150 0 0
151 0 0
152 0 0
153 0 0
154 0 0
155 0 0
157 0 0
158 0 0
159 0 0
160 0 0
161 0 0
162 0 0
163 0 0
164 0 0
165 0 0
166 0 0
168 0 0
169 0 0
170 0 0
171 0 0
172 0 0
173 0 0
174 0 0
176 0 0
177 0 0
178 0 0
179 0 0
180 0 0
181 0 0
182 0 0
184 0 0
185 0 0
186 0 0
187 0 0
188 0 0
189 0 0
191 0 0
192 0 0
193 0 0
194 0 0
195 0 0
196 0 0
198 0 0
199 0 0
200 0 0
201 0 0
202 0 0
203 0 0
204 0 0
206 0 0
207 0 0
208 0 0
209 0 0
210 0 0
211 0 0
212 0 0
213 0 0
214 0 0
216 0 0
217 0 0
218 0 0
219 0 0
220 0 0
221 0 0
222 0 0
223 0 0
224 0 0
225 0 0
226 0 0
227 0 0
228 0 0
229 0 0
230 0 0
230 0 0
231 0 0
232 0 0
233 0 0
234 0 0
235 0 0
236 0 0
236 0 0
237 0 0
238 0 0
239 0 0
239 0 0
240 0 0
241 0 0
241 0 0
242 0 0
243 0 0
243 0 0
244 0 0
245 0 0
245 0 0
246 0 0
246 0 0
247 0 0
247 0 0
248 0 0
248 1 0
248 3 0
249 4 0
249 6 0
249 7 0
250 9 0
250 11 0
250 12 0
251 14 0
251 15 0
251 17 0
251 19 0
251 20 0
251 22 0
252 23 0
252 25 0
252 27 0
252 28 0
252 30 0
252 31 0
252 33 0
252 34 0
252 36 0
252 37 0
252 39 0
251 40 0
251 42 0
251 43 0
251 45 0
251 46 0
251 48 0
250 49 0
250 50 0
250 52 0
250 53 0
249 55 0
249 56 0
249 57 0
249 59 1
248 60 3
248 61 4
248 63 6
247 64 7
247 65 9
246 67 10
246 68 12
245 69 13
245 70 15
245 71 16
244 73 18
244 74 19
243 75 21
243 76 22
242 77 23
242 79 25
241 80 26
241 81 28
240 82 29
240 83 30
239 84 32
238 85 33
238 86 34
237 87 36
237 88 37
236 89 38
236 90 39
235 91 41
234 92 42
234 93 43
233 94 44
232 95 46
232 96 47
231 97 48
231 98 49
230 99 50
229 100 51
229 100 52
228 101 54
227 102 55
227 103 56
226 104 57
225 105 58
225 105 59
224 106 60
224 107 61
223 108 62
222 109 63
222 109 64
221 110 65
220 111 66
220 112 67
219 112 68
218 113 69
218 114 70
217 114 71
216 115 72
216 116 73
215 116 73
148 0 0
149 0 0
150 0 0
151 0 0
152 0 0
153 0 0
154 0 0
155 0 0
156 0 0
157 0 0
158 0 0
159 0 0
160 0 0
162 0 0
163 0 0
164 0 0
165 0 0
166 0 0
167 0 0
168 0 0
169 0 0
170 0 0
172 0 0
173 0 0
174 0 0
175 0 0
176 0 0
177 0 0
178 0 0
180 0 0
181 0 0
182 0 0
183 0 0
184 0 0
185 0 0
186 0 0
188 0 0
189 0 0
190 0 0
191 0 0
192 0 0
193 0 0
195 0 0
196 0 0
197 0 0
198 0 0
199 0 0
200 0 0
202 0 0
203 0 0
204 0 0
205 0 0
206 0 0
207 0 0
208 0 0
209 0 0
211 0 0
212 0 0
213 0 0
214 0 0
215 0 0
216 0 0
217 0 0
218 0 0
219 0 0
220 0 0
221 0 0
222 0 0
223 0 0
224 0 0
225 0 0
226 0 0
227 0 0
228 0 0
229 0 0
230 0 0
231 0 0
232 0 0
233 0 0
234 0 0
234 0 0
235 0 0
236 0 0
237 0 0
238 0 0
238 0 0
239 0 0
240 0 0
241 0 0
241 0 0
242 0 0
243 0 0
243 0 0
244 0 0
244 0 0
245 0 0
245 0 0
246 0 0
246 0 0
247 0 0
247 0 0
248 0 0
248 0 0
249 1 0
249 3 0
249 4 0
250 6 0
250 7 0
250 9 0
251 11 0
251 12 0
251 14 0
251 15 0
251 17 0
252 19 0
252 20 0
252 22 0
252 23 0
252 25 0
252 26 0
252 28 0
252 30 0
252 31 0
252 33 0
252 34 0
252 36 0
252 37 0
252 39 0
252 40 0
252 42 0
251 43 0
251 44 0
251 46 0
251 47 0
251 49 0
250 50 0
250 52 0
250 53 0
250 54 0
249 56 1
249 57 2
249 58 4
248 60 5
248 61 7
248 62 9
247 64 10
247 65 12
246 66 13
246 67 15
245 69 16
245 70 17
245 71 19
244 72 20
244 73 22
243 75 23
243 76 25
242 77 26
242 78 27
241 79 29
241 80 30
240 81 31
239 82 33
239 83 34
238 85 35
238 86 37
237 87 38
237 88 39
236 89 40
235 90 42
235 91 43
234 92 44
234 93 45
233 94 46
232 94 48
232 95 49
231 96 50
230 97 51
230 98 52
229 99 53
229 100 54
228 101 56
227 102 57
227 102 58
226 103 59
225 104 60
225 105 61
224 106 62
223 106 63
223 107 64
222 108 65
221 109 66
221 109 67
220 110 68
219 111 69
219 112 70
218 112 71
217 113 72
217 114 72
216 114 73
215 115 74
148 0 0
149 0 0
150 0 0
151 0 0
152 0 0
154 0 0
155 0 0
156 0 0
157 0 0
158 0 0
159 0 0
160 0 0
161 0 0
162 0 0
163 0 0
164 0 0
165 0 0
167 0 0
168 0 0
169 0 0
170 0 0
171 0 0
172 0 0
173 0 0
174 0 0
176 0 0
177 0 0
178 0 0
179 0 0
180 0 0
181 0 0
182 0 0
184 0 0
185 0 0
186 0 0
187 0 0
188 0 0
189 0 0
191 0 0
192 0 0
193 0 0
194 0 0
195 0 0
196 0 0
197 0 0
199 0 0
200 0 0
201 0 0
202 0 0
203 0 0
204 0 0
205 0 0
207 0 0
208 0 0
209 0 0
210 0 0
211 0 0
212 0 0
213 0 0
214 0 0
215 0 0
216 0 0
218 0 0
219 0 0
220 0 0
221 0 0
222 0 0
223 0 0
224 0 0
225 0 0
226 0 0
227 0 0
228 0 0
229 0 0
229 0 0
230 0 0
231 0 0
232 0 0
233 0 0
234 0 0
235 0 0
236 0 0
236 0 0
237 0 0
238 0 0
239 0 0
239 0 0
240 0 0
241 0 0
242 0 0
242 0 0
243 0 0
243 0 0
244 0 0
245 0 0
245 0 0
246 0 0
246 0 0
247 0 0
247 0 0
248 0 0
248 0 0
249 0 0
249 0 0
249 1 0
250 3 0
250 4 0
250 6 0
251 7 0
251 9 0
251 11 0
251 12 0
252 14 0
252 15 0
252 17 0
252 19 0
252 20 0
252 22 0
252 23 0
252 25 0
252 26 0
253 28 0
253 29 0
252 31 0
252 32 0
252 34 0
252 35 0
252 37 0
252 38 0
252 40 0
252 41 0
252 43 0
251 44 0
251 46 0
251 47 0
251 48 0
250 50 0
250 51 0
250 53 0
250 54 2
249 55 4
249 57 5
249 58 7
248 59 8
248 61 10
248 62 11
247 63 13
247 64 14
246 66 16
246 67 17
245 68 18
245 69 20
244 71 21
244 72 23
244 73 24
243 74 26
242 75 27
242 76 28
241 77 30
241 79 31
240 80 32
240 81 34
239 82 35
239 83 36
238 84 38
238 85 39
237 86 40
236 87 41
236 88 43
235 89 44
235 90 45
234 91 46
233 92 47
233 93 49
232 94 50
232 95 51
231 96 52
230 97 53
230 97 54
229 98 55
228 99 56
228 100 57
227 101 59
226 102 60
226 102 61
225 103 62
224 104 63
224 105 64
223 106 65
222 106 66
222 107 67
221 108 68
221 109 69
220 109 70
219 110 70
219 111 71
218 111 72
217 112 73
217 113 74
216 114 75
149 0 0
150 0 0
151 0 0
152 0 0
153 0 0
154 0 0
155 0 0
156 0 0
157 0 0
158 0 0
159 0 0
161 0 0
162 0 0
163 0 0
164 0 0
165 0 0
166 0 0
167 0 0
168 0 0
169 0 0
170 0 0
172 0 0
173 0 0
174 0 0
175 0 0
176 0 0
177 0 0
178 0 0
180 0 0
181 0 0
182 0 0
183 0 0
184 0 0
185 0 0
186 0 0
188 0 0
189 0 0
190 0 0
191 0 0
192 0 0
193 0 0
195 0 0
196 0 0
197 0 0
198 0 0
199 0 0
200 0 0
201 0 0
203 0 0
204 0 0
205 0 0
206 0 0
207 0 0
208 0 0
209 0 0
210 0 0
212 0 0
213 0 0
214 0 0
215 0 0
216 0 0
217 0 0
218 0 0
219 0 0
220 0 0
221 0 0
222 0 0
223 0 0
224 0 0
225 0 0
226 0 0
227 0 0
228 0 0
229 0 0
230 0 0
231 0 0
232 0 0
233 0 0
233 0 0
234 0 0
235 0 0
236 0 0
237 0 0
238 0 0
238 0 0
239 0 0
240 0 0
241 0 0
241 0 0
242 0 0
243 0 0
243 0 0
244 0 0
244 0 0
245 0 0
246 0 0
246 0 0
247 0 0
247 0 0
248 0 0
248 0 0
249 0 0
249 0 0
249 0 0
250 0 0
250 1 0
250 3 0
251 4 0
251 6 0
251 7 0
252 9 0
252 11 0
252 12 0
252 14 0
252 15 0
252 17 0
253 18 0
253 20 0
253 22 0
253 23 0
253 25 0
253 26 0
253 28 0
253 29 0
253 31 0
253 32 0
253 34 0
253 35 0
252 37 0
252 38 0
252 40 0
252 41 0
252 43 0
252 44 0
251 45 0
251 47 0
251 48 0
251 50 0
250 51 2
250 52 3
250 54 5
249 55 6
249 56 8
249 58 9
248 59 11
248 60 12
247 61 14
247 63 15
247 64 17
246 65 18
246 66 20
245 68 21
245 69 22
244 70 24
244 71 25
243 72 27
243 74 28
242 75 29
242 76 31
241 77 32
241 78 33
240 79 35
240 80 36
239 81 37
239 82 38
238 83 40
237 84 41
237 85 42
236 86 43
236 87 45
235 88 46
234 89 47
234 90 48
233 91 49
233 92 51
232 93 52
231 94 53
231 95 54
230 96 55
229 97 56
229 98 57
228 98 58
228 99 59
227 100 60
226 101 61
226 102 62
225 103 64
224 103 65
224 104 66
223 105 66
222 106 67
222 106 68
221 107 69
220 108 70
220 109 71
219 109 72
218 110 73
218 111 74
217 111 75
216 112 76
150 0 0
151 0 0
152 0 0
153 0 0
154 0 0
155 0 0
156 0 0
157 0 0
158 0 0
159 0 0
160 0 0
161 0 0
162 0 0
163 0 0
164 0 0
165 0 0
167 0 0
168 0 0
169 0 0
170 0 0
171 0 0
172 0 0
173 0 0
174 0 0
176 0 0
177 0 0
178 0 0
179 0 0
180 0 0
181 0 0
182 0 0
184 0 0
185 0 0
186 0 0
187 0 0
188 0 0
189 0 0
190 0 0
192 0 0
193 0 0
194 0 0
195 0 0
196 0 0
197 0 0
198 0 0
200 0 0
201 0 0
202 0 0
203 0 0
204 0 0
205 0 0
206 0 0
208 0 0
209 0 0
210 0 0
211 0 0
212 0 0
213 0 0
214 0 0
215 0 0
216 0 0
217 0 0
218 0 0
219 0 0
220 0 0
222 0 0
223 0 0
224 0 0
225 0 0
226 0 0
226 0 0
227 0 0
228 0 0
229 0 0
230 0 0
231 0 0
232 0 0
233 0 0
234 0 0
235 0 0
235 0 0
236 0 0
237 0 0
238 0 0
239 0 0
239 0 0
240 0 0
241 0 0
242 0 0
242 0 0
243 0 0
244 0 0
244 0 0
245 0 0
245 0 0
246 0 0
246 0 0
247 0 0
247 0 0
248 0 0
248 0 0
249 0 0
249 0 0
250 0 0
250 0 0
250 0 0
251 1 0
251 3 0
251 4 0
252 6 0
252 7 0
252 9 0
252 10 0
252 12 0
253 14 0
253 15 0
253 17 0
253 18 0
253 20 0
253 21 0
253 23 0
253 25 0
253 26 0
253 28 0
253 29 0
253 31 0
253 32 0
253 34 0
253 35 0
253 36 0
252 38 0
252 39 0
252 41 0
252 42 0
252 44 0
251 45 0
251 46 0
251 48 1
251 49 3
250 51 4
250 52 6
250 53 7
249 55 9
249 56 10
249 57 12
248 59 13
248 60 15
247 61 16
247 62 18
247 64 19
246 65 21
246 66 22
245 67 23
245 68 25
244 70 26
244 71 28
243 72 29
243 73 30
242 74 32
242 75 33
241 76 34
241 78 36
240 79 37
240 80 38
239 81 39
238 82 41
238 83 42
237 84 43
237 85 44
236 86 46
235 87 47
235 88 48
234 89 49
234 90 50
233 91 51
232 92 53
232 93 54
231 93 55
230 94 56
230 95 57
229 96 58
229 97 59
228 98 60
227 99 61
227 99 62
226 100 63
225 101 64
225 102 65
224 103 66
223 103 67
223 104 68
222 105 69
221 106 70
221 106 71
220 107 72
219 108 73
219 109 74
218 109 75
218 110 76
217 111 76
150 0 0
151 0 0
152 0 0
153 0 0
154 0 0
155 0 0
156 0 0
157 0 0
158 0 0
160 0 0
161 0 0
162 0 0
163 0 0
164 0 0
165 0 0
166 0 0
167 0 0
168 0 0
169 0 0
170 0 0
172 0 0
173 0 0
174 0 0
175 0 0
176 0 0
177 0 0
178 0 0
179 0 0
181 0 0
182 0 0
183 0 0
184 0 0
185 0 0
186 0 0
187 0 0
189 0 0
190 0 0
191 0 0
192 0 0
193 0 0
194 0 0
196 0 0
197 0 0
198 0 0
199 0 0
200 0 0
201 0 0
202 0 0
203 0 0
205 0 0
206 0 0
207 0 0
208 0 0
209 0 0
210 0 0
211 0 0
212 0 0
213 0 0
215 0 0
216 0 0
217 0 0
218 0 0
219 0 0
220 0 0
221 0 0
222 0 0
223 0 0
224 0 0
225 0 0
226 0 0
227 0 0
228 0 0
229 0 0
230 0 0
231 0 0
232 0 0
232 0 0
233 0 0
234 0 0
235 0 0
236 0 0
237 0 0
237 0 0
238 0 0
239 0 0
240 0 0
240 0 0
241 0 0
242 0 0
243 0 0
243 0 0
244 0 0
244 0 0
245 0 0
246 0 0
246 0 0
247 0 0
247 0 0
248 0 0
248 0 0
249 0 0
249 0 0
250 0 0
250 0 0
250 0 0
251 0 0
251 0 0
251 1 0
252 3 0
252 4 0
252 6 0
252 7 0
253 9 0
253 10 0
253 12 0
253 14 0
253 15 0
253 17 0
253 18 0
253 20 0
253 21 0
253 23 0
253 24 0
253 26 0
253 27 0
253 29 0
253 30 0
253 32 0
253 33 0
253 35 0
253 36 0
253 38 0
252 39 0
252 41 0
252 42 0
252 43 0
251 45 1
251 46 2
251 48 4
251 49 5
250 50 7
250 52 8
250 53 10
249 54 11
249 56 13
249 57 14
248 58 16
248 59 17
247 61 19
247 62 20
246 63 22
246 64 23
246 66 24
245 67 26
245 68 27
244 69 29
244 70 30
243 71 31
243 73 33
242 74 34
242 75 35
241 76 37
240 77 38
240 78 39
239 79 40
239 80 42
238 81 43
238 82 44
237 83 45
236 84 46
236 85 48
235 86 49
235 87 50
234 88 51
233 89 52
233 90 53
232 91 55
232 92 56
231 93 57
230 94 58
230 95 59
229 95 60
228 96 61
228 97 62
227 98 63
226 99 64
226 100 65
225 100 66
224 101 67
224 102 68
223 103 69
223 104 70
222 104 71
221 105 72
221 106 73
220 107 74
219 107 75
219 108 75
218 109 76
217 109 77
151 0 0
152 0 0
153 0 0
154 0 0
155 0 0
156 0 0
157 0 0
158 0 0
159 0 0
160 0 0
161 0 0
162 0 0
163 0 0
164 0 0
166 0 0
167 0 0
168 0 0
169 0 0
170 0 0
171 0 0
172 0 0
173 0 0
174 0 0
175 0 0
177 0 0
178 0 0
179 0 0
180 0 0
181 0 0
182 0 0
183 0 0
185 0 0
186 0 0
187 0 0
188 0 0
189 0 0
190 0 0
191 0 0
193 0 0
194 0 0
195 0 0
196 0 0
197 0 0
198 0 0
199 0 0
201 0 0
202 0 0
203 0 0
204 0 0
205 0 0
206 0 0
207 0 0
208 0 0
210 0 0
211 0 0
212 0 0
213 0 0
214 0 0
215 0 0
216 0 0
217 0 0
218 0 0
219 0 0
220 0 0
221 0 0
222 0 0
223 0 0
224 0 0
225 0 0
226 0 0
227 0 0
228 0 0
229 0 0
230 0 0
231 0 0
232 0 0
233 0 0
234 0 0
234 0 0
235 0 0
236 0 0
237 0 0
238 0 0
239 0 0
239 0 0
240 0 0
241 0 0
241 0 0
242 0 0
243 0 0
243 0 0
244 0 0
245 0 0
245 0 0
246 0 0
246 0 0
247 0 0
248 0 0
248 0 0
248 0 0
249 0 0
249 0 0
250 0 0
250 0 0
251 0 0
251 0 0
251 0 0
252 0 0
252 1 0
252 3 0
252 4 0
253 6 0
253 7 0
253 9 0
253 10 0
253 12 0
253 13 0
253 15 0
254 17 0
254 18 0
254 20 0
254 21 0
254 23 0
254 24 0
254 26 0
254 27 0
253 29 0
253 30 0
253 32 0
253 33 0
253 35 0
253 36 0
253 37 0
252 39 0
252 40 0
252 42 0
252 43 2
251 45 3
251 46 5
251 47 7
251 49 8
250 50 10
250 51 11
250 53 13
249 54 14
249 55 15
248 57 17
248 58 18
248 59 20
247 60 21
247 62 23
246 63 24
246 64 25
245 65 27
245 66 28
244 68 30
244 69 31
243 70 32
243 71 34
242 72 35
242 73 36
241 74 38
241 75 39
240 77 40
240 78 41
239 79 43
239 80 44
238 81 45
237 82 46
237 83 47
236 84 49
236 85 50
235 86 51
234 87 52
234 88 53
233 89 54
233 89 55
232 90 57
231 91 58
231 92 59
230 93 60
229 94 61
229 95 62
228 96 63
227 97 64
227 97 65
226 98 66
226 99 67
225 100 68
224 101 69
224 101 70
223 102 71
222 103 72
222 104 73
221 104 74
220 105 74
220 106 75
219 107 76
218 107 77
218 108 78
151 0 0
152 0 0
153 0 0
154 0 0
155 0 0
156 0 0
157 0 0
159 0 0
160 0 0
161 0 0
162 0 0
163 0 0
164 0 0
165 0 0
166 0 0
167 0 0
168 0 0
169 0 0
170 0 0
172 0 0
173 0 0
174 0 0
175 0 0
176 0 0
177 0 0
178 0 0
179 0 0
181 0 0
182 0 0
183 0 0
184 0 0
185 0 0
186 0 0
187 0 0
188 0 0
190 0 0
191 0 0
192 0 0
193 0 0
194 0 0
195 0 0
196 0 0
198 0 0
199 0 0
200 0 0
201 0 0
202 0 0
203 0 0
204 0 0
206 0 0
207 0 0
208 0 0
209 0 0
210 0 0
211 0 0
212 0 0
213 0 0
214 0 0
215 0 0
216 0 0
218 0 0
219 0 0
220 0 0
221 0 0
222 0 0
223 0 0
224 0 0
225 0 0
226 0 0
227 0 0
228 0 0
229 0 0
229 0 0
230 0 0
231 0 0
232 0 0
233 0 0
234 0 0
235 0 0
236 0 0
236 0 0
237 0 0
238 0 0
239 0 0
240 0 0
240 0 0
241 0 0
242 0 0
242 0 0
243 0 0
244 0 0
244 0 0
245 0 0
246 0 0
246 0 0
247 0 0
247 0 0
248 0 0
248 0 0
249 0 0
249 0 0
250 0 0
250 0 0
250 0 0
251 0 0
251 0 0
251 0 0
252 0 0
252 0 0
252 1 0
253 2 0
253 4 0
253 6 0
253 7 0
253 9 0
253 10 0
254 12 0
254 13 0
254 15 0
254 17 0
254 18 0
254 20 0
254 21 0
254 23 0
254 24 0
254 26 0
254 27 0
254 29 0
254 30 0
253 32 0
253 33 0
253 34 0
253 36 0
253 37 0
252 39 0
252 40 2
252 41 3
252 43 5
251 44 6
251 46 8
251 47 9
251 48 11
250 50 12
250 51 14
250 52 15
249 54 17
249 55 18
248 56 19
248 57 21
248 59 22
247 60 24
247 61 25
246 62 26
246 64 28
245 65 29
245 66 31
244 67 32
244 68 33
243 69 35
243 71 36
242 72 37
242 73 38
241 74 40
241 75 41
240 76 42
239 77 43
239 78 45
238 79 46
238 80 47
237 81 48
237 82 49
236 83 51
235 84 52
235 85 53
234 86 54
234 87 55
233 88 56
232 89 57
232 90 58
231 91 60
230 92 61
230 92 62
229 93 63
229 94 64
228 95 65
227 96 66
227 97 67
226 97 68
225 98 69
225 99 70
224 100 71
223 101 72
223 101 72
222 102 73
221 103 74
221 104 75
220 104 76
219 105 77
219 106 78
218 106 79
152 0 0
153 0 0
154 0 0
155 0 0
156 0 0
157 0 0
158 0 0
159 0 0
160 0 0
161 0 0
162 0 0
163 0 0
164 0 0
165 0 0
167 0 0
168 0 0
169 0 0
170 0 0
171 0 0
172 0 0
173 0 0
174 0 0
175 0 0
177 0 0
178 0 0
179 0 0
180 0 0
181 0 0
182 0 0
183 0 0
184 0 0
186 0 0
187 0 0
188 0 0
189 0 0
190 0 0
191 0 0
192 0 0
194 0 0
195 0 0
196 0 0
197 0 0
198 0 0
199 0 0
200 0 0
201 0 0
203 0 0
204 0 0
205 0 0
206 0 0
207 0 0
208 0 0
209 0 0
210 0 0
211 0 0
213 0 0
214 0 0
215 0 0
216 0 0
217 0 0
218 0 0
219 0 0
220 0 0
221 0 0
222 0 0
223 0 0
224 0 0
225 0 0
226 0 0
227 0 0
228 0 0
229 0 0
230 0 0
231 0 0
232 0 0
232 0 0
233 0 0
234 0 0
235 0 0
236 0 0
237 0 0
238 0 0
238 0 0
239 0 0
240 0 0
241 0 0
241 0 0
242 0 0
243 0 0
243 0 0
244 0 0
245 0 0
245 0 0
246 0 0
246 0 0
247 0 0
247 0 0
248 0 0
248 0 0
249 0 0
249 0 0
250 0 0
250 0 0
251 0 0
251 0 0
251 0 0
252 0 0
252 0 0
252 0 0
253 0 0
253 1 0
253 2 0
253 4 0
253 6 0
254 7 0
254 9 0
254 10 0
254 12 0
254 13 0
254 15 0
254 16 0
254 18 0
254 19 0
254 21 0
254 22 0
254 24 0
254 25 0
254 27 0
254 28 0
254 30 0
253 31 0
253 33 0
253 34 0
253 36 0
253 37 1
253 38 3
252 40 4
252 41 6
252 43 7
251 44 9
251 45 10
251 47 12
250 48 13
250 49 15
250 51 16
249 52 18
249 53 19
249 55 20
248 56 22
248 57 23
247 58 25
247 59 26
246 61 27
246 62 29
246 63 30
245 64 32
245 65 33
244 67 34
244 68 36
243 69 37
243 70 38
242 71 39
241 72 41
241 73 42
240 74 43
240 75 44
239 77 46
239 78 47
238 79 48
238 80 49
237 81 50
236 82 52
236 83 53
235 84 54
235 85 55
234 85 56
233 86 57
233 87 58
232 88 59
231 89 60
231 90 61
230 91 62
230 92 63
229 93 65
228 94 66
228 94 67
227 95 68
226 96 69
226 97 69
225 98 70
224 98 71
224 99 72
223 100 73
222 101 74
222 101 75
221 102 76
221 103 77
220 104 78
219 104 79
219 105 79
152 0 0
153 0 0
154 0 0
155 0 0
156 0 0
158 0 0
159 0 0
160 0 0
161 0 0
162 0 0
163 0 0
164 0 0
165 0 0
166 0 0
167 0 0
168 0 0
169 0 0
170 0 0
171 0 0
173 0 0
174 0 0
175 0 0
176 0 0
177 0 0
178 0 0
179 0 0
180 0 0
182 0 0
183 0 0
184 0 0
185 0 0
186 0 0
187 0 0
188 0 0
189 0 0
191 0 0
192 0 0
193 0 0
194 0 0
195 0 0
196 0 0
197 0 0
198 0 0
200 0 0
201 0 0
202 0 0
203 0 0
204 0 0
205 0 0
206 0 0
207 0 0
209 0 0
210 0 0
211 0 0
212 0 0
213 0 0
214 0 0
215 0 0
216 0 0
217 0 0
218 0 0
219 0 0
220 0 0
221 0 0
222 0 0
223 0 0
224 0 0
225 0 0
226 0 0
227 0 0
228 0 0
229 0 0
230 0 0
231 0 0
232 0 0
233 0 0
234 0 0
235 0 0
235 0 0
236 0 0
237 0 0
238 0 0
239 0 0
239 0 0
240 0 0
241 0 0
242 0 0
242 0 0
243 0 0
244 0 0
244 0 0
245 0 0
245 0 0
246 0 0
247 0 0
247 0 0
248 0 0
248 0 0
249 0 0
249 0 0
250 0 0
250 0 0
250 0 0
251 0 0
251 0 0
252 0 0
252 0 0
252 0 0
252 0 0
253 0 0
253 0 0
253 1 0
253 2 0
254 4 0
254 6 0
254 7 0
254 9 0
254 10 0
254 12 0
254 13 0
254 15 0
254 16 0
254 18 0
254 19 0
254 21 0
254 22 0
254 24 0
254 25 0
254 27 0
254 28 0
254 30 0
254 31 0
253 33 0
253 34 1
253 35 2
253 37 4
252 38 5
252 40 7
252 41 8
252 42 10
251 44 11
251 45 13
251 46 14
250 48 16
250 49 17
250 50 19
249 52 20
249 53 22
248 54 23
248 55 24
248 57 26
247 58 27
247 59 28
246 60 30
246 62 31
245 63 33
245 64 34
244 65 35
244 66 36
243 67 38
243 68 39
242 70 40
242 71 42
241 72 43
241 73 44
240 74 45
240 75 46
239 76 48
238 77 49
238 78 50
237 79 51
237 80 52
236 81 54
235 82 55
235 83 56
234 84 57
234 85 58
233 86 59
232 87 60
232 88 61
231 89 62
231 89 63
230 90 64
229 91 65
229 92 66
228 93 67
227 94 68
227 95 69
226 95 70
225 96 71
225 97 72
224 98 73
224 99 74
223 99 75
222 100 76
222 101 77
221 102 78
220 102 78
220 103 79
219 104 80
153 0 0
154 0 0
155 0 0
156 0 0
157 0 0
158 0 0
159 0 0
160 0 0
161 0 0
162 0 0
163 0 0
164 0 0
165 0 0
167 0 0
168 0 0
169 0 0
170 0 0
171 0 0
172 0 0
173 0 0
174 0 0
175 0 0
176 0 0
178 0 0
179 0 0
180 0 0
181 0 0
182 0 0
183 0 0
184 0 0
185 0 0
186 0 0
188 0 0
189 0 0
190 0 0
191 0 0
192 0 0
193 0 0
194 0 0
196 0 0
197 0 0
198 0 0
199 0 0
200 0 0
201 0 0
202 0 0
203 0 0
205 0 0
206 0 0
207 0 0
208 0 0
209 0 0
210 0 0
211 0 0
212 0 0
213 0 0
214 0 0
215 0 0
216 0 0
218 0 0
219 0 0
220 0 0
221 0 0
222 0 0
223 0 0
224 0 0
225 0 0
226 0 0
227 0 0
228 0 0
229 0 0
229 0 0
230 0 0
231 0 0
232 0 0
233 0 0
234 0 0
235 0 0
236 0 0
236 0 0
237 0 0
238 0 0
239 0 0
240 0 0
240 0 0
241 0 0
242 0 0
242 0 0
243 0 0
244 0 0
244 0 0
245 0 0
246 0 0
246 0 0
247 0 0
247 0 0
248 0 0
248 0 0
249 0 0
249 0 0
250 0 0
250 0 0
251 0 0
251 0 0
251 0 0
252 0 0
252 0 0
252 0 0
253 0 0
253 0 0
253 0 0
253 0 0
254 1 0
254 2 0
254 4 0
254 6 0
254 7 0
254 9 0
254 10 0
254 12 0
254 13 0
255 15 0
255 16 0
254 18 0
254 19 0
254 21 0
254 22 0
254 24 0
254 25 0
254 27 0
254 28 0
254 30 0
254 31 0
253 32 2
253 34 3
253 35 5
253 37 6
252 38 8
252 39 9
252 41 11
252 42 12
251 43 14
251 45 15
251 46 17
250 47 18
250 49 20
250 50 21
249 51 23
249 53 24
248 54 25
248 55 27
247 56 28
247 57 29
247 59 31
246 60 32
246 61 34
245 62 35
245 63 36
244 65 37
244 66 39
243 67 40
243 68 41
242 69 42
242 70 44
241 71 45
240 72 46
240 73 47
239 74 49
239 75 50
238 77 51
238 78 52
237 79 53
236 80 54
236 80 55
235 81 57
235 82 58
234 83 59
233 84 60
233 85 61
232 86 62
232 87 63
231 88 64
230 89 65
230 90 66
229 91 67
228 91 68
228 92 69
227 93 70
226 94 71
226 95 72
225 96 73
225 96 74
224 97 75
223 98 76
223 99 77
222 99 77
221 100 78
221 101 79
220 102 80
219 102 81
153 0 0
154 0 0
155 0 0
157 0 0
158 0 0
159 0 0
160 0 0
161 0 0
162 0 0
163 0 0
164 0 0
165 0 0
166 0 0
167 0 0
168 0 0
169 0 0
170 0 0
171 0 0
172 0 0
174 0 0
175 0 0
176 0 0
177 0 0
178 0 0
179 0 0
180 0 0
181 0 0
182 0 0
184 0 0
185 0 0
186 0 0
187 0 0
188 0 0
189 0 0
190 0 0
191 0 0
193 0 0
194 0 0
195 0 0
196 0 0
197 0 0
198 0 0
199 0 0
200 0 0
202 0 0
203 0 0
204 0 0
205 0 0
206 0 0
207 0 0
208 0 0
209 0 0
210 0 0
211 0 0
213 0 0
214 0 0
215 0 0
216 0 0
217 0 0
218 0 0
219 0 0
220 0 0
221 0 0
222 0 0
223 0 0
224 0 0
225 0 0
226 0 0
227 0 0
228 0 0
229 0 0
230 0 0
231 0 0
232 0 0
232 0 0
233 0 0
234 0 0
235 0 0
236 0 0
237 0 0
237 0 0
238 0 0
239 0 0
240 0 0
241 0 0
241 0 0
242 0 0
243 0 0
243 0 0
244 0 0
245 0 0
245 0 0
246 0 0
246 0 0
247 0 0
248 0 0
248 0 0
249 0 0
249 0 0
250 0 0
250 0 0
250 0 0
251 0 0
251 0 0
252 0 0
252 0 0
252 0 0
253 0 0
253 0 0
253 0 0
253 0 0
254 0 0
254 0 0
254 1 0
254 2 0
254 4 0
254 6 0
254 7 0
255 9 0
255 10 0
255 12 0
255 13 0
255 15 0
255 16 0
255 18 0
255 19 0
255 21 0
254 22 0
254 24 0
254 25 0
254 26 0
254 28 0
254 29 1
254 31 3
253 32 5
253 34 6
253 35 8
253 36 9
252 38 11
252 39 12
252 40 13
252 42 15
251 43 16
251 44 18
251 46 19
250 47 21
250 48 22
249 50 24
249 51 25
249 52 26
248 53 28
248 55 29
247 56 30
247 57 32
246 58 33
246 59 34
245 61 36
245 62 37
244 63 38
244 64 40
243 65 41
243 66 42
242 68 43
242 69 45
241 70 46
241 71 47
240 72 48
240 73 49
239 74 51
238 75 52
238 76 53
237 77 54
237 78 55
236 79 56
236 80 57
235 81 59
234 82 60
234 83 61
233 84 62
232 85 63
232 86 64
231 86 65
231 87 66
230 88 67
229 89 68
229 90 69
228 91 70
227 92 71
227 92 72
226 93 73
226 94 74
225 95 75
224 96 75
224 96 76
223 97 77
222 98 78
222 99 79
221 99 80
220 100 81
220 101 82
154 0 0
155 0 0
156 0 0
157 0 0
158 0 0
159 0 0
160 0 0
161 0 0
162 0 0
163 0 0
164 0 0
165 0 0
166 0 0
168 0 0
169 0 0
170 0 0
171 0 0
172 0 0
173 0 0
174 0 0
175 0 0
176 0 0
177 0 0
178 0 0
180 0 0
181 0 0
182 0 0
183 0 0
184 0 0
185 0 0
186 0 0
187 0 0
189 0 0
190 0 0
191 0 0
192 0 0
193 0 0
194 0 0
195 0 0
196 0 0
197 0 0
199 0 0
200 0 0
201 0 0
202 0 0
203 0 0
204 0 0
205 0 0
206 0 0
207 0 0
209 0 0
210 0 0
211 0 0
212 0 0
213 0 0
214 0 0
215 0 0
216 0 0
217 0 0
218 0 0
219 0 0
220 0 0
221 0 0
222 0 0
223 0 0
224 0 0
225 0 0
226 0 0
227 0 0
228 0 0
229 0 0
230 0 0
231 0 0
232 0 0
233 0 0
234 0 0
234 0 0
235 0 0
236 0 0
237 0 0
238 0 0
238 0 0
239 0 0
240 0 0
241 0 0
241 0 0
242 0 0
243 0 0
244 0 0
244 0 0
245 0 0
245 0 0
246 0 0
247 0 0
247 0 0
248 0 0
248 0 0
249 0 0
249 0 0
250 0 0
250 0 0
251 0 0
251 0 0
251 0 0
252 0 0
252 0 0
252 0 0
253 0 0
253 0 0
253 0 0
253 0 0
254 0 0
254 0 0
254 0 0
254 1 0
254 2 0
254 4 0
255 5 0
255 7 0
255 9 0
255 10 0
255 12 0
255 13 0
255 15 0
255 16 0
255 18 0
255 19 0
255 20 0
254 22 0
254 23 0
254 25 0
254 26 1
254 28 3
254 29 4
254 31 6
253 32 7
253 33 9
253 35 10
253 36 12
252 37 13
252 39 15
252 40 16
251 42 17
251 43 19
251 44 20
250 45 22
250 47 23
250 48 25
249 49 26
249 51 27
248 52 29
248 53 30
248 54 31
247 56 33
247 57 34
246 58 35
246 59 37
245 60 38
245 61 39
244 63 41
244 64 42
243 65 43
243 66 44
242 67 46
242 68 47
241 69 48
240 70 49
240 71 50
239 72 51
239 73 53
238 74 54
238 75 55
237 76 56
236 77 57
236 78 58
235 79 59
235 80 60
234 81 61
233 82 63
233 83 64
232 84 65
232 85 66
231 86 67
230 87 68
230 88 69
229 88 70
228 89 71
228 90 72
227 91 73
227 92 73
226 93 74
225 93 75
225 94 76
224 95 77
223 96 78
223 97 79
222 97 80
221 98 81
221 99 81
220 100 82
154 0 0
155 0 0
157 0 0
158 0 0
159 0 0
160 0 0
161 0 0
162 0 0
163 0 0
164 0 0
165 0 0
166 0 0
167 0 0
168 0 0
169 0 0
170 0 0
171 0 0
172 0 0
173 0 0
175 0 0
176 0 0
177 0 0
178 0 0
179 0 0
180 0 0
181 0 0
182 0 0
183 0 0
184 0 0
186 0 0
187 0 0
188 0 0
189 0 0
190 0 0
191 0 0
192 0 0
193 0 0
195 0 0
196 0 0
197 0 0
198 0 0
199 0 0
200 0 0
201 0 0
202 0 0
203 0 0
205 0 0
206 0 0
207 0 0
208 0 0
209 0 0
210 0 0
211 0 0
212 0 0
213 0 0
214 0 0
215 0 0
216 0 0
217 0 0
218 0 0
220 0 0
221 0 0
222 0 0
223 0 0
224 0 0
225 0 0
225 0 0
226 0 0
227 0 0
228 0 0
229 0 0
230 0 0
231 0 0
232 0 0
233 0 0
234 0 0
235 0 0
235 0 0
236 0 0
237 0 0
238 0 0
239 0 0
239 0 0
240 0 0
241 0 0
242 0 0
242 0 0
243 0 0
244 0 0
244 0 0
245 0 0
246 0 0
246 0 0
247 0 0
247 0 0
248 0 0
248 0 0
249 0 0
249 0 0
250 0 0
250 0 0
251 0 0
251 0 0
251 0 0
252 0 0
252 0 0
252 0 0
253 0 0
253 0 0
253 0 0
254 0 0
254 0 0
254 0 0
254 0 0
254 0 0
255 1 0
255 2 0
255 4 0
255 5 0
255 7 0
255 8 0
255 10 0
255 11 0
255 13 0
255 14 0
255 16 0
255 17 0
255 19 0
255 20 0
255 22 0
254 23 1
254 25 2
254 26 4
254 28 5
254 29 7
253 30 8
253 32 10
253 33 11
253 35 13
252 36 14
252 37 16
252 39 17
252 40 19
251 41 20
251 43 21
251 44 23
250 45 24
250 46 26
249 48 27
249 49 28
249 50 30
248 51 31
248 53 32
247 54 34
247 55 35
246 56 36
246 58 38
245 59 39
245 60 40
244 61 41
244 62 43
243 63 44
243 64 45
242 65 46
242 67 48
241 68 49
241 69 50
240 70 51
240 71 52
239 72 53
238 73 55
238 74 56
237 75 57
237 76 58
236 77 59
236 78 60
235 79 61
234 80 62
234 81 63
233 82 64
233 83 65
232 83 66
231 84 67
231 85 68
230 86 69
229 87 70
229 88 71
228 89 72
228 90 73
227 90 74
226 91 75
226 92 76
225 93 77
224 94 78
224 94 79
223 95 80
222 96 80
222 97 81
221 97 82
221 98 83
155 0 0
156 0 0
157 0 0
158 0 0
159 0 0
160 0 0
161 0 0
162 0 0
163 0 0
164 0 0
165 0 0
166 0 0
167 0 0
169 0 0
170 0 0
171 0 0
172 0 0
173 0 0
174 0 0
175 0 0
176 0 0
177 0 0
178 0 0
179 0 0
180 0 0
182 0 0
183 0 0
184 0 0
185 0 0
186 0 0
187 0 0
188 0 0
189 0 0
190 0 0
192 0 0
193 0 0
194 0 0
195 0 0
196 0 0
197 0 0
198 0 0
199 0 0
200 0 0
202 0 0
203 0 0
204 0 0
205 0 0
206 0 0
207 0 0
208 0 0
209 0 0
210 0 0
211 0 0
212 0 0
214 0 0
215 0 0
216 0 0
217 0 0
218 0 0
219 0 0
220 0 0
221 0 0
222 0 0
223 0 0
224 0 0
225 0 0
226 0 0
227 0 0
228 0 0
229 0 0
230 0 0
230 0 0
231 0 0
232 0 0
233 0 0
234 0 0
235 0 0
236 0 0
236 0 0
237 0 0
238 0 0
239 0 0
240 0 0
240 0 0
241 0 0
242 0 0
243 0 0
243 0 0
244 0 0
244 0 0
245 0 0
246 0 0
246 0 0
247 0 0
247 0 0
248 0 0
249 0 0
249 0 0
249 0 0
250 0 0
250 0 0
251 0 0
251 0 0
252 0 0
252 0 0
252 0 0
253 0 0
253 0 0
253 0 0
253 0 0
254 0 0
254 0 0
254 0 0
254 0 0
254 0 0
255 0 0
255 1 0
255 2 0
255 4 0
255 5 0
255 7 0
255 8 0
255 10 0
255 11 0
255 13 0
255 14 0
255 16 0
255 17 0
255 19 0
255 20 0
255 22 2
254 23 3
254 25 5
254 26 6
254 27 8
254 29 9
253 30 11
253 32 12
253 33 14
253 34 15
252 36 17
252 37 18
252 38 20
251 40 21
251 41 22
251 42 24
250 44 25
250 45 27
250 46 28
249 47 29
249 49 31
248 50 32
248 51 33
248 52 35
247 54 36
247 55 37
246 56 39
246 57 40
245 58 41
245 59 42
244 61 44
244 62 45
243 63 46
243 64 47
242 65 48
242 66 50
241 67 51
240 68 52
240 69 53
239 70 54
239 71 55
238 72 57
238 73 58
237 74 59
236 75 60
236 76 61
235 77 62
235 78 63
234 79 64
233 80 65
233 81 66
232 82 67
232 83 68
231 84 69
230 85 70
230 86 71
229 86 72
228 87 73
228 88 74
227 89 75
227 90 76
226 91 77
225 91 78
225 92 79
224 93 79
223 94 80
223 94 81
222 95 82
221 96 83
221 97 84
155 0 0
157 0 0
158 0 0
159 0 0
160 0 0
161 0 0
162 0 0
163 0 0
164 0 0
165 0 0
166 0 0
167 0 0
168 0 0
169 0 0
170 0 0
171 0 0
172 0 0
173 0 0
174 0 0
175 0 0
177 0 0
178 0 0
179 0 0
180 0 0
181 0 0
182 0 0
183 0 0
184 0 0
185 0 0
186 0 0
188 0 0
189 0 0
190 0 0
191 0 0
192 0 0
193 0 0
194 0 0
195 0 0
196 0 0
198 0 0
199 0 0
200 0 0
201 0 0
202 0 0
203 0 0
204 0 0
205 0 0
206 0 0
207 0 0
208 0 0
210 0 0
211 0 0
212 0 0
213 0 0
214 0 0
215 0 0
216 0 0
217 0 0
218 0 0
219 0 0
220 0 0
221 0 0
222 0 0
223 0 0
224 0 0
225 0 0
226 0 0
227 0 0
228 0 0
229 0 0
230 0 0
231 0 0
232 0 0
232 0 0
233 0 0
234 0 0
235 0 0
236 0 0
237 0 0
237 0 0
238 0 0
239 0 0
240 0 0
241 0 0
241 0 0
242 0 0
243 0 0
243 0 0
244 0 0
245 0 0
245 0 0
246 0 0
246 0 0
247 0 0
248 0 0
248 0 0
249 0 0
249 0 0
250 0 0
250 0 0
250 0 0
251 0 0
251 0 0
252 0 0
252 0 0
252 0 0
253 0 0
253 0 0
253 0 0
254 0 0
254 0 0
254 0 0
254 0 0
254 0 0
255 0 0
255 0 0
255 0 0
255 1 0
255 2 0
255 4 0
255 5 0
255 7 0
255 8 0
255 10 0
255 11 0
255 13 0
255 14 0
255 16 0
255 17 0
255 19 1
255 20 3
255 22 4
254 23 6
254 24 7
254 26 9
254 27 10
254 29 12
253 30 13
253 31 15
253 33 16
253 34 18
252 35 19
252 37 21
252 38 22
251 39 23
251 41 25
251 42 26
250 43 28
250 45 29
249 46 30
249 47 32
249 48 33
248 50 34
248 51 36
247 52 37
247 53 38
246 54 39
246 56 41
245 57 42
245 58 43
244 59 45
244 60 46
243 61 47
243 62 48
242 63 49
242 65 51
241 66 52
241 67 53
240 68 54
240 69 55
239 70 56
238 71 57
238 72 59
237 73 60
237 74 61
236 75 62
236 76 63
235 77 64
234 78 65
234 79 66
233 80 67
232 81 68
232 81 69
231 82 70
231 83 71
230 84 72
229 85 73
229 86 74
228 87 75
228 87 76
227 88 77
226 89 77
226 90 78
225 91 79
224 92 80
224 92 81
223 93 82
222 94 83
222 95 84
221 95 84
156 0 0
157 0 0
158 0 0
159 0 0
160 0 0
161 0 0
162 0 0
163 0 0
164 0 0
165 0 0
166 0 0
167 0 0
168 0 0
169 0 0
171 0 0
172 0 0
173 0 0
174 0 0
175 0 0
176 0 0
177 0 0
178 0 0
179 0 0
180 0 0
181 0 0
182 0 0
184 0 0
185 0 0
186 0 0
187 0 0
188 0 0
189 0 0
190 0 0
191 0 0
192 0 0
193 0 0
195 0 0
196 0 0
197 0 0
198 0 0
199 0 0
200 0 0
201 0 0
202 0 0
203 0 0
204 0 0
206 0 0
207 0 0
208 0 0
209 0 0
210 0 0
211 0 0
212 0 0
213 0 0
214 0 0
215 0 0
216 0 0
217 0 0
218 0 0
219 0 0
220 0 0
221 0 0
222 0 0
223 0 0
224 0 0
225 0 0
226 0 0
227 0 0
228 0 0
229 0 0
230 0 0
231 0 0
232 0 0
233 0 0
233 0 0
234 0 0
235 0 0
236 0 0
237 0 0
238 0 0
238 0 0
239 0 0
240 0 0
241 0 0
241 0 0
242 0 0
243 0 0
243 0 0
244 0 0
245 0 0
245 0 0
246 0 0
247 0 0
247 0 0
248 0 0
248 0 0
249 0 0
249 0 0
250 0 0
250 0 0
251 0 0
251 0 0
251 0 0
252 0 0
252 0 0
252 0 0
253 0 0
253 0 0
253 0 0
254 0 0
254 0 0
254 0 0
254 0 0
254 0 0
255 0 0
255 0 0
255 0 0
255 0 0
255 1 0
255 2 0
255 4 0
255 5 0
255 7 0
255 8 0
255 10 0
255 11 0
255 13 0
255 14 0
255 16 1
255 17 2
255 19 4
255 20 6
254 21 7
254 23 9
254 24 10
254 26 11
254 27 13
253 28 14
253 30 16
253 31 17
253 32 19
252 34 20
252 35 22
252 37 23
251 38 24
251 39 26
251 40 27
250 42 29
250 43 30
250 44 31
249 46 33
249 47 34
248 48 35
248 49 37
247 50 38
247 52 39
247 53 40
246 54 42
246 55 43
245 56 44
245 57 45
244 59 47
244 60 48
243 61 49
243 62 50
242 63 51
241 64 53
241 65 54
240 66 55
240 67 56
239 68 57
239 69 58
238 70 59
238 71 60
237 72 61
236 73 63
236 74 64
235 75 65
235 76 66
234 77 67
233 78 68
233 79 69
232 80 70
232 81 71
231 82 72
230 83 73
230 84 74
229 84 75
228 85 75
228 86 76
227 87 77
227 88 78
226 89 79
225 89 80
225 90 81
224 91 82
223 92 83
223 92 83
222 93 84
222 94 85
156 0 0
157 0 0
158 0 0
159 0 0
161 0 0
162 0 0
163 0 0
164 0 0
165 0 0
166 0 0
167 0 0
168 0 0
169 0 0
170 0 0
171 0 0
172 0 0
173 0 0
174 0 0
175 0 0
176 0 0
177 0 0
178 0 0
180 0 0
181 0 0
182 0 0
183 0 0
184 0 0
185 0 0
186 0 0
187 0 0
188 0 0
189 0 0
191 0 0
192 0 0
193 0 0
194 0 0
195 0 0
196 0 0
197 0 0
198 0 0
199 0 0
200 0 0
202 0 0
203 0 0
204 0 0
205 0 0
206 0 0
207 0 0
208 0 0
209 0 0
210 0 0
211 0 0
212 0 0
213 0 0
214 0 0
215 0 0
216 0 0
218 0 0
219 0 0
220 0 0
221 0 0
222 0 0
223 0 0
224 0 0
224 0 0
225 0 0
226 0 0
227 0 0
228 0 0
229 0 0
230 0 0
231 0 0
232 0 0
233 0 0
234 0 0
234 0 0
235 0 0
236 0 0
237 0 0
238 0 0
239 0 0
239 0 0
240 0 0
241 0 0
241 0 0
242 0 0
243 0 0
244 0 0
244 0 0
245 0 0
245 0 0
246 0 0
247 0 0
247 0 0
248 0 0
248 0 0
249 0 0
249 0 0
250 0 0
250 0 0
251 0 0
251 0 0
251 0 0
252 0 0
252 0 0
253 0 0
253 0 0
253 0 0
253 0 0
254 0 0
254 0 0
254 0 0
254 0 0
255 0 0
255 0 0
255 0 0
255 0 0
255 0 0
255 0 0
255 1 0
255 2 0
255 4 0
255 5 0
255 7 0
255 8 0
255 10 0
255 11 0
255 13 1
255 14 2
255 16 4
255 17 5
255 18 7
255 20 8
254 21 10
254 23 11
254 24 13
254 25 14
254 27 15
253 28 17
253 30 18
253 31 20
252 32 21
252 34 23
252 35 24
252 36 25
251 38 27
251 39 28
250 40 30
250 41 31
250 43 32
249 44 34
249 45 35
248 46 36
248 48 37
248 49 39
247 50 40
247 51 41
246 52 43
246 54 44
245 55 45
245 56 46
244 57 47
244 58 49
243 59 50
243 60 51
242 62 52
242 63 53
241 64 55
241 65 56
240 66 57
239 67 58
239 68 59
238 69 60
238 70 61
237 71 62
237 72 63
236 73 64
235 74 65
235 75 66
234 76 67
234 77 68
233 78 69
232 79 70
232 79 71
231 80 72
231 81 73
230 82 74
229 83 75
229 84 76
228 85 77
228 85 78
227 86 79
226 87 80
226 88 81
225 89 82
224 90 82
224 90 83
223 91 84
222 92 85
222 93 86
157 0 0
158 0 0
159 0 0
160 0 0
161 0 0
162 0 0
163 0 0
164 0 0
165 0 0
166 0 0
167 0 0
168 0 0
169 0 0
170 0 0
171 0 0
172 0 0
174 0 0
175 0 0
176 0 0
177 0 0
178 0 0
179 0 0
180 0 0
181 0 0
182 0 0
183 0 0
184 0 0
185 0 0
187 0 0
188 0 0
189 0 0
190 0 0
191 0 0
192 0 0
193 0 0
194 0 0
195 0 0
196 0 0
197 0 0
199 0 0
200 0 0
201 0 0
202 0 0
203 0 0
204 0 0
205 0 0
206 0 0
207 0 0
208 0 0
209 0 0
210 0 0
212 0 0
213 0 0
214 0 0
215 0 0
216 0 0
217 0 0
218 0 0
219 0 0
220 0 0
221 0 0
222 0 0
223 0 0
224 0 0
225 0 0
226 0 0
227 0 0
228 0 0
228 0 0
229 0 0
230 0 0
231 0 0
232 0 0
233 0 0
234 0 0
235 0 0
235 0 0
236 0 0
237 0 0
238 0 0
239 0 0
239 0 0
240 0 0
241 0 0
242 0 0
242 0 0
243 0 0
244 0 0
244 0 0
245 0 0
246 0 0
246 0 0
247 0 0
247 0 0
248 0 0
248 0 0
249 0 0
249 0 0
250 0 0
250 0 0
251 0 0
251 0 0
252 0 0
252 0 0
252 0 0
253 0 0
253 0 0
253 0 0
253 0 0
254 0 0
254 0 0
254 0 0
254 0 0
255 0 0
255 0 0
255 0 0
255 0 0
255 0 0
255 0 0
255 0 0
255 1 0
255 2 0
255 4 0
255 5 0
255 7 0
255 8 0
255 10 0
255 11 2
255 13 3
255 14 5
255 15 6
255 17 8
255 18 9
254 20 11
254 21 12
254 23 14
254 24 15
254 25 16
253 27 18
253 28 19
253 29 21
253 31 22
252 32 24
252 33 25
252 35 26
251 36 28
251 37 29
251 39 30
250 40 32
250 41 33
249 42 34
249 44 36
249 45 37
248 46 38
248 47 40
247 49 41
247 50 42
246 51 43
246 52 45
245 53 46
245 54 47
244 56 48
244 57 50
243 58 51
243 59 52
242 60 53
242 61 54
241 62 55
241 63 56
240 64 58
240 65 59
239 66 60
239 67 61
238 68 62
237 69 63
237 70 64
236 71 65
236 72 66
235 73 67
234 74 68
234 75 69
233 76 70
233 77 71
232 78 72
231 79 73
231 80 74
230 81 75
230 81 76
229 82 77
228 83 78
228 84 79
227 85 80
227 86 80
226 87 81
225 87 82
225 88 83
224 89 84
223 90 85
223 90 86
222 91 86
157 0 0
158 0 0
159 0 0
160 0 0
161 0 0
162 0 0
163 0 0
165 0 0
166 0 0
167 0 0
168 0 0
169 0 0
170 0 0
171 0 0
172 0 0
173 0 0
174 0 0
175 0 0
176 0 0
177 0 0
178 0 0
179 0 0
180 0 0
181 0 0
183 0 0
184 0 0
185 0 0
186 0 0
187 0 0
188 0 0
189 0 0
190 0 0
191 0 0
192 0 0
193 0 0
195 0 0
196 0 0
197 0 0
198 0 0
199 0 0
200 0 0
201 0 0
202 0 0
203 0 0
204 0 0
205 0 0
206 0 0
208 0 0
209 0 0
210 0 0
211 0 0
212 0 0
213 0 0
214 0 0
215 0 0
216 0 0
217 0 0
218 0 0
219 0 0
220 0 0
221 0 0
222 0 0
223 0 0
224 0 0
225 0 0
226 0 0
227 0 0
228 0 0
229 0 0
230 0 0
230 0 0
231 0 0
232 0 0
233 0 0
234 0 0
235 0 0
236 0 0
236 0 0
237 0 0
238 0 0
239 0 0
240 0 0
240 0 0
241 0 0
242 0 0
242 0 0
243 0 0
244 0 0
244 0 0
245 0 0
246 0 0
246 0 0
247 0 0
247 0 0
248 0 0
248 0 0
249 0 0
249 0 0
250 0 0
250 0 0
251 0 0
251 0 0
252 0 0
252 0 0
252 0 0
253 0 0
253 0 0
253 0 0
254 0 0
254 0 0
254 0 0
254 0 0
254 0 0
255 0 0
255 0 0
255 0 0
255 0 0
255 0 0
255 0 0
255 0 0
255 0 0
255 1 0
255 2 0
255 4 0
255 5 0
255 7 0
255 8 1
255 10 3
255 11 4
255 13 6
255 14 7
255 15 9
255 17 10
255 18 12
254 20 13
254 21 15
254 22 16
254 24 18
253 25 19
253 26 20
253 28 22
253 29 23
252 31 25
252 32 26
252 33 27
251 34 29
251 36 30
251 37 31
250 38 33
250 40 34
250 41 35
249 42 37
249 43 38
248 45 39
248 46 41
247 47 42
247 48 43
247 49 44
246 51 46
246 52 47
245 53 48
245 54 49
244 55 50
244 56 52
243 57 53
243 58 54
242 60 55
242 61 56
241 62 57
240 63 58
240 64 60
239 65 61
239 66 62
238 67 63
238 68 64
237 69 65
236 70 66
236 71 67
235 72 68
235 73 69
234 74 70
234 75 71
233 76 72
232 77 73
232 77 74
231 78 75
231 79 76
230 80 77
229 81 78
229 82 78
228 83 79
227 83 80
227 84 81
226 85 82
226 86 83
225 87 84
224 88 85
224 88 85
223 89 86
222 90 87
158 0 0
159 0 0
160 0 0
161 0 0
162 0 0
163 0 0
164 0 0
165 0 0
166 0 0
167 0 0
168 0 0
169 0 0
170 0 0
171 0 0
172 0 0
173 0 0
174 0 0
175 0 0
176 0 0
178 0 0
179 0 0
180 0 0
181 0 0
182 0 0
183 0 0
184 0 0
185 0 0
186 0 0
187 0 0
188 0 0
189 0 0
191 0 0
192 0 0
193 0 0
194 0 0
195 0 0
196 0 0
197 0 0
198 0 0
199 0 0
200 0 0
201 0 0
202 0 0
204 0 0
205 0 0
206 0 0
207 0 0
208 0 0
209 0 0
210 0 0
211 0 0
212 0 0
213 0 0
214 0 0
215 0 0
216 0 0
217 0 0
218 0 0
219 0 0
220 0 0
221 0 0
222 0 0
223 0 0
224 0 0
225 0 0
226 0 0
227 0 0
228 0 0
229 0 0
230 0 0
231 0 0
231 0 0
232 0 0
233 0 0
234 0 0
235 0 0
236 0 0
237 0 0
237 0 0
238 0 0
239 0 0
240 0 0
240 0 0
241 0 0
242 0 0
242 0 0
243 0 0
244 0 0
244 0 0
245 0 0
246 0 0
246 0 0
247 0 0
247 0 0
248 0 0
248 0 0
249 0 0
249 0 0
250 0 0
250 0 0
251 0 0
251 0 0
252 0 0
252 0 0
252 0 0
253 0 0
253 0 0
253 0 0
254 0 0
254 0 0
254 0 0
254 0 0
254 0 0
255 0 0
255 0 0
255 0 0
255 0 0
255 0 0
255 0 0
255 0 0
255 0 0
255 0 0
255 1 0
255 2 0
255 4 0
255 5 1
255 7 2
255 8 4
255 10 5
255 11 7
255 12 8
255 14 10
255 15 11
255 17 13
254 18 14
254 19 16
254 21 17
254 22 19
254 24 20
253 25 21
253 26 23
253 28 24
252 29 26
252 30 27
252 32 28
252 33 30
251 34 31
251 36 32
250 37 34
250 38 35
250 39 36
249 41 38
249 42 39
248 43 40
248 44 41
248 45 43
247 47 44
247 48 45
246 49 46
246 50 48
245 51 49
245 52 50
244 54 51
244 55 52
243 56 54
243 57 55
242 58 56
242 59 57
241 60 58
241 61 59
240 62 60
240 63 61
239 64 62
238 65 64
238 66 65
237 67 66
237 68 67
236 69 68
236 70 69
235 71 70
234 72 71
234 73 72
233 74 73
233 75 74
232 76 75
231 77 76
231 78 76
230 79 77
230 80 78
229 80 79
228 81 80
228 82 81
227 83 82
226 84 83
226 85 84
225 85 84
225 86 85
224 87 86
223 88 87
223 88 88
158 0 0
159 0 0
160 0 0
161 0 0
162 0 0
163 0 0
164 0 0
165 0 0
166 0 0
167 0 0
168 0 0
170 0 0
171 0 0
172 0 0
173 0 0
174 0 0
175 0 0
176 0 0
177 0 0
178 0 0
179 0 0
180 0 0
181 0 0
182 0 0
183 0 0
184 0 0
185 0 0
187 0 0
188 0 0
189 0 0
190 0 0
191 0 0
192 0 0
193 0 0
194 0 0
195 0 0
196 0 0
197 0 0
198 0 0
200 0 0
201 0 0
202 0 0
203 0 0
204 0 0
205 0 0
206 0 0
207 0 0
208 0 0
209 0 0
210 0 0
211 0 0
212 0 0
213 0 0
214 0 0
215 0 0
216 0 0
217 0 0
218 0 0
219 0 0
220 0 0
221 0 0
222 0 0
223 0 0
224 0 0
225 0 0
226 0 0
227 0 0
228 0 0
229 0 0
230 0 0
231 0 0
232 0 0
232 0 0
233 0 0
234 0 0
235 0 0
236 0 0
237 0 0
237 0 0
238 0 0
239 0 0
240 0 0
240 0 0
241 0 0
242 0 0
243 0 0
243 0 0
244 0 0
244 0 0
245 0 0
246 0 0
246 0 0
247 0 0
247 0 0
248 0 0
248 0 0
249 0 0
249 0 0
250 0 0
250 0 0
251 0 0
251 0 0
252 0 0
252 0 0
252 0 0
253 0 0
253 0 0
253 0 0
254 0 0
254 0 0
254 0 0
254 0 0
254 0 0
255 0 0
255 0 0
255 0 0
255 0 0
255 0 0
255 0 0
255 0 0
255 0 0
255 0 0
255 0 0
255 1 0
255 2 0
255 4 2
255 5 3
255 7 5
255 8 6
255 9 8
255 11 9
255 12 11
255 14 12
255 15 14
254 17 15
254 18 17
254 19 18
254 21 20
254 22 21
253 23 22
253 25 24
253 26 25
253 27 27
252 29 28
252 30 29
252 31 31
251 33 32
251 34 33
251 35 35
250 37 36
250 38 37
249 39 39
249 40 40
249 42 41
248 43 42
248 44 44
247 45 45
247 46 46
246 48 47
246 49 48
245 50 50
245 51 51
244 52 52
244 53 53
243 54 54
243 55 56
242 57 57
242 58 58
241 59 59
241 60 60
240 61 61
240 62 62
239 63 63
239 64 64
238 65 65
237 66 66
237 67 67
236 68 68
236 69 69
235 70 70
235 71 71
234 72 72
233 73 73
233 74 74
232 75 75
232 75 76
231 76 77
230 77 78
230 78 79
229 79 80
229 80 81
228 81 82
227 81 82
227 82 83
226 83 84
226 84 85
225 85 86
224 86 87
224 86 88
223 87 88
159 0 0
160 0 0
161 0 0
162 0 0
163 0 0
164 0 0
165 0 0
166 0 0
167 0 0
168 0 0
169 0 0
170 0 0
171 0 0
172 0 0
173 0 0
174 0 0
175 0 0
176 0 0
177 0 0
178 0 0
179 0 0
180 0 0
182 0 0
183 0 0
184 0 0
185 0 0
186 0 0
187 0 0
188 0 0
189 0 0
190 0 0
191 0 0
192 0 0
193 0 0
194 0 0
196 0 0
197 0 0
198 0 0
199 0 0
200 0 0
201 0 0
202 0 0
203 0 0
204 0 0
205 0 0
206 0 0
207 0 0
208 0 0
209 0 0
210 0 0
211 0 0
212 0 0
214 0 0
215 0 0
216 0 0
217 0 0
218 0 0
219 0 0
220 0 0
221 0 0
222 0 0
223 0 0
223 0 0
224 0 0
225 0 0
226 0 0
227 0 0
228 0 0
229 0 0
230 0 0
231 0 0
232 0 0
233 0 0
233 0 0
234 0 0
235 0 0
236 0 0
237 0 0
237 0 0
238 0 0
239 0 0
240 0 0
240 0 0
241 0 0
242 0 0
243 0 0
243 0 0
244 0 0
245 0 0
245 0 0
246 0 0
246 0 0
247 0 0
247 0 0
248 0 0
248 0 0
249 0 0
249 0 0
250 0 0
250 0 0
251 0 0
251 0 0
252 0 0
252 0 0
252 0 0
253 0 0
253 0 0
253 0 0
254 0 0
254 0 0
254 0 0
254 0 0
254 0 0
255 0 0
255 0 0
255 0 0
255 0 0
255 0 0
255 0 0
255 0 0
255 0 0
255 0 0
255 0 0
255 0 0
255 1 2
255 2 3
255 4 5
255 5 6
255 7 8
255 8 9
255 9 10
255 11 12
255 12 13
255 14 15
254 15 16
254 16 18
254 18 19
254 19 21
254 21 22
253 22 23
253 23 25
253 25 26
253 26 27
252 27 29
252 29 30
252 30 32
251 31 33
251 32 34
251 34 36
250 35 37
250 36 38
249 38 39
249 39 41
249 40 42
248 41 43
248 42 44
247 44 46
247 45 47
246 46 48
246 47 49
246 48 51
245 49 52
245 51 53
244 52 54
244 53 55
243 54 56
243 55 57
242 56 59
242 57 60
241 58 61
240 59 62
240 60 63
239 61 64
239 62 65
238 64 66
238 65 67
237 66 68
237 66 69
236 67 70
235 68 71
235 69 72
234 70 73
234 71 74
233 72 75
232 73 76
232 74 77
231 75 78
231 76 79
230 77 80
229 78 81
229 78 81
228 79 82
228 80 83
227 81 84
226 82 85
226 83 86
225 83 87
225 84 87
224 85 88
223 86 89
159 0 0
160 0 0
161 0 0
162 0 0
163 0 0
164 0 0
165 0 0
166 0 0
167 0 0
168 0 0
169 0 0
170 0 0
171 0 0
172 0 0
173 0 0
175 0 0
176 0 0
177 0 0
178 0 0
179 0 0
180 0 0
181 0 0
182 0 0
183 0 0
184 0 0
185 0 0
186 0 0
187 0 0
188 0 0
189 0 0
190 0 0
192 0 0
193 0 0
194 0 0
195 0 0
196 0 0
197 0 0
198 0 0
199 0 0
200 0 0
201 0 0
202 0 0
203 0 0
204 0 0
205 0 0
206 0 0
208 0 0
209 0 0
210 0 0
211 0 0
212 0 0
213 0 0
214 0 0
215 0 0
216 0 0
217 0 0
218 0 0
219 0 0
220 0 0
221 0 0
222 0 0
223 0 0
224 0 0
225 0 0
226 0 0
226 0 0
227 0 0
228 0 0
229 0 0
230 0 0
231 0 0
232 0 0
233 0 0
234 0 0
234 0 0
235 0 0
236 0 0
237 0 0
238 0 0
238 0 0
239 0 0
240 0 0
241 0 0
241 0 0
242 0 0
243 0 0
243 0 0
244 0 0
245 0 0
245 0 0
246 0 0
246 0 0
247 0 0
247 0 0
248 0 0
248 0 0
249 0 0
249 0 0
250 0 0
250 0 0
251 0 0
251 0 0
252 0 0
252 0 0
252 0 0
253 0 0
253 0 0
253 0 0
254 0 0
254 0 0
254 0 0
254 0 0
254 0 0
255 0 0
255 0 0
255 0 0
255 0 0
255 0 0
255 0 0
255 0 0
255 0 0
255 0 0
255 0 0
255 0 1
255 0 3
255 1 4
255 2 6
255 4 7
255 5 9
255 7 10
255 8 12
255 9 13
255 11 14
255 12 16
254 14 17
254 15 19
254 16 20
254 18 22
254 19 23
253 20 24
253 22 26
253 23 27
253 24 28
252 26 30
252 27 31
252 28 32
251 30 34
251 31 35
251 32 36
250 34 38
250 35 39
250 36 40
249 37 42
249 39 43
248 40 44
248 41 45
248 42 47
247 43 48
247 45 49
246 46 50
246 47 51
245 48 53
245 49 54
244 50 55
244 51 56
243 53 57
243 54 58
242 55 59
242 56 60
241 57 62
241 58 63
240 59 64
240 60 65
239 61 66
238 62 67
238 63 68
237 64 69
237 65 70
236 66 71
236 67 72
235 68 73
234 69 74
234 70 75
233 71 76
233 72 77
232 73 78
231 73 79
231 74 79
230 75 80
230 76 81
229 77 82
228 78 83
228 79 84
227 80 85
227 80 86
226 81 86
225 82 87
225 83 88
224 84 89
224 84 90
160 0 0
161 0 0
162 0 0
163 0 0
164 0 0
165 0 0
166 0 0
167 0 0
168 0 0
169 0 0
170 0 0
171 0 0
172 0 0
173 0 0
174 0 0
175 0 0
176 0 0
177 0 0
178 0 0
179 0 0
180 0 0
181 0 0
182 0 0
183 0 0
184 0 0
185 0 0
186 0 0
188 0 0
189 0 0
190 0 0
191 0 0
192 0 0
193 0 0
194 0 0
195 0 0
196 0 0
197 0 0
198 0 0
199 0 0
200 0 0
201 0 0
202 0 0
204 0 0
205 0 0
206 0 0
207 0 0
208 0 0
209 0 0
210 0 0
211 0 0
212 0 0
213 0 0
214 0 0
215 0 0
216 0 0
217 0 0
218 0 0
219 0 0
220 0 0
221 0 0
222 0 0
223 0 0
224 0 0
225 0 0
226 0 0
227 0 0
227 0 0
228 0 0
229 0 0
230 0 0
231 0 0
232 0 0
233 0 0
234 0 0
234 0 0
235 0 0
236 0 0
237 0 0
238 0 0
238 0 0
239 0 0
240 0 0
241 0 0
241 0 0
242 0 0
243 0 0
243 0 0
244 0 0
245 0 0
245 0 0
246 0 0
246 0 0
247 0 0
247 0 0
248 0 0
248 0 0
249 0 0
249 0 0
250 0 0
250 0 0
251 0 0
251 0 0
252 0 0
252 0 0
252 0 0
253 0 0
253 0 0
253 0 0
253 0 0
254 0 0
254 0 0
254 0 0
254 0 0
255 0 0
255 0 0
255 0 0
255 0 0
255 0 0
255 0 0
255 0 0
255 0 0
255 0 0
255 0 1
255 0 2
255 0 4
255 0 5
255 1 7
255 2 8
255 4 10
255 5 11
255 6 13
255 8 14
255 9 15
255 11 17
254 12 18
254 13 20
254 15 21
254 16 23
254 18 24
253 19 25
253 20 27
253 22 28
253 23 29
252 24 31
252 26 32
252 27 33
251 28 35
251 29 36
251 31 37
250 32 39
250 33 40
250 35 41
249 36 42
249 37 44
248 38 45
248 39 46
248 41 47
247 42 49
247 43 50
246 44 51
246 45 52
245 47 53
245 48 54
244 49 56
244 50 57
243 51 58
243 52 59
242 53 60
242 54 61
241 55 62
241 56 63
240 57 64
240 59 66
239 60 67
239 61 68
238 62 69
237 63 70
237 64 71
236 65 72
236 66 73
235 67 74
235 67 75
234 68 75
233 69 76
233 70 77
232 71 78
232 72 79
231 73 80
231 74 81
230 75 82
229 76 83
229 76 84
228 77 84
227 78 85
227 79 86
226 80 87
226 81 88
225 81 89
224 82 89
224 83 90
160 0 0
161 0 0
162 0 0
163 0 0
164 0 0
165 0 0
166 0 0
167 0 0
168 0 0
169 0 0
170 0 0
171 0 0
172 0 0
173 0 0
174 0 0
175 0 0
176 0 0
177 0 0
178 0 0
179 0 0
180 0 0
182 0 0
183 0 0
184 0 0
185 0 0
186 0 0
187 0 0
188 0 0
189 0 0
190 0 0
191 0 0
192 0 0
193 0 0
194 0 0
195 0 0
196 0 0
197 0 0
199 0 0
200 0 0
201 0 0
202 0 0
203 0 0
204 0 0
205 0 0
206 0 0
207 0 0
208 0 0
209 0 0
210 0 0
211 0 0
212 0 0
213 0 0
214 0 0
215 0 0
216 0 0
217 0 0
218 0 0
219 0 0
220 0 0
221 0 0
222 0 0
223 0 0
224 0 0
225 0 0
226 0 0
227 0 0
228 0 0
228 0 0
229 0 0
230 0 0
231 0 0
232 0 0
233 0 0
234 0 0
234 0 0
235 0 0
236 0 0
237 0 0
238 0 0
238 0 0
239 0 0
240 0 0
241 0 0
241 0 0
242 0 0
243 0 0
243 0 0
244 0 0
245 0 0
245 0 0
246 0 0
246 0 0
247 0 0
247 0 0
248 0 0
248 0 0
249 0 0
249 0 0
250 0 0
250 0 0
251 0 0
251 0 0
252 0 0
252 0 0
252 0 0
253 0 0
253 0 0
253 0 0
253 0 0
254 0 0
254 0 0
254 0 0
254 0 0
255 0 0
255 0 0
255 0 0
255 0 0
255 0 0
255 0 0
255 0 0
255 0 0
255 0 0
255 0 2
255 0 3
255 0 5
255 0 6
255 0 8
255 1 9
255 2 11
255 4 12
255 5 14
255 6 15
255 8 16
255 9 18
254 11 19
254 12 21
254 13 22
254 15 23
254 16 25
253 17 26
253 19 28
253 20 29
253 21 30
252 23 32
252 24 33
252 25 34
251 27 36
251 28 37
251 29 38
250 31 40
250 32 41
250 33 42
249 34 43
249 36 45
249 37 46
248 38 47
248 39 48
247 40 49
247 42 51
246 43 52
246 44 53
245 45 54
245 46 55
244 47 56
244 48 58
243 50 59
243 51 60
242 52 61
242 53 62
241 54 63
241 55 64
240 56 65
240 57 66
239 58 67
239 59 68
238 60 69
238 61 70
237 62 71
237 63 72
236 64 73
235 65 74
235 66 75
234 67 76
234 68 77
233 69 78
232 70 79
232 71 80
231 72 81
231 72 82
230 73 83
230 74 83
229 75 84
228 76 85
228 77 86
227 78 87
227 78 88
226 79 88
225 80 89
225 81 90
224 82 91
160 0 0
161 0 0
162 0 0
163 0 0
164 0 0
165 0 0
166 0 0
167 0 0
168 0 0
169 0 0
170 0 0
171 0 0
173 0 0
174 0 0
175 0 0
176 0 0
177 0 0
178 0 0
179 0 0
180 0 0
181 0 0
182 0 0
183 0 0
184 0 0
185 0 0
186 0 0
187 0 0
188 0 0
189 0 0
190 0 0
191 0 0
192 0 0
193 0 0
195 0 0
196 0 0
197 0 0
198 0 0
199 0 0
200 0 0
201 0 0
202 0 0
203 0 0
204 0 0
205 0 0
206 0 0
207 0 0
208 0 0
209 0 0
210 0 0
211 0 0
212 0 0
213 0 0
214 0 0
215 0 0
216 0 0
217 0 0
218 0 0
219 0 0
220 0 0
221 0 0
222 0 0
223 0 0
224 0 0
225 0 0
226 0 0
227 0 0
228 0 0
229 0 0
229 0 0
230 0 0
231 0 0
232 0 0
233 0 0
234 0 0
235 0 0
235 0 0
236 0 0
237 0 0
238 0 0
238 0 0
239 0 0
240 0 0
241 0 0
241 0 0
242 0 0
243 0 0
243 0 0
244 0 0
245 0 0
245 0 0
246 0 0
246 0 0
247 0 0
247 0 0
248 0 0
248 0 0
249 0 0
249 0 0
250 0 0
250 0 0
251 0 0
251 0 0
251 0 0
252 0 0
252 0 0
252 0 0
253 0 0
253 0 0
253 0 0
254 0 0
254 0 0
254 0 0
254 0 0
254 0 0
255 0 0
255 0 0
255 0 0
255 0 0
255 0 0
255 0 0
255 0 0
255 0 2
255 0 3
255 0 4
255 0 6
255 0 7
255 0 9
255 0 10
255 1 12
255 2 13
255 4 15
255 5 16
255 6 17
255 8 19
254 9 20
254 11 22
254 12 23
254 13 24
254 15 26
253 16 27
253 17 29
253 19 30
253 20 31
252 21 33
252 23 34
252 24 35
251 25 37
251 27 38
251 28 39
250 29 40
250 30 42
250 32 43
249 33 44
249 34 45
249 35 47
248 37 48
248 38 49
247 39 50
247 40 51
246 41 53
246 42 54
246 44 55
245 45 56
245 46 57
244 47 58
244 48 59
243 49 61
243 50 62
242 51 63
242 52 64
241 54 65
241 55 66
240 56 67
239 57 68
239 58 69
238 59 70
238 60 71
237 61 72
237 62 73
236 63 74
236 64 75
235 65 76
234 66 77
234 67 78
233 67 79
233 68 80
232 69 81
232 70 81
231 71 82
230 72 83
230 73 84
229 74 85
229 75 86
228 75 87
227 76 87
227 77 88
226 78 89
226 79 90
225 80 91
224 80 91
161 0 0
162 0 0
163 0 0
164 0 0
165 0 0
166 0 0
167 0 0
168 0 0
169 0 0
170 0 0
171 0 0
172 0 0
173 0 0
174 0 0
175 0 0
176 0 0
177 0 0
178 0 0
179 0 0
180 0 0
181 0 0
182 0 0
183 0 0
184 0 0
185 0 0
186 0 0
187 0 0
188 0 0
190 0 0
191 0 0
192 0 0
193 0 0
194 0 0
195 0 0
196 0 0
197 0 0
198 0 0
199 0 0
200 0 0
201 0 0
202 0 0
203 0 0
204 0 0
205 0 0
206 0 0
207 0 0
208 0 0
209 0 0
210 0 0
211 0 0
212 0 0
213 0 0
214 0 0
215 0 0
216 0 0
217 0 0
218 0 0
219 0 0
220 0 0
221 0 0
222 0 0
223 0 0
224 0 0
225 0 0
226 0 0
227 0 0
228 0 0
229 0 0
230 0 0
230 0 0
231 0 0
232 0 0
233 0 0
234 0 0
235 0 0
235 0 0
236 0 0
237 0 0
238 0 0
238 0 0
239 0 0
240 0 0
241 0 0
241 0 0
242 0 0
243 0 0
243 0 0
244 0 0
245 0 0
245 0 0
246 0 0
246 0 0
247 0 0
247 0 0
248 0 0
248 0 0
249 0 0
249 0 0
250 0 0
250 0 0
251 0 0
251 0 0
251 0 0
252 0 0
252 0 0
252 0 0
253 0 0
253 0 0
253 0 0
254 0 0
254 0 0
254 0 0
254 0 0
254 0 0
255 0 0
255 0 0
255 0 0
255 0 0
255 0 0
255 0 0
255 0 1
255 0 3
255 0 4
255 0 6
255 0 7
255 0 8
255 0 10
255 0 11
255 0 13
255 1 14
255 2 16
255 4 17
255 5 18
255 6 20
254 8 21
254 9 23
254 10 24
254 12 25
254 13 27
253 15 28
253 16 29
253 17 31
253 19 32
252 20 33
252 21 35
252 23 36
252 24 37
251 25 39
251 26 40
251 28 41
250 29 43
250 30 44
249 31 45
249 33 46
249 34 47
248 35 49
248 36 50
247 37 51
247 39 52
246 40 53
246 41 55
246 42 56
245 43 57
245 44 58
244 46 59
244 47 60
243 48 61
243 49 62
242 50 63
242 51 65
241 52 66
241 53 67
240 54 68
240 55 69
239 56 70
238 57 71
238 58 72
237 59 73
237 60 74
236 61 75
236 62 76
235 63 77
235 64 78
234 65 78
233 66 79
233 67 80
232 68 81
232 69 82
231 70 83
231 71 84
230 71 85
229 72 86
229 73 86
228 74 87
228 75 88
227 76 89
226 77 90
226 77 90
225 78 91
225 79 92
161 0 0
162 0 0
163 0 0
164 0 0
165 0 0
166 0 0
167 0 0
168 0 0
169 0 0
170 0 0
171 0 0
172 0 0
173 0 0
174 0 0
175 0 0
176 0 0
177 0 0
178 0 0
179 0 0
180 0 0
181 0 0
183 0 0
184 0 0
185 0 0
186 0 0
187 0 0
188 0 0
189 0 0
190 0 0
191 0 0
192 0 0
193 0 0
194 0 0
195 0 0
196 0 0
197 0 0
198 0 0
199 0 0
200 0 0
201 0 0
202 0 0
203 0 0
204 0 0
205 0 0
207 0 0
208 0 0
209 0 0
210 0 0
211 0 0
212 0 0
213 0 0
214 0 0
215 0 0
216 0 0
217 0 0
218 0 0
219 0 0
219 0 0
220 0 0
221 0 0
222 0 0
223 0 0
224 0 0
225 0 0
226 0 0
227 0 0
228 0 0
229 0 0
230 0 0
230 0 0
231 0 0
232 0 0
233 0 0
234 0 0
235 0 0
235 0 0
236 0 0
237 0 0
238 0 0
238 0 0
239 0 0
240 0 0
241 0 0
241 0 0
242 0 0
243 0 0
243 0 0
244 0 0
244 0 0
245 0 0
246 0 0
246 0 0
247 0 0
247 0 0
248 0 0
248 0 0
249 0 0
249 0 0
250 0 0
250 0 0
251 0 0
251 0 0
251 0 0
252 0 0
252 0 0
252 0 0
253 0 0
253 0 0
253 0 0
253 0 0
254 0 0
254 0 0
254 0 0
254 0 0
255 0 0
255 0 0
255 0 0
255 0 0
255 0 0
255 0 1
255 0 2
255 0 4
255 0 5
255 0 7
255 0 8
255 0 9
255 0 11
255 0 12
255 0 14
255 0 15
255 1 17
255 2 18
255 4 19
255 5 21
254 6 22
254 8 24
254 9 25
254 10 26
254 12 28
253 13 29
253 14 30
253 16 32
253 17 33
252 18 34
252 20 36
252 21 37
252 22 38
251 24 40
251 25 41
251 26 42
250 27 43
250 29 45
249 30 46
249 31 47
249 32 48
248 34 49
248 35 51
247 36 52
247 37 53
247 38 54
246 40 55
246 41 56
245 42 58
245 43 59
244 44 60
244 45 61
243 46 62
243 47 63
242 49 64
242 50 65
241 51 66
241 52 67
240 53 68
240 54 69
239 55 70
239 56 71
238 57 72
238 58 73
237 59 74
236 60 75
236 61 76
235 62 77
235 63 78
234 64 79
234 65 80
233 66 81
232 67 82
232 67 83
231 68 84
231 69 84
230 70 85
230 71 86
229 72 87
228 73 88
228 74 89
227 74 89
227 75 90
226 76 91
225 77 92
225 78 93
162 0 0
163 0 0
164 0 0
165 0 0
166 0 0
167 0 0
168 0 0
169 0 0
170 0 0
171 0 0
172 0 0
173 0 0
174 0 0
175 0 0
176 0 0
177 0 0
178 0 0
179 0 0
180 0 0
181 0 0
182 0 0
183 0 0
184 0 0
185 0 0
186 0 0
187 0 0
188 0 0
189 0 0
190 0 0
191 0 0
192 0 0
193 0 0
194 0 0
195 0 0
196 0 0
197 0 0
198 0 0
199 0 0
201 0 0
202 0 0
203 0 0
204 0 0
205 0 0
206 0 0
207 0 0
208 0 0
209 0 0
210 0 0
211 0 0
212 0 0
213 0 0
214 0 0
215 0 0
216 0 0
217 0 0
218 0 0
219 0 0
220 0 0
221 0 0
222 0 0
222 0 0
223 0 0
224 0 0
225 0 0
226 0 0
227 0 0
228 0 0
229 0 0
230 0 0
230 0 0
231 0 0
232 0 0
233 0 0
234 0 0
235 0 0
235 0 0
236 0 0
237 0 0
238 0 0
238 0 0
239 0 0
240 0 0
241 0 0
241 0 0
242 0 0
243 0 0
243 0 0
244 0 0
244 0 0
245 0 0
246 0 0
246 0 0
247 0 0
247 0 0
248 0 0
248 0 0
249 0 0
249 0 0
250 0 0
250 0 0
250 0 0
251 0 0
251 0 0
252 0 0
252 0 0
252 0 0
253 0 0
253 0 0
253 0 0
253 0 0
254 0 0
254 0 0
254 0 0
254 0 0
254 0 0
255 0 0
255 0 0
255 0 0
255 0 0
255 0 2
255 0 3
255 0 5
255 0 6
255 0 8
255 0 9
255 0 11
255 0 12
255 0 13
255 0 15
255 0 16
255 0 18
255 1 19
255 2 20
254 4 22
254 5 23
254 6 25
254 8 26
254 9 27
254 10 29
253 12 30
253 13 31
253 14 33
253 16 34
252 17 35
252 18 37
252 20 38
252 21 39
251 22 40
251 23 42
251 25 43
250 26 44
250 27 45
249 28 47
249 30 48
249 31 49
248 32 50
248 33 51
247 35 53
247 36 54
247 37 55
246 38 56
246 39 57
245 40 58
245 42 60
244 43 61
244 44 62
243 45 63
243 46 64
242 47 65
242 48 66
241 49 67
241 50 68
240 51 69
240 52 70
239 53 71
239 54 72
238 55 73
238 56 74
237 57 75
237 58 76
236 59 77
235 60 78
235 61 79
234 62 80
234 63 81
233 64 82
233 65 82
232 66 83
231 67 84
231 68 85
230 69 86
230 70 87
229 70 88
229 71 88
228 72 89
227 73 90
227 74 91
226 75 92
226 76 92
225 76 93
162 0 0
163 0 0
164 0 0
165 0 0
166 0 0
167 0 0
168 0 0
169 0 0
170 0 0
171 0 0
172 0 0
173 0 0
174 0 0
175 0 0
176 0 0
177 0 0
178 0 0
179 0 0
180 0 0
181 0 0
182 0 0
183 0 0
184 0 0
185 0 0
186 0 0
187 0 0
188 0 0
189 0 0
190 0 0
191 0 0
192 0 0
193 0 0
195 0 0
196 0 0
197 0 0
198 0 0
199 0 0
200 0 0
201 0 0
202 0 0
203 0 0
204 0 0
205 0 0
206 0 0
207 0 0
208 0 0
209 0 0
210 0 0
211 0 0
212 0 0
213 0 0
214 0 0
215 0 0
216 0 0
217 0 0
218 0 0
219 0 0
220 0 0
221 0 0
222 0 0
223 0 0
223 0 0
224 0 0
225 0 0
226 0 0
227 0 0
228 0 0
229 0 0
230 0 0
231 0 0
231 0 0
232 0 0
233 0 0
234 0 0
235 0 0
235 0 0
236 0 0
237 0 0
238 0 0
238 0 0
239 0 0
240 0 0
241 0 0
241 0 0
242 0 0
242 0 0
243 0 0
244 0 0
244 0 0
245 0 0
246 0 0
246 0 0
247 0 0
247 0 0
248 0 0
248 0 0
249 0 0
249 0 0
250 0 0
250 0 0
250 0 0
251 0 0
251 0 0
251 0 0
252 0 0
252 0 0
252 0 0
253 0 0
253 0 0
253 0 0
254 0 0
254 0 0
254 0 0
254 0 0
254 0 0
254 0 0
255 0 0
255 0 0
255 0 1
255 0 3
255 0 4
255 0 6
255 0 7
255 0 9
255 0 10
255 0 12
255 0 13
255 0 14
255 0 16
255 0 17
255 0 19
255 0 20
255 1 21
254 2 23
254 3 24
254 5 26
254 6 27
254 8 28
254 9 30
253 10 31
253 12 32
253 13 34
253 14 35
252 16 36
252 17 37
252 18 39
251 19 40
251 21 41
251 22 43
251 23 44
250 25 45
250 26 46
249 27 47
249 28 49
249 30 50
248 31 51
248 32 52
247 33 53
247 34 55
247 35 56
246 37 57
246 38 58
245 39 59
245 40 60
244 41 61
244 42 62
243 43 64
243 45 65
242 46 66
242 47 67
241 48 68
241 49 69
240 50 70
240 51 71
239 52 72
239 53 73
238 54 74
238 55 75
237 56 76
237 57 77
236 58 78
236 59 79
235 60 80
234 61 80
234 62 81
233 63 82
233 64 83
232 65 84
232 66 85
231 66 86
230 67 87
230 68 87
229 69 88
229 70 89
228 71 90
228 72 91
227 73 91
226 73 92
226 74 93
225 75 94
162 0 0
163 0 0
164 0 0
165 0 0
166 0 0
167 0 0
168 0 0
169 0 0
170 0 0
171 0 0
172 0 0
173 0 0
174 0 0
175 0 0
176 0 0
177 0 0
178 0 0
179 0 0
180 0 0
181 0 0
182 0 0
183 0 0
184 0 0
185 0 0
187 0 0
188 0 0
189 0 0
190 0 0
191 0 0
192 0 0
193 0 0
194 0 0
195 0 0
196 0 0
197 0 0
198 0 0
199 0 0
200 0 0
201 0 0
202 0 0
203 0 0
204 0 0
205 0 0
206 0 0
207 0 0
208 0 0
209 0 0
210 0 0
211 0 0
212 0 0
213 0 0
214 0 0
215 0 0
216 0 0
217 0 0
218 0 0
219 0 0
220 0 0
221 0 0
222 0 0
223 0 0
224 0 0
224 0 0
225 0 0
226 0 0
227 0 0
228 0 0
229 0 0
230 0 0
231 0 0
231 0 0
232 0 0
233 0 0
234 0 0
235 0 0
235 0 0
236 0 0
237 0 0
238 0 0
238 0 0
239 0 0
240 0 0
240 0 0
241 0 0
242 0 0
242 0 0
243 0 0
244 0 0
244 0 0
245 0 0
245 0 0
246 0 0
247 0 0
247 0 0
248 0 0
248 0 0
249 0 0
249 0 0
249 0 0
250 0 0
250 0 0
251 0 0
251 0 0
251 0 0
252 0 0
252 0 0
252 0 0
253 0 0
253 0 0
253 0 0
253 0 0
254 0 0
254 0 0
254 0 0
254 0 0
254 0 0
254 0 0
255 0 1
255 0 2
255 0 4
255 0 5
255 0 7
255 0 8
255 0 10
255 0 11
255 0 13
255 0 14
255 0 15
255 0 17
255 0 18
255 0 20
255 0 21
254 0 22
254 1 24
254 2 25
254 3 26
254 5 28
254 6 29
253 8 30
253 9 32
253 10 33
253 12 34
253 13 36
252 14 37
252 15 38
252 17 40
251 18 41
251 19 42
251 21 43
250 22 45
250 23 46
250 24 47
249 26 48
249 27 50
249 28 51
248 29 52
248 31 53
248 32 54
247 33 55
247 34 57
246 35 58
246 36 59
245 38 60
245 39 61
244 40 62
244 41 63
243 42 64
243 43 65
243 44 66
242 45 67
242 46 68
241 47 70
241 49 71
240 50 72
239 51 73
239 52 74
238 53 74
238 54 75
237 55 76
237 56 77
236 57 78
236 58 79
235 59 80
235 60 81
234 61 82
233 61 83
233 62 84
232 63 85
232 64 85
231 65 86
231 66 87
230 67 88
229 68 89
229 69 90
228 70 90
228 70 91
227 71 92
227 72 93
226 73 94
225 74 94
163 0 0
164 0 0
165 0 0
166 0 0
167 0 0
168 0 0
169 0 0
170 0 0
171 0 0
172 0 0
173 0 0
174 0 0
175 0 0
176 0 0
177 0 0
178 0 0
179 0 0
180 0 0
181 0 0
182 0 0
183 0 0
184 0 0
185 0 0
186 0 0
187 0 0
188 0 0
189 0 0
190 0 0
191 0 0
192 0 0
193 0 0
194 0 0
195 0 0
196 0 0
197 0 0
198 0 0
199 0 0
200 0 0
201 0 0
202 0 0
203 0 0
204 0 0
205 0 0
206 0 0
207 0 0
208 0 0
209 0 0
210 0 0
211 0 0
212 0 0
213 0 0
214 0 0
215 0 0
216 0 0
217 0 0
218 0 0
219 0 0
220 0 0
221 0 0
222 0 0
223 0 0
224 0 0
224 0 0
225 0 0
226 0 0
227 0 0
228 0 0
229 0 0
230 0 0
231 0 0
231 0 0
232 0 0
233 0 0
234 0 0
235 0 0
235 0 0
236 0 0
237 0 0
238 0 0
238 0 0
239 0 0
240 0 0
240 0 0
241 0 0
242 0 0
242 0 0
243 0 0
244 0 0
244 0 0
245 0 0
245 0 0
246 0 0
246 0 0
247 0 0
247 0 0
248 0 0
248 0 0
249 0 0
249 0 0
250 0 0
250 0 0
251 0 0
251 0 0
251 0 0
252 0 0
252 0 0
252 0 0
253 0 0
253 0 0
253 0 0
253 0 0
254 0 0
254 0 0
254 0 0
254 0 0
254 0 0
254 0 1
254 0 2
255 0 4
255 0 5
255 0 6
255 0 8
255 0 9
255 0 11
255 0 12
255 0 14
255 0 15
255 0 16
255 0 18
255 0 19
255 0 21
254 0 22
254 0 23
254 0 25
254 1 26
254 2 27
254 3 29
254 5 30
253 6 31
253 7 33
253 9 34
253 10 35
253 11 37
252 13 38
252 14 39
252 15 40
251 17 42
251 18 43
251 19 44
250 20 45
250 22 47
250 23 48
249 24 49
249 25 50
249 27 51
248 28 53
248 29 54
248 30 55
247 31 56
247 33 57
246 34 58
246 35 60
245 36 61
245 37 62
244 38 63
244 40 64
244 41 65
243 42 66
243 43 67
242 44 68
242 45 69
241 46 70
241 47 71
240 48 72
240 49 73
239 50 74
239 51 75
238 52 76
237 53 77
237 54 78
236 55 79
236 56 80
235 57 81
235 58 82
234 59 83
234 60 83
233 61 84
232 62 85
232 63 86
231 64 87
231 65 88
230 66 89
230 66 89
229 67 90
228 68 91
228 69 92
227 70 93
227 71 93
226 72 94
226 72 95
163 0 0
164 0 0
165 0 0
166 0 0
167 0 0
168 0 0
169 0 0
170 0 0
171 0 0
172 0 0
173 0 0
174 0 0
175 0 0
176 0 0
177 0 0
178 0 0
179 0 0
180 0 0
181 0 0
182 0 0
183 0 0
184 0 0
185 0 0
186 0 0
187 0 0
188 0 0
189 0 0
190 0 0
191 0 0
192 0 0
193 0 0
194 0 0
195 0 0
196 0 0
197 0 0
198 0 0
199 0 0
200 0 0
201 0 0
202 0 0
203 0 0
204 0 0
205 0 0
206 0 0
207 0 0
208 0 0
209 0 0
210 0 0
211 0 0
212 0 0
213 0 0
214 0 0
215 0 0
216 0 0
217 0 0
218 0 0
219 0 0
220 0 0
221 0 0
222 0 0
223 0 0
224 0 0
225 0 0
225 0 0
226 0 0
227 0 0
228 0 0
229 0 0
230 0 0
231 0 0
231 0 0
232 0 0
233 0 0
234 0 0
235 0 0
235 0 0
236 0 0
237 0 0
238 0 0
238 0 0
239 0 0
240 0 0
240 0 0
241 0 0
242 0 0
242 0 0
243 0 0
244 0 0
244 0 0
245 0 0
245 0 0
246 0 0
246 0 0
247 0 0
247 0 0
248 0 0
248 0 0
249 0 0
249 0 0
250 0 0
250 0 0
250 0 0
251 0 0
251 0 0
251 0 0
252 0 0
252 0 0
252 0 0
253 0 0
253 0 0
253 0 0
253 0 0
254 0 0
254 0 0
254 0 0
254 0 0
254 0 2
254 0 3
254 0 5
255 0 6
255 0 7
255 0 9
255 0 10
255 0 12
255 0 13
255 0 15
255 0 16
255 0 17
255 0 19
255 0 20
254 0 22
254 0 23
254 0 24
254 0 26
254 0 27
254 1 28
254 2 30
254 3 31
253 5 32
253 6 34
253 7 35
253 9 36
252 10 37
252 11 39
252 13 40
252 14 41
251 15 43
251 17 44
251 18 45
250 19 46
250 20 47
250 22 49
249 23 50
249 24 51
249 25 52
248 26 53
248 28 55
248 29 56
247 30 57
247 31 58
246 32 59
246 34 60
245 35 61
245 36 62
245 37 64
244 38 65
244 39 66
243 40 67
243 41 68
242 43 69
242 44 70
241 45 71
241 46 72
240 47 73
240 48 74
239 49 75
239 50 76
238 51 77
238 52 78
237 53 79
236 54 80
236 55 81
235 56 81
235 57 82
234 58 83
234 59 84
233 60 85
233 61 86
232 62 87
231 62 88
231 63 88
230 64 89
230 65 90
229 66 91
229 67 92
228 68 92
227 69 93
227 69 94
226 70 95
226 71 96
163 0 0
164 0 0
165 0 0
166 0 0
167 0 0
168 0 0
169 0 0
170 0 0
171 0 0
172 0 0
173 0 0
174 0 0
175 0 0
176 0 0
177 0 0
178 0 0
179 0 0
180 0 0
181 0 0
182 0 0
183 0 0
184 0 0
185 0 0
186 0 0
187 0 0
188 0 0
189 0 0
190 0 0
191 0 0
192 0 0
193 0 0
194 0 0
195 0 0
196 0 0
197 0 0
198 0 0
199 0 0
200 0 0
201 0 0
203 0 0
204 0 0
205 0 0
206 0 0
207 0 0
208 0 0
208 0 0
209 0 0
210 0 0
211 0 0
212 0 0
213 0 0
214 0 0
215 0 0
216 0 0
217 0 0
218 0 0
219 0 0
220 0 0
221 0 0
222 0 0
223 0 0
224 0 0
225 0 0
225 0 0
226 0 0
227 0 0
228 0 0
229 0 0
230 0 0
231 0 0
231 0 0
232 0 0
233 0 0
234 0 0
235 0 0
235 0 0
236 0 0
237 0 0
237 0 0
238 0 0
239 0 0
240 0 0
240 0 0
241 0 0
242 0 0
242 0 0
243 0 0
243 0 0
244 0 0
245 0 0
245 0 0
246 0 0
246 0 0
247 0 0
247 0 0
248 0 0
248 0 0
249 0 0
249 0 0
249 0 0
250 0 0
250 0 0
251 0 0
251 0 0
251 0 0
252 0 0
252 0 0
252 0 0
253 0 0
253 0 0
253 0 0
253 0 0
253 0 0
254 0 0
254 0 0
254 0 1
254 0 3
254 0 4
254 0 6
254 0 7
254 0 8
255 0 10
255 0 11
255 0 13
255 0 14
255 0 16
255 0 17
255 0 18
255 0 20
254 0 21
254 0 22
254 0 24
254 0 25
254 0 27
254 0 28
254 0 29
254 1 31
253 2 32
253 3 33
253 5 34
253 6 36
253 7 37
252 9 38
252 10 40
252 11 41
252 13 42
251 14 43
251 15 45
251 16 46
250 18 47
250 19 48
250 20 49
249 21 51
249 23 52
249 24 53
248 25 54
248 26 55
247 27 57
247 29 58
247 30 59
246 31 60
246 32 61
245 33 62
245 34 63
245 36 64
244 37 65
244 38 66
243 39 67
243 40 68
242 41 70
242 42 71
241 43 72
241 44 73
240 45 74
240 46 75
239 48 76
239 49 76
238 50 77
238 51 78
237 52 79
237 53 80
236 54 81
235 55 82
235 55 83
234 56 84
234 57 85
233 58 86
233 59 86
232 60 87
232 61 88
231 62 89
231 63 90
230 64 91
229 65 91
229 66 92
228 66 93
228 67 94
227 68 95
227 69 95
226 70 96
164 0 0
165 0 0
166 0 0
167 0 0
168 0 0
169 0 0
170 0 0
171 0 0
172 0 0
173 0 0
174 0 0
175 0 0
175 0 0
176 0 0
177 0 0
178 0 0
179 0 0
180 0 0
181 0 0
182 0 0
183 0 0
185 0 0
186 0 0
187 0 0
188 0 0
189 0 0
190 0 0
191 0 0
192 0 0
193 0 0
194 0 0
195 0 0
196 0 0
197 0 0
198 0 0
199 0 0
200 0 0
201 0 0
202 0 0
203 0 0
204 0 0
205 0 0
206 0 0
207 0 0
208 0 0
209 0 0
210 0 0
211 0 0
212 0 0
213 0 0
213 0 0
214 0 0
215 0 0
216 0 0
217 0 0
218 0 0
219 0 0
220 0 0
221 0 0
222 0 0
223 0 0
224 0 0
225 0 0
225 0 0
226 0 0
227 0 0
228 0 0
229 0 0
230 0 0
231 0 0
231 0 0
232 0 0
233 0 0
234 0 0
234 0 0
235 0 0
236 0 0
237 0 0
237 0 0
238 0 0
239 0 0
240 0 0
240 0 0
241 0 0
241 0 0
242 0 0
243 0 0
243 0 0
244 0 0
244 0 0
245 0 0
246 0 0
246 0 0
247 0 0
247 0 0
248 0 0
248 0 0
248 0 0
249 0 0
249 0 0
250 0 0
250 0 0
250 0 0
251 0 0
251 0 0
252 0 0
252 0 0
252 0 0
252 0 0
253 0 0
253 0 0
253 0 0
253 0 0
253 0 0
254 0 1
254 0 2
254 0 4
254 0 5
254 0 7
254 0 8
254 0 10
254 0 11
254 0 12
254 0 14
254 0 15
254 0 17
254 0 18
254 0 19
254 0 21
254 0 22
254 0 23
254 0 25
254 0 26
254 0 27
254 0 29
254 0 30
254 0 31
253 1 33
253 2 34
253 3 35
253 5 37
253 6 38
252 7 39
252 9 40
252 10 42
252 11 43
251 12 44
251 14 45
251 15 47
250 16 48
250 18 49
250 19 50
249 20 51
249 21 53
249 22 54
248 24 55
248 25 56
247 26 57
247 27 58
247 28 60
246 30 61
246 31 62
245 32 63
245 33 64
245 34 65
244 35 66
244 36 67
243 38 68
243 39 69
242 40 70
242 41 71
241 42 72
241 43 73
240 44 74
240 45 75
239 46 76
239 47 77
238 48 78
238 49 79
237 50 80
237 51 81
236 52 82
236 53 83
235 54 84
235 55 84
234 56 85
233 57 86
233 58 87
232 59 88
232 60 89
231 61 90
231 62 90
230 62 91
230 63 92
229 64 93
228 65 94
228 66 94
227 67 95
227 68 96
226 68 97
164 0 0
165 0 0
166 0 0
167 0 0
168 0 0
169 0 0
170 0 0
171 0 0
172 0 0
173 0 0
174 0 0
175 0 0
176 0 0
177 0 0
178 0 0
179 0 0
180 0 0
181 0 0
182 0 0
183 0 0
184 0 0
185 0 0
186 0 0
187 0 0
188 0 0
189 0 0
190 0 0
191 0 0
192 0 0
193 0 0
194 0 0
195 0 0
196 0 0
197 0 0
198 0 0
199 0 0
200 0 0
201 0 0
202 0 0
203 0 0
204 0 0
205 0 0
206 0 0
207 0 0
208 0 0
209 0 0
210 0 0
211 0 0
212 0 0
213 0 0
214 0 0
215 0 0
215 0 0
216 0 0
217 0 0
218 0 0
219 0 0
220 0 0
221 0 0
222 0 0
223 0 0
224 0 0
225 0 0
225 0 0
226 0 0
227 0 0
228 0 0
229 0 0
230 0 0
230 0 0
231 0 0
232 0 0
233 0 0
234 0 0
234 0 0
235 0 0
236 0 0
237 0 0
237 0 0
238 0 0
239 0 0
239 0 0
240 0 0
241 0 0
241 0 0
242 0 0
243 0 0
243 0 0
244 0 0
244 0 0
245 0 0
245 0 0
246 0 0
246 0 0
247 0 0
247 0 0
248 0 0
248 0 0
249 0 0
249 0 0
250 0 0
250 0 0
250 0 0
251 0 0
251 0 0
251 0 0
252 0 0
252 0 0
252 0 0
252 0 0
253 0 0
253 0 0
253 0 0
253 0 1
253 0 2
254 0 3
254 0 5
254 0 6
254 0 8
254 0 9
254 0 11
254 0 12
254 0 13
254 0 15
254 0 16
254 0 17
254 0 19
254 0 20
254 0 22
254 0 23
254 0 24
254 0 26
254 0 27
254 0 28
254 0 30
254 0 31
253 0 32
253 0 34
253 1 35
253 2 36
253 3 37
252 5 39
252 6 40
252 7 41
252 9 43
251 10 44
251 11 45
251 12 46
251 14 47
250 15 49
250 16 50
250 17 51
249 19 52
249 20 53
249 21 55
248 22 56
248 24 57
247 25 58
247 26 59
247 27 60
246 28 61
246 29 62
245 31 64
245 32 65
245 33 66
244 34 67
244 35 68
243 36 69
243 37 70
242 38 71
242 40 72
241 41 73
241 42 74
240 43 75
240 44 76
239 45 77
239 46 78
238 47 79
238 48 80
237 49 81
237 50 81
236 51 82
236 52 83
235 53 84
235 54 85
234 55 86
234 56 87
233 57 88
232 58 88
232 58 89
231 59 90
231 60 91
230 61 92
230 62 93
229 63 93
229 64 94
228 65 95
227 65 96
227 66 96
226 67 97
164 0 0
165 0 0
166 0 0
167 0 0
168 0 0
169 0 0
170 0 0
171 0 0
172 0 0
173 0 0
174 0 0
175 0 0
176 0 0
177 0 0
178 0 0
179 0 0
180 0 0
181 0 0
182 0 0
183 0 0
184 0 0
185 0 0
186 0 0
187 0 0
188 0 0
189 0 0
190 0 0
191 0 0
192 0 0
193 0 0
194 0 0
195 0 0
196 0 0
197 0 0
198 0 0
199 0 0
200 0 0
201 0 0
202 0 0
203 0 0
204 0 0
205 0 0
206 0 0
207 0 0
208 0 0
209 0 0
210 0 0
211 0 0
212 0 0
213 0 0
214 0 0
215 0 0
216 0 0
216 0 0
217 0 0
218 0 0
219 0 0
220 0 0
221 0 0
222 0 0
223 0 0
224 0 0
225 0 0
225 0 0
226 0 0
227 0 0
228 0 0
229 0 0
230 0 0
230 0 0
231 0 0
232 0 0
233 0 0
234 0 0
234 0 0
235 0 0
236 0 0
237 0 0
237 0 0
238 0 0
239 0 0
239 0 0
240 0 0
241 0 0
241 0 0
242 0 0
242 0 0
243 0 0
244 0 0
244 0 0
245 0 0
245 0 0
246 0 0
246 0 0
247 0 0
247 0 0
248 0 0
248 0 0
249 0 0
249 0 0
249 0 0
250 0 0
250 0 0
251 0 0
251 0 0
251 0 0
251 0 0
252 0 0
252 0 0
252 0 0
253 0 0
253 0 0
253 0 0
253 0 2
253 0 3
253 0 4
254 0 6
254 0 7
254 0 9
254 0 10
254 0 11
254 0 13
254 0 14
254 0 16
254 0 17
254 0 18
254 0 20
254 0 21
254 0 23
254 0 24
254 0 25
254 0 27
254 0 28
254 0 29
254 0 31
253 0 32
253 0 33
253 0 34
253 0 36
253 1 37
253 2 38
252 3 40
252 5 41
252 6 42
252 7 43
251 9 45
251 10 46
251 11 47
250 12 48
250 14 49
250 15 51
250 16 52
249 17 53
249 19 54
249 20 55
248 21 56
248 22 58
247 23 59
247 25 60
247 26 61
246 27 62
246 28 63
245 29 64
245 30 65
245 32 66
244 33 67
244 34 68
243 35 69
243 36 71
242 37 72
242 38 73
241 39 74
241 40 75
240 41 76
240 42 76
239 43 77
239 44 78
238 45 79
238 47 80
237 48 81
237 49 82
236 50 83
236 50 84
235 51 85
235 52 86
234 53 87
234 54 87
233 55 88
233 56 89
232 57 90
231 58 91
231 59 92
230 60 92
230 61 93
229 62 94
229 62 95
228 63 95
228 64 96
227 65 97
226 66 98
165 0 0
166 0 0
167 0 0
168 0 0
169 0 0
170 0 0
171 0 0
171 0 0
172 0 0
173 0 0
174 0 0
175 0 0
176 0 0
177 0 0
178 0 0
179 0 0
180 0 0
181 0 0
182 0 0
183 0 0
184 0 0
185 0 0
186 0 0
187 0 0
188 0 0
189 0 0
190 0 0
191 0 0
192 0 0
193 0 0
194 0 0
195 0 0
196 0 0
197 0 0
198 0 0
199 0 0
200 0 0
201 0 0
202 0 0
203 0 0
204 0 0
205 0 0
206 0 0
207 0 0
208 0 0
209 0 0
210 0 0
211 0 0
212 0 0
213 0 0
214 0 0
215 0 0
216 0 0
217 0 0
217 0 0
218 0 0
219 0 0
220 0 0
221 0 0
222 0 0
223 0 0
224 0 0
225 0 0
225 0 0
226 0 0
227 0 0
228 0 0
229 0 0
230 0 0
230 0 0
231 0 0
232 0 0
233 0 0
234 0 0
234 0 0
235 0 0
236 0 0
236 0 0
237 0 0
238 0 0
239 0 0
239 0 0
240 0 0
241 0 0
241 0 0
242 0 0
242 0 0
243 0 0
244 0 0
244 0 0
245 0 0
245 0 0
246 0 0
246 0 0
247 0 0
247 0 0
248 0 0
248 0 0
248 0 0
249 0 0
249 0 0
250 0 0
250 0 0
250 0 0
251 0 0
251 0 0
251 0 0
252 0 0
252 0 0
252 0 0
252 0 0
253 0 0
253 0 1
253 0 3
253 0 4
253 0 5
253 0 7
254 0 8
254 0 10
254 0 11
254 0 12
254 0 14
254 0 15
254 0 17
254 0 18
254 0 19
254 0 21
254 0 22
254 0 23
254 0 25
254 0 26
254 0 27
254 0 29
254 0 30
253 0 31
253 0 33
253 0 34
253 0 35
253 0 37
253 0 38
252 1 39
252 2 40
252 3 42
252 5 43
251 6 44
251 7 45
251 8 47
251 10 48
250 11 49
250 12 50
250 13 51
249 15 53
249 16 54
249 17 55
248 18 56
248 20 57
248 21 58
247 22 59
247 23 61
247 24 62
246 26 63
246 27 64
245 28 65
245 29 66
245 30 67
244 31 68
244 32 69
243 34 70
243 35 71
242 36 72
242 37 73
241 38 74
241 39 75
240 40 76
240 41 77
239 42 78
239 43 79
238 44 80
238 45 81
237 46 82
237 47 83
236 48 84
236 49 84
235 50 85
235 51 86
234 52 87
234 53 88
233 54 89
233 55 90
232 56 90
232 57 91
231 58 92
230 59 93
230 59 94
229 60 94
229 61 95
228 62 96
228 63 97
227 64 98
227 65 98
165 0 0
166 0 0
167 0 0
168 0 0
169 0 0
170 0 0
171 0 0
172 0 0
173 0 0
174 0 0
175 0 0
176 0 0
177 0 0
178 0 0
179 0 0
180 0 0
181 0 0
182 0 0
183 0 0
183 0 0
184 0 0
185 0 0
186 0 0
187 0 0
188 0 0
189 0 0
190 0 0
191 0 0
192 0 0
193 0 0
194 0 0
195 0 0
196 0 0
197 0 0
198 0 0
199 0 0
200 0 0
201 0 0
202 0 0
203 0 0
204 0 0
205 0 0
206 0 0
207 0 0
208 0 0
209 0 0
210 0 0
211 0 0
212 0 0
213 0 0
214 0 0
215 0 0
216 0 0
217 0 0
217 0 0
218 0 0
219 0 0
220 0 0
221 0 0
222 0 0
223 0 0
224 0 0
225 0 0
225 0 0
226 0 0
227 0 0
228 0 0
229 0 0
230 0 0
230 0 0
231 0 0
232 0 0
233 0 0
233 0 0
234 0 0
235 0 0
236 0 0
236 0 0
237 0 0
238 0 0
238 0 0
239 0 0
240 0 0
240 0 0
241 0 0
242 0 0
242 0 0
243 0 0
243 0 0
244 0 0
244 0 0
245 0 0
246 0 0
246 0 0
246 0 0
247 0 0
247 0 0
248 0 0
248 0 0
249 0 0
249 0 0
249 0 0
250 0 0
250 0 0
250 0 0
251 0 0
251 0 0
251 0 0
252 0 0
252 0 0
252 0 0
252 0 1
253 0 2
253 0 4
253 0 5
253 0 6
253 0 8
253 0 9
253 0 11
254 0 12
254 0 13
254 0 15
254 0 16
254 0 18
254 0 19
254 0 20
254 0 22
254 0 23
254 0 24
254 0 26
254 0 27
254 0 28
253 0 30
253 0 31
253 0 32
253 0 34
253 0 35
253 0 36
253 0 37
252 0 39
252 0 40
252 1 41
252 2 42
252 3 44
251 5 45
251 6 46
251 7 47
251 8 49
250 10 50
250 11 51
250 12 52
249 13 53
249 15 54
249 16 56
248 17 57
248 18 58
248 19 59
247 21 60
247 22 61
247 23 62
246 24 63
246 25 65
245 27 66
245 28 67
244 29 68
244 30 69
244 31 70
243 32 71
243 33 72
242 34 73
242 35 74
241 37 75
241 38 76
240 39 77
240 40 78
239 41 79
239 42 80
238 43 81
238 44 81
237 45 82
237 46 83
236 47 84
236 48 85
235 49 86
235 50 87
234 51 88
234 52 89
233 53 89
233 54 90
232 54 91
232 55 92
231 56 93
231 57 93
230 58 94
229 59 95
229 60 96
228 61 97
228 62 97
227 62 98
227 63 99
165 0 0
166 0 0
167 0 0
168 0 0
169 0 0
170 0 0
171 0 0
172 0 0
173 0 0
174 0 0
175 0 0
176 0 0
177 0 0
178 0 0
179 0 0
180 0 0
181 0 0
182 0 0
183 0 0
184 0 0
185 0 0
186 0 0
187 0 0
188 0 0
189 0 0
190 0 0
191 0 0
192 0 0
193 0 0
194 0 0
195 0 0
196 0 0
197 0 0
197 0 0
198 0 0
199 0 0
200 0 0
201 0 0
202 0 0
203 0 0
204 0 0
205 0 0
206 0 0
207 0 0
208 0 0
209 0 0
210 0 0
211 0 0
212 0 0
213 0 0
214 0 0
215 0 0
216 0 0
217 0 0
218 0 0
218 0 0
219 0 0
220 0 0
221 0 0
222 0 0
223 0 0
224 0 0
225 0 0
225 0 0
226 0 0
227 0 0
228 0 0
229 0 0
230 0 0
230 0 0
231 0 0
232 0 0
233 0 0
233 0 0
234 0 0
235 0 0
236 0 0
236 0 0
237 0 0
238 0 0
238 0 0
239 0 0
240 0 0
240 0 0
241 0 0
241 0 0
242 0 0
243 0 0
243 0 0
244 0 0
244 0 0
245 0 0
245 0 0
246 0 0
246 0 0
247 0 0
247 0 0
248 0 0
248 0 0
249 0 0
249 0 0
249 0 0
250 0 0
250 0 0
250 0 0
251 0 0
251 0 0
251 0 0
251 0 0
252 0 0
252 0 1
252 0 2
252 0 3
253 0 5
253 0 6
253 0 8
253 0 9
253 0 10
253 0 12
253 0 13
253 0 14
254 0 16
254 0 17
254 0 19
254 0 20
254 0 21
254 0 23
254 0 24
254 0 25
254 0 27
253 0 28
253 0 29
253 0 31
253 0 32
253 0 33
253 0 34
253 0 36
253 0 37
253 0 38
252 0 40
252 0 41
252 0 42
252 1 43
251 2 45
251 3 46
251 5 47
251 6 48
250 7 49
250 8 51
250 10 52
250 11 53
249 12 54
249 13 55
249 15 56
248 16 58
248 17 59
248 18 60
247 19 61
247 21 62
246 22 63
246 23 64
246 24 65
245 25 66
245 26 67
244 27 68
244 29 69
244 30 70
243 31 71
243 32 72
242 33 73
242 34 74
241 35 75
241 36 76
240 37 77
240 38 78
239 39 79
239 40 80
238 42 81
238 43 82
237 44 83
237 45 84
236 46 85
236 47 86
235 47 87
235 48 87
234 49 88
234 50 89
233 51 90
233 52 91
232 53 92
232 54 92
231 55 93
231 56 94
230 57 95
230 58 96
229 59 96
228 59 97
228 60 98
227 61 99
227 62 99
166 0 0
167 0 0
168 0 0
169 0 0
169 0 0
170 0 0
171 0 0
172 0 0
173 0 0
174 0 0
175 0 0
176 0 0
177 0 0
178 0 0
179 0 0
180 0 0
181 0 0
182 0 0
183 0 0
184 0 0
185 0 0
186 0 0
187 0 0
188 0 0
189 0 0
190 0 0
191 0 0
192 0 0
193 0 0
194 0 0
195 0 0
196 0 0
197 0 0
198 0 0
199 0 0
200 0 0
201 0 0
202 0 0
202 0 0
203 0 0
204 0 0
205 0 0
206 0 0
207 0 0
208 0 0
209 0 0
210 0 0
211 0 0
212 0 0
213 0 0
214 0 0
215 0 0
216 0 0
217 0 0
218 0 0
218 0 0
219 0 0
220 0 0
221 0 0
222 0 0
223 0 0
224 0 0
225 0 0
225 0 0
226 0 0
227 0 0
228 0 0
229 0 0
229 0 0
230 0 0
231 0 0
232 0 0
233 0 0
233 0 0
234 0 0
235 0 0
235 0 0
236 0 0
237 0 0
238 0 0
238 0 0
239 0 0
239 0 0
240 0 0
241 0 0
241 0 0
242 0 0
243 0 0
243 0 0
244 0 0
244 0 0
245 0 0
245 0 0
246 0 0
246 0 0
247 0 0
247 0 0
247 0 0
248 0 0
248 0 0
249 0 0
249 0 0
249 0 0
250 0 0
250 0 0
250 0 0
251 0 0
251 0 0
251 0 0
252 0 0
252 0 2
252 0 3
252 0 4
252 0 6
253 0 7
253 0 8
253 0 10
253 0 11
253 0 13
253 0 14
253 0 15
253 0 17
253 0 18
253 0 19
253 0 21
253 0 22
253 0 23
253 0 25
253 0 26
253 0 27
253 0 29
253 0 30
253 0 31
253 0 33
253 0 34
253 0 35
253 0 37
253 0 38
252 0 39
252 0 40
252 0 42
252 0 43
252 0 44
251 1 45
251 2 47
251 3 48
251 4 49
250 6 50
250 7 51
250 8 52
250 10 54
249 11 55
249 12 56
249 13 57
248 14 58
248 16 59
248 17 60
247 18 62
247 19 63
246 20 64
246 22 65
246 23 66
245 24 67
245 25 68
244 26 69
244 27 70
244 28 71
243 30 72
243 31 73
242 32 74
242 33 75
241 34 76
241 35 77
240 36 78
240 37 79
239 38 80
239 39 81
238 40 82
238 41 83
237 42 84
237 43 84
236 44 85
236 45 86
235 46 87
235 47 88
234 48 89
234 49 90
233 50 90
233 51 91
232 52 92
232 53 93
231 54 94
231 55 95
230 56 95
230 56 96
229 57 97
229 58 98
228 59 98
227 60 99
227 61 100
166 0 0
167 0 0
168 0 0
169 0 0
170 0 0
171 0 0
172 0 0
173 0 0
174 0 0
175 0 0
175 0 0
176 0 0
177 0 0
178 0 0
179 0 0
180 0 0
181 0 0
182 0 0
183 0 0
184 0 0
185 0 0
186 0 0
187 0 0
188 0 0
189 0 0
190 0 0
191 0 0
192 0 0
193 0 0
194 0 0
195 0 0
196 0 0
197 0 0
198 0 0
199 0 0
200 0 0
201 0 0
202 0 0
203 0 0
204 0 0
205 0 0
205 0 0
206 0 0
207 0 0
208 0 0
209 0 0
210 0 0
211 0 0
212 0 0
213 0 0
214 0 0
215 0 0
216 0 0
217 0 0
218 0 0
218 0 0
219 0 0
220 0 0
221 0 0
222 0 0
223 0 0
224 0 0
224 0 0
225 0 0
226 0 0
227 0 0
228 0 0
229 0 0
229 0 0
230 0 0
231 0 0
232 0 0
232 0 0
233 0 0
234 0 0
235 0 0
235 0 0
236 0 0
237 0 0
237 0 0
238 0 0
239 0 0
239 0 0
240 0 0
241 0 0
241 0 0
242 0 0
242 0 0
243 0 0
243 0 0
244 0 0
244 0 0
245 0 0
245 0 0
246 0 0
246 0 0
247 0 0
247 0 0
248 0 0
248 0 0
249 0 0
249 0 0
249 0 0
250 0 0
250 0 0
250 0 0
251 0 0
251 0 0
251 0 0
251 0 1
252 0 3
252 0 4
252 0 5
252 0 7
252 0 8
252 0 9
253 0 11
253 0 12
253 0 14
253 0 15
253 0 16
253 0 18
253 0 19
253 0 20
253 0 22
253 0 23
253 0 24
253 0 26
253 0 27
253 0 28
253 0 30
253 0 31
253 0 32
253 0 34
253 0 35
253 0 36
253 0 37
252 0 39
252 0 40
252 0 41
252 0 42
252 0 44
251 0 45
251 0 46
251 1 47
251 2 48
251 3 50
250 4 51
250 6 52
250 7 53
249 8 54
249 9 56
249 11 57
248 12 58
248 13 59
248 14 60
247 16 61
247 17 62
247 18 63
246 19 64
246 20 66
246 21 67
245 23 68
245 24 69
244 25 70
244 26 71
244 27 72
243 28 73
243 29 74
242 30 75
242 31 76
241 33 77
241 34 78
240 35 79
240 36 80
239 37 81
239 38 81
239 39 82
238 40 83
238 41 84
237 42 85
237 43 86
236 44 87
236 45 88
235 46 89
234 47 89
234 48 90
233 49 91
233 50 92
232 51 93
232 52 93
231 52 94
231 53 95
230 54 96
230 55 97
229 56 97
229 57 98
228 58 99
228 59 100
227 59 100
166 0 0
167 0 0
168 0 0
169 0 0
170 0 0
171 0 0
172 0 0
173 0 0
174 0 0
175 0 0
176 0 0
177 0 0
178 0 0
179 0 0
180 0 0
181 0 0
181 0 0
182 0 0
183 0 0
184 0 0
185 0 0
186 0 0
187 0 0
188 0 0
189 0 0
190 0 0
191 0 0
192 0 0
193 0 0
194 0 0
195 0 0
196 0 0
197 0 0
198 0 0
199 0 0
200 0 0
201 0 0
202 0 0
203 0 0
204 0 0
205 0 0
206 0 0
207 0 0
207 0 0
208 0 0
209 0 0
210 0 0
211 0 0
212 0 0
213 0 0
214 0 0
215 0 0
216 0 0
217 0 0
218 0 0
218 0 0
219 0 0
220 0 0
221 0 0
222 0 0
223 0 0
224 0 0
224 0 0
225 0 0
226 0 0
227 0 0
228 0 0
229 0 0
229 0 0
230 0 0
231 0 0
232 0 0
232 0 0
233 0 0
234 0 0
235 0 0
235 0 0
236 0 0
237 0 0
237 0 0
238 0 0
239 0 0
239 0 0
240 0 0
240 0 0
241 0 0
242 0 0
242 0 0
243 0 0
243 0 0
244 0 0
244 0 0
245 0 0
245 0 0
246 0 0
246 0 0
247 0 0
247 0 0
248 0 0
248 0 0
248 0 0
249 0 0
249 0 0
249 0 0
250 0 0
250 0 0
250 0 0
251 0 0
251 0 1
251 0 2
251 0 4
252 0 5
252 0 6
252 0 8
252 0 9
252 0 10
252 0 12
253 0 13
253 0 15
253 0 16
253 0 17
253 0 19
253 0 20
253 0 21
253 0 23
253 0 24
253 0 25
253 0 27
253 0 28
253 0 29
253 0 31
253 0 32
253 0 33
253 0 34
253 0 36
252 0 37
252 0 38
252 0 39
252 0 41
252 0 42
252 0 43
251 0 44
251 0 46
251 0 47
251 0 48
251 1 49
250 2 50
250 3 52
250 4 53
250 6 54
249 7 55
249 8 56
249 9 57
248 11 59
248 12 60
248 13 61
247 14 62
247 15 63
247 17 64
246 18 65
246 19 66
246 20 67
245 21 68
245 22 69
244 24 70
244 25 71
243 26 72
243 27 73
243 28 74
242 29 75
242 30 76
241 31 77
241 32 78
240 33 79
240 34 80
239 36 81
239 37 82
239 38 83
238 39 84
238 40 85
237 41 86
237 42 87
236 43 87
236 44 88
235 45 89
235 46 90
234 47 91
233 47 92
233 48 92
232 49 93
232 50 94
231 51 95
231 52 96
230 53 96
230 54 97
229 55 98
229 56 99
228 57 99
228 57 100
227 58 101
167 0 0
168 0 0
168 0 0
169 0 0
170 0 0
171 0 0
172 0 0
173 0 0
174 0 0
175 0 0
176 0 0
177 0 0
178 0 0
179 0 0
180 0 0
181 0 0
182 0 0
183 0 0
184 0 0
185 0 0
186 0 0
186 0 0
187 0 0
188 0 0
189 0 0
190 0 0
191 0 0
192 0 0
193 0 0
194 0 0
195 0 0
196 0 0
197 0 0
198 0 0
199 0 0
200 0 0
201 0 0
202 0 0
203 0 0
204 0 0
205 0 0
206 0 0
207 0 0
208 0 0
208 0 0
209 0 0
210 0 0
211 0 0
212 0 0
213 0 0
214 0 0
215 0 0
216 0 0
217 0 0
218 0 0
218 0 0
219 0 0
220 0 0
221 0 0
222 0 0
223 0 0
224 0 0
224 0 0
225 0 0
226 0 0
227 0 0
228 0 0
228 0 0
229 0 0
230 0 0
231 0 0
231 0 0
232 0 0
233 0 0
234 0 0
234 0 0
235 0 0
236 0 0
236 0 0
237 0 0
238 0 0
238 0 0
239 0 0
240 0 0
240 0 0
241 0 0
241 0 0
242 0 0
243 0 0
243 0 0
244 0 0
244 0 0
245 0 0
245 0 0
246 0 0
246 0 0
246 0 0
247 0 0
247 0 0
248 0 0
248 0 0
248 0 0
249 0 0
249 0 0
249 0 0
250 0 0
250 0 0
250 0 0
251 0 2
251 0 3
251 0 5
251 0 6
252 0 7
252 0 9
252 0 10
252 0 11
252 0 13
252 0 14
252 0 15
253 0 17
253 0 18
253 0 20
253 0 21
253 0 22
253 0 24
253 0 25
253 0 26
253 0 27
253 0 29
253 0 30
253 0 31
253 0 33
253 0 34
253 0 35
252 0 37
252 0 38
252 0 39
252 0 40
252 0 42
252 0 43
252 0 44
251 0 45
251 0 46
251 0 48
251 0 49
250 0 50
250 1 51
250 2 52
250 3 54
249 4 55
249 6 56
249 7 57
249 8 58
248 9 59
248 11 60
248 12 61
247 13 63
247 14 64
247 15 65
246 16 66
246 18 67
245 19 68
245 20 69
245 21 70
244 22 71
244 23 72
243 24 73
243 26 74
243 27 75
242 28 76
242 29 77
241 30 78
241 31 79
240 32 80
240 33 81
239 34 82
239 35 83
239 36 84
238 37 84
238 38 85
237 39 86
237 40 87
236 41 88
236 42 89
235 43 90
235 44 90
234 45 91
234 46 92
233 47 93
233 48 94
232 49 95
231 50 95
231 51 96
230 52 97
230 53 98
229 54 98
229 54 99
228 55 100
228 56 101
227 57 101
167 0 0
168 0 0
169 0 0
170 0 0
171 0 0
172 0 0
172 0 0
173 0 0
174 0 0
175 0 0
176 0 0
177 0 0
178 0 0
179 0 0
180 0 0
181 0 0
182 0 0
183 0 0
184 0 0
185 0 0
186 0 0
187 0 0
188 0 0
189 0 0
190 0 0
191 0 0
191 0 0
192 0 0
193 0 0
194 0 0
195 0 0
196 0 0
197 0 0
198 0 0
199 0 0
200 0 0
201 0 0
202 0 0
203 0 0
204 0 0
205 0 0
206 0 0
207 0 0
208 0 0
209 0 0
209 0 0
210 0 0
211 0 0
212 0 0
213 0 0
214 0 0
215 0 0
216 0 0
217 0 0
218 0 0
218 0 0
219 0 0
220 0 0
221 0 0
222 0 0
223 0 0
224 0 0
224 0 0
225 0 0
226 0 0
227 0 0
228 0 0
228 0 0
229 0 0
230 0 0
231 0 0
231 0 0
232 0 0
233 0 0
234 0 0
234 0 0
235 0 0
236 0 0
236 0 0
237 0 0
238 0 0
238 0 0
239 0 0
239 0 0
240 0 0
241 0 0
241 0 0
242 0 0
242 0 0
243 0 0
243 0 0
244 0 0
244 0 0
245 0 0
245 0 0
246 0 0
246 0 0
247 0 0
247 0 0
247 0 0
248 0 0
248 0 0
249 0 0
249 0 0
249 0 0
250 0 0
250 0 0
250 0 1
250 0 3
251 0 4
251 0 6
251 0 7
251 0 8
251 0 10
252 0 11
252 0 12
252 0 14
252 0 15
252 0 16
252 0 18
252 0 19
252 0 20
253 0 22
253 0 23
253 0 24
253 0 26
253 0 27
253 0 28
253 0 30
253 0 31
253 0 32
252 0 34
252 0 35
252 0 36
252 0 37
252 0 39
252 0 40
252 0 41
252 0 42
252 0 44
251 0 45
251 0 46
251 0 47
251 0 48
251 0 50
250 0 51
250 0 52
250 1 53
250 2 54
249 3 55
249 4 57
249 6 58
248 7 59
248 8 60
248 9 61
247 10 62
247 12 63
247 13 64
246 14 65
246 15 66
246 16 67
245 18 69
245 19 70
245 20 71
244 21 72
244 22 73
243 23 74
243 24 75
243 25 76
242 27 77
242 28 78
241 29 79
241 30 79
240 31 80
240 32 81
239 33 82
239 34 83
239 35 84
238 36 85
238 37 86
237 38 87
237 39 88
236 40 88
236 41 89
235 42 90
235 43 91
234 44 92
234 45 93
233 46 93
233 47 94
232 48 95
232 49 96
231 50 97
230 50 97
230 51 98
229 52 99
229 53 100
228 54 100
228 55 101
227 56 102
167 0 0
168 0 0
169 0 0
170 0 0
171 0 0
172 0 0
173 0 0
174 0 0
175 0 0
175 0 0
176 0 0
177 0 0
178 0 0
179 0 0
180 0 0
181 0 0
182 0 0
183 0 0
184 0 0
185 0 0
186 0 0
187 0 0
188 0 0
189 0 0
190 0 0
191 0 0
192 0 0
193 0 0
194 0 0
194 0 0
195 0 0
196 0 0
197 0 0
198 0 0
199 0 0
200 0 0
201 0 0
202 0 0
203 0 0
204 0 0
205 0 0
206 0 0
207 0 0
208 0 0
209 0 0
209 0 0
210 0 0
211 0 0
212 0 0
213 0 0
214 0 0
215 0 0
216 0 0
217 0 0
218 0 0
218 0 0
219 0 0
220 0 0
221 0 0
222 0 0
223 0 0
223 0 0
224 0 0
225 0 0
226 0 0
227 0 0
227 0 0
228 0 0
229 0 0
230 0 0
231 0 0
231 0 0
232 0 0
233 0 0
233 0 0
234 0 0
235 0 0
235 0 0
236 0 0
237 0 0
237 0 0
238 0 0
239 0 0
239 0 0
240 0 0
240 0 0
241 0 0
242 0 0
242 0 0
243 0 0
243 0 0
244 0 0
244 0 0
245 0 0
245 0 0
246 0 0
246 0 0
246 0 0
247 0 0
247 0 0
248 0 0
248 0 0
248 0 0
249 0 0
249 0 0
249 0 0
250 0 1
250 0 2
250 0 4
250 0 5
251 0 7
251 0 8
251 0 9
251 0 11
251 0 12
252 0 13
252 0 15
252 0 16
252 0 17
252 0 19
252 0 20
252 0 21
252 0 23
252 0 24
252 0 25
252 0 27
252 0 28
252 0 29
252 0 30
252 0 32
252 0 33
252 0 34
252 0 36
252 0 37
252 0 38
252 0 39
252 0 41
252 0 42
251 0 43
251 0 44
251 0 46
251 0 47
251 0 48
251 0 49
250 0 50
250 0 51
250 0 53
250 0 54
249 1 55
249 2 56
249 3 57
249 4 58
248 6 59
248 7 61
248 8 62
247 9 63
247 10 64
247 12 65
246 13 66
246 14 67
246 15 68
245 16 69
245 17 70
245 19 71
244 20 72
244 21 73
243 22 74
243 23 75
242 24 76
242 25 77
242 26 78
241 27 79
241 28 80
240 30 81
240 31 82
239 32 83
239 33 84
238 34 85
238 35 86
238 36 86
237 37 87
237 38 88
236 39 89
236 40 90
235 41 91
235 42 92
234 43 92
234 44 93
233 45 94
233 46 95
232 46 96
232 47 96
231 48 97
231 49 98
230 50 99
229 51 99
229 52 100
228 53 101
228 54 102
227 55 102
167 0 0
168 0 0
169 0 0
170 0 0
171 0 0
172 0 0
173 0 0
174 0 0
175 0 0
176 0 0
177 0 0
178 0 0
179 0 0
179 0 0
180 0 0
181 0 0
182 0 0
183 0 0
184 0 0
185 0 0
186 0 0
187 0 0
188 0 0
189 0 0
190 0 0
191 0 0
192 0 0
193 0 0
194 0 0
195 0 0
196 0 0
196 0 0
197 0 0
198 0 0
199 0 0
200 0 0
201 0 0
202 0 0
203 0 0
204 0 0
205 0 0
206 0 0
207 0 0
208 0 0
209 0 0
209 0 0
210 0 0
211 0 0
212 0 0
213 0 0
214 0 0
215 0 0
216 0 0
217 0 0
217 0 0
218 0 0
219 0 0
220 0 0
221 0 0
222 0 0
223 0 0
223 0 0
224 0 0
225 0 0
226 0 0
227 0 0
227 0 0
228 0 0
229 0 0
230 0 0
230 0 0
231 0 0
232 0 0
233 0 0
233 0 0
234 0 0
235 0 0
235 0 0
236 0 0
237 0 0
237 0 0
238 0 0
239 0 0
239 0 0
240 0 0
240 0 0
241 0 0
241 0 0
242 0 0
242 0 0
243 0 0
244 0 0
244 0 0
244 0 0
245 0 0
245 0 0
246 0 0
246 0 0
247 0 0
247 0 0
247 0 0
248 0 0
248 0 0
248 0 0
249 0 0
249 0 1
249 0 2
250 0 3
250 0 5
250 0 6
250 0 8
251 0 9
251 0 10
251 0 12
251 0 13
251 0 14
251 0 16
252 0 17
252 0 18
252 0 20
252 0 21
252 0 22
252 0 24
252 0 25
252 0 26
252 0 27
252 0 29
252 0 30
252 0 31
252 0 33
252 0 34
252 0 35
252 0 36
252 0 38
252 0 39
252 0 40
252 0 41
251 0 43
251 0 44
251 0 45
251 0 46
251 0 47
251 0 49
250 0 50
250 0 51
250 0 52
250 0 53
250 0 55
249 0 56
249 1 57
249 2 58
248 3 59
248 4 60
248 5 61
248 7 62
247 8 63
247 9 65
247 10 66
246 11 67
246 13 68
246 14 69
245 15 70
245 16 71
244 17 72
244 18 73
244 20 74
243 21 75
243 22 76
242 23 77
242 24 78
242 25 79
241 26 80
241 27 81
240 28 82
240 29 82
239 30 83
239 31 84
238 32 85
238 33 86
238 35 87
237 36 88
237 37 89
236 38 90
236 39 90
235 39 91
235 40 92
234 41 93
234 42 94
233 43 95
233 44 95
232 45 96
232 46 97
231 47 98
231 48 98
230 49 99
230 50 100
229 51 101
229 52 101
228 52 102
227 53 103
168 0 0
169 0 0
169 0 0
170 0 0
171 0 0
172 0 0
173 0 0
174 0 0
175 0 0
176 0 0
177 0 0
178 0 0
179 0 0
180 0 0
181 0 0
182 0 0
182 0 0
183 0 0
184 0 0
185 0 0
186 0 0
187 0 0
188 0 0
189 0 0
190 0 0
191 0 0
192 0 0
193 0 0
194 0 0
195 0 0
196 0 0
197 0 0
198 0 0
198 0 0
199 0 0
200 0 0
201 0 0
202 0 0
203 0 0
204 0 0
205 0 0
206 0 0
207 0 0
208 0 0
209 0 0
210 0 0
210 0 0
211 0 0
212 0 0
213 0 0
214 0 0
215 0 0
216 0 0
217 0 0
217 0 0
218 0 0
219 0 0
220 0 0
221 0 0
222 0 0
222 0 0
223 0 0
224 0 0
225 0 0
226 0 0
226 0 0
227 0 0
228 0 0
229 0 0
230 0 0
230 0 0
231 0 0
232 0 0
232 0 0
233 0 0
234 0 0
235 0 0
235 0 0
236 0 0
236 0 0
237 0 0
238 0 0
238 0 0
239 0 0
240 0 0
240 0 0
241 0 0
241 0 0
242 0 0
242 0 0
243 0 0
243 0 0
244 0 0
244 0 0
245 0 0
245 0 0
246 0 0
246 0 0
246 0 0
247 0 0
247 0 0
248 0 0
248 0 0
248 0 0
249 0 0
249 0 2
249 0 3
249 0 4
250 0 6
250 0 7
250 0 8
250 0 10
251 0 11
251 0 12
251 0 14
251 0 15
251 0 17
251 0 18
252 0 19
252 0 20
252 0 22
252 0 23
252 0 24
252 0 26
252 0 27
252 0 28
252 0 30
252 0 31
252 0 32
252 0 33
252 0 35
252 0 36
252 0 37
252 0 38
252 0 40
251 0 41
251 0 42
251 0 43
251 0 45
251 0 46
251 0 47
251 0 48
250 0 49
250 0 51
250 0 52
250 0 53
250 0 54
249 0 55
249 0 56
249 0 57
249 1 59
248 2 60
248 3 61
248 4 62
247 5 63
247 7 64
247 8 65
246 9 66
246 10 67
246 11 68
245 13 69
245 14 70
245 15 71
244 16 72
244 17 73
244 18 74
243 19 75
243 20 76
242 22 77
242 23 78
242 24 79
241 25 80
241 26 81
240 27 82
240 28 83
239 29 84
239 30 85
238 31 86
238 32 87
238 33 88
237 34 88
237 35 89
236 36 90
236 37 91
235 38 92
235 39 93
234 40 93
234 41 94
233 42 95
233 43 96
232 44 97
232 45 97
231 46 98
231 47 99
230 48 100
230 49 100
229 49 101
229 50 102
228 51 103
228 52 103
168 0 0
169 0 0
170 0 0
171 0 0
172 0 0
172 0 0
173 0 0
174 0 0
175 0 0
176 0 0
177 0 0
178 0 0
179 0 0
180 0 0
181 0 0
182 0 0
183 0 0
184 0 0
185 0 0
185 0 0
186 0 0
187 0 0
188 0 0
189 0 0
190 0 0
191 0 0
192 0 0
193 0 0
194 0 0
195 0 0
196 0 0
197 0 0
198 0 0
199 0 0
199 0 0
200 0 0
201 0 0
202 0 0
203 0 0
204 0 0
205 0 0
206 0 0
207 0 0
208 0 0
209 0 0
210 0 0
210 0 0
211 0 0
212 0 0
213 0 0
214 0 0
215 0 0
216 0 0
217 0 0
217 0 0
218 0 0
219 0 0
220 0 0
221 0 0
222 0 0
222 0 0
223 0 0
224 0 0
225 0 0
226 0 0
226 0 0
227 0 0
228 0 0
229 0 0
229 0 0
230 0 0
231 0 0
232 0 0
232 0 0
233 0 0
234 0 0
234 0 0
235 0 0
236 0 0
236 0 0
237 0 0
238 0 0
238 0 0
239 0 0
239 0 0
240 0 0
240 0 0
241 0 0
242 0 0
242 0 0
243 0 0
243 0 0
244 0 0
244 0 0
244 0 0
245 0 0
245 0 0
246 0 0
246 0 0
247 0 0
247 0 0
247 0 0
248 0 0
248 0 0
248 0 1
249 0 3
249 0 4
249 0 5
249 0 7
250 0 8
250 0 9
250 0 11
250 0 12
251 0 13
251 0 15
251 0 16
251 0 17
251 0 19
251 0 20
251 0 21
251 0 23
252 0 24
252 0 25
252 0 27
252 0 28
252 0 29
252 0 30
252 0 32
252 0 33
252 0 34
252 0 36
252 0 37
252 0 38
251 0 39
251 0 40
251 0 42
251 0 43
251 0 44
251 0 45
251 0 47
251 0 48
250 0 49
250 0 50
250 0 51
250 0 52
250 0 54
249 0 55
249 0 56
249 0 57
249 0 58
248 0 59
248 1 60
248 2 62
248 3 63
247 4 64
247 5 65
247 7 66
246 8 67
246 9 68
246 10 69
245 11 70
245 12 71
245 14 72
244 15 73
244 16 74
243 17 75
243 18 76
243 19 77
242 20 78
242 21 79
241 23 80
241 24 81
241 25 82
240 26 83
240 27 84
239 28 85
239 29 85
238 30 86
238 31 87
237 32 88
237 33 89
237 34 90
236 35 91
236 36 91
235 37 92
235 38 93
234 39 94
234 40 95
233 41 96
233 42 96
232 43 97
232 44 98
231 45 99
231 46 99
230 46 100
230 47 101
229 48 102
229 49 102
228 50 103
228 51 104
168 0 0
169 0 0
170 0 0
171 0 0
172 0 0
173 0 0
174 0 0
175 0 0
175 0 0
176 0 0
177 0 0
178 0 0
179 0 0
180 0 0
181 0 0
182 0 0
183 0 0
184 0 0
185 0 0
186 0 0
187 0 0
187 0 0
188 0 0
189 0 0
190 0 0
191 0 0
192 0 0
193 0 0
194 0 0
195 0 0
196 0 0
197 0 0
198 0 0
199 0 0
200 0 0
200 0 0
201 0 0
202 0 0
203 0 0
204 0 0
205 0 0
206 0 0
207 0 0
208 0 0
209 0 0
210 0 0
210 0 0
211 0 0
212 0 0
213 0 0
214 0 0
215 0 0
216 0 0
217 0 0
217 0 0
218 0 0
219 0 0
220 0 0
221 0 0
222 0 0
222 0 0
223 0 0
224 0 0
225 0 0
226 0 0
226 0 0
227 0 0
228 0 0
229 0 0
229 0 0
230 0 0
231 0 0
231 0 0
232 0 0
233 0 0
234 0 0
234 0 0
235 0 0
235 0 0
236 0 0
237 0 0
237 0 0
238 0 0
239 0 0
239 0 0
240 0 0
240 0 0
241 0 0
241 0 0
242 0 0
242 0 0
243 0 0
243 0 0
244 0 0
244 0 0
245 0 0
245 0 0
246 0 0
246 0 0
246 0 0
247 0 0
247 0 0
247 0 0
248 0 1
248 0 2
248 0 4
249 0 5
249 0 6
249 0 8
249 0 9
250 0 10
250 0 12
250 0 13
250 0 14
250 0 16
251 0 17
251 0 18
251 0 20
251 0 21
251 0 22
251 0 24
251 0 25
251 0 26
251 0 27
251 0 29
251 0 30
251 0 31
251 0 33
251 0 34
251 0 35
251 0 36
251 0 38
251 0 39
251 0 40
251 0 41
251 0 42
251 0 44
251 0 45
251 0 46
251 0 47
250 0 48
250 0 50
250 0 51
250 0 52
250 0 53
249 0 54
249 0 55
249 0 57
249 0 58
249 0 59
248 0 60
248 0 61
248 1 62
247 2 63
247 3 64
247 4 65
247 5 66
246 7 68
246 8 69
246 9 70
245 10 71
245 11 72
244 12 73
244 14 74
244 15 75
243 16 76
243 17 77
243 18 78
242 19 79
242 20 80
241 21 80
241 22 81
241 23 82
240 25 83
240 26 84
239 27 85
239 28 86
238 29 87
238 30 88
237 31 89
237 32 89
237 33 90
236 34 91
236 35 92
235 36 93
235 37 94
234 38 94
234 39 95
233 40 96
233 41 97
232 42 98
232 42 98
231 43 99
231 44 100
230 45 101
230 46 101
229 47 102
229 48 103
228 49 104
228 50 104
168 0 0
169 0 0
170 0 0
171 0 0
172 0 0
173 0 0
174 0 0
175 0 0
176 0 0
177 0 0
177 0 0
178 0 0
179 0 0
180 0 0
181 0 0
182 0 0
183 0 0
184 0 0
185 0 0
186 0 0
187 0 0
188 0 0
189 0 0
189 0 0
190 0 0
191 0 0
192 0 0
193 0 0
194 0 0
195 0 0
196 0 0
197 0 0
198 0 0
199 0 0
200 0 0
201 0 0
201 0 0
202 0 0
203 0 0
204 0 0
205 0 0
206 0 0
207 0 0
208 0 0
209 0 0
210 0 0
210 0 0
211 0 0
212 0 0
213 0 0
214 0 0
215 0 0
216 0 0
216 0 0
217 0 0
218 0 0
219 0 0
220 0 0
221 0 0
221 0 0
222 0 0
223 0 0
224 0 0
225 0 0
225 0 0
226 0 0
227 0 0
228 0 0
228 0 0
229 0 0
230 0 0
231 0 0
231 0 0
232 0 0
233 0 0
233 0 0
234 0 0
235 0 0
235 0 0
236 0 0
237 0 0
237 0 0
238 0 0
238 0 0
239 0 0
239 0 0
240 0 0
241 0 0
241 0 0
242 0 0
242 0 0
243 0 0
243 0 0
244 0 0
244 0 0
244 0 0
245 0 0
245 0 0
246 0 0
246 0 0
246 0 0
247 0 0
247 0 1
247 0 2
248 0 3
248 0 5
248 0 6
249 0 7
249 0 9
249 0 10
249 0 11
250 0 13
250 0 14
250 0 15
250 0 17
250 0 18
250 0 19
251 0 21
251 0 22
251 0 23
251 0 24
251 0 26
251 0 27
251 0 28
251 0 30
251 0 31
251 0 32
251 0 33
251 0 35
251 0 36
251 0 37
251 0 38
251 0 40
251 0 41
251 0 42
251 0 43
251 0 44
251 0 46
250 0 47
250 0 48
250 0 49
250 0 50
250 0 52
250 0 53
249 0 54
249 0 55
249 0 56
249 0 57
249 0 58
248 0 60
248 0 61
248 0 62
248 0 63
247 1 64
247 2 65
247 3 66
246 4 67
246 5 68
246 7 69
245 8 70
245 9 71
245 10 72
244 11 73
244 12 74
244 13 75
243 15 76
243 16 77
242 17 78
242 18 79
242 19 80
241 20 81
241 21 82
240 22 83
240 23 84
240 24 85
239 25 86
239 26 86
238 27 87
238 29 88
237 30 89
237 31 90
237 32 91
236 33 92
236 34 92
235 35 93
235 36 94
234 36 95
234 37 96
233 38 97
233 39 97
232 40 98
232 41 99
231 42 100
231 43 100
230 44 101
230 45 102
229 46 103
229 47 103
228 48 104
228 48 105
169 0 0
170 0 0
170 0 0
171 0 0
172 0 0
173 0 0
174 0 0
175 0 0
176 0 0
177 0 0
178 0 0
179 0 0
179 0 0
180 0 0
181 0 0
182 0 0
183 0 0
184 0 0
185 0 0
186 0 0
187 0 0
188 0 0
189 0 0
190 0 0
191 0 0
191 0 0
192 0 0
193 0 0
194 0 0
195 0 0
196 0 0
197 0 0
198 0 0
199 0 0
200 0 0
201 0 0
202 0 0
202 0 0
203 0 0
204 0 0
205 0 0
206 0 0
207 0 0
208 0 0
209 0 0
210 0 0
210 0 0
211 0 0
212 0 0
213 0 0
214 0 0
215 0 0
216 0 0
216 0 0
217 0 0
218 0 0
219 0 0
220 0 0
221 0 0
221 0 0
222 0 0
223 0 0
224 0 0
225 0 0
225 0 0
226 0 0
227 0 0
228 0 0
228 0 0
229 0 0
230 0 0
230 0 0
231 0 0
232 0 0
232 0 0
233 0 0
234 0 0
234 0 0
235 0 0
236 0 0
236 0 0
237 0 0
238 0 0
238 0 0
239 0 0
239 0 0
240 0 0
240 0 0
241 0 0
241 0 0
242 0 0
242 0 0
243 0 0
243 0 0
244 0 0
244 0 0
245 0 0
245 0 0
245 0 0
246 0 0
246 0 0
247 0 0
247 0 2
247 0 3
248 0 4
248 0 6
248 0 7
248 0 8
249 0 10
249 0 11
249 0 12
249 0 14
250 0 15
250 0 16
250 0 17
250 0 19
250 0 20
250 0 21
250 0 23
251 0 24
251 0 25
251 0 27
251 0 28
251 0 29
251 0 30
251 0 32
251 0 33
251 0 34
251 0 35
251 0 37
251 0 38
251 0 39
251 0 40
251 0 42
251 0 43
251 0 44
250 0 45
250 0 46
250 0 48
250 0 49
250 0 50
250 0 51
250 0 52
249 0 53
249 0 55
249 0 56
249 0 57
249 0 58
248 0 59
248 0 60
248 0 61
248 0 62
247 0 63
247 0 65
247 1 66
247 2 67
246 3 68
246 4 69
246 5 70
245 6 71
245 8 72
245 9 73
244 10 74
244 11 75
244 12 76
243 13 77
243 14 78
242 16 79
242 17 80
242 18 81
241 19 82
241 20 83
240 21 83
240 22 84
240 23 85
239 24 86
239 25 87
238 26 88
238 27 89
237 28 90
237 29 90
236 30 91
236 31 92
236 32 93
235 33 94
235 34 95
234 35 95
234 36 96
233 37 97
233 38 98
232 39 99
232 40 99
231 41 100
231 42 101
230 43 102
230 44 102
229 45 103
229 45 104
228 46 104
228 47 105
169 0 0
170 0 0
171 0 0
172 0 0
172 0 0
173 0 0
174 0 0
175 0 0
176 0 0
177 0 0
178 0 0
179 0 0
180 0 0
181 0 0
181 0 0
182 0 0
183 0 0
184 0 0
185 0 0
186 0 0
187 0 0
188 0 0
189 0 0
190 0 0
191 0 0
192 0 0
192 0 0
193 0 0
194 0 0
195 0 0
196 0 0
197 0 0
198 0 0
199 0 0
200 0 0
201 0 0
202 0 0
202 0 0
203 0 0
204 0 0
205 0 0
206 0 0
207 0 0
208 0 0
209 0 0
210 0 0
210 0 0
211 0 0
212 0 0
213 0 0
214 0 0
215 0 0
216 0 0
216 0 0
217 0 0
218 0 0
219 0 0
220 0 0
220 0 0
221 0 0
222 0 0
223 0 0
224 0 0
224 0 0
225 0 0
226 0 0
227 0 0
227 0 0
228 0 0
229 0 0
230 0 0
230 0 0
231 0 0
232 0 0
232 0 0
233 0 0
234 0 0
234 0 0
235 0 0
236 0 0
236 0 0
237 0 0
237 0 0
238 0 0
238 0 0
239 0 0
240 0 0
240 0 0
241 0 0
241 0 0
242 0 0
242 0 0
243 0 0
243 0 0
244 0 0
244 0 0
244 0 0
245 0 0
245 0 0
246 0 0
246 0 0
246 0 1
247 0 3
247 0 4
247 0 5
248 0 7
248 0 8
248 0 9
248 0 11
249 0 12
249 0 13
249 0 14
249 0 16
249 0 17
250 0 18
250 0 20
250 0 21
250 0 22
250 0 24
250 0 25
250 0 26
250 0 27
251 0 29
251 0 30
251 0 31
251 0 32
251 0 34
251 0 35
251 0 36
251 0 37
251 0 39
251 0 40
251 0 41
251 0 42
250 0 44
250 0 45
250 0 46
250 0 47
250 0 48
250 0 49
250 0 51
250 0 52
249 0 53
249 0 54
249 0 55
249 0 56
249 0 58
248 0 59
248 0 60
248 0 61
248 0 62
247 0 63
247 0 64
247 0 65
247 0 66
246 1 67
246 2 68
246 3 69
245 4 70
245 5 71
245 6 72
244 8 73
244 9 74
244 10 75
243 11 76
243 12 77
243 13 78
242 14 79
242 15 80
242 17 81
241 18 82
241 19 83
240 20 84
240 21 85
239 22 86
239 23 87
239 24 88
238 25 88
238 26 89
237 27 90
237 28 91
236 29 92
236 30 93
236 31 93
235 32 94
235 33 95
234 34 96
234 35 97
233 36 97
233 37 98
232 38 99
232 39 100
231 40 101
231 41 101
230 42 102
230 42 103
229 43 103
229 44 104
228 45 105
228 46 106
169 0 0
170 0 0
171 0 0
172 0 0
173 0 0
174 0 0
174 0 0
175 0 0
176 0 0
177 0 0
178 0 0
179 0 0
180 0 0
181 0 0
182 0 0
183 0 0
183 0 0
184 0 0
185 0 0
186 0 0
187 0 0
188 0 0
189 0 0
190 0 0
191 0 0
192 0 0
193 0 0
193 0 0
194 0 0
195 0 0
196 0 0
197 0 0
198 0 0
199 0 0
200 0 0
201 0 0
202 0 0
202 0 0
203 0 0
204 0 0
205 0 0
206 0 0
207 0 0
208 0 0
209 0 0
210 0 0
210 0 0
211 0 0
212 0 0
213 0 0
214 0 0
215 0 0
215 0 0
216 0 0
217 0 0
218 0 0
219 0 0
220 0 0
220 0 0
221 0 0
222 0 0
223 0 0
224 0 0
224 0 0
225 0 0
226 0 0
227 0 0
227 0 0
228 0 0
229 0 0
229 0 0
230 0 0
231 0 0
231 0 0
232 0 0
233 0 0
233 0 0
234 0 0
235 0 0
235 0 0
236 0 0
237 0 0
237 0 0
238 0 0
238 0 0
239 0 0
239 0 0
240 0 0
240 0 0
241 0 0
241 0 0
242 0 0
242 0 0
243 0 0
243 0 0
244 0 0
244 0 0
244 0 0
245 0 0
245 0 0
246 0 1
246 0 2
246 0 4
247 0 5
247 0 6
247 0 7
248 0 9
248 0 10
248 0 11
248 0 13
249 0 14
249 0 15
249 0 17
249 0 18
249 0 19
250 0 21
250 0 22
250 0 23
250 0 24
250 0 26
250 0 27
250 0 28
250 0 29
250 0 31
250 0 32
250 0 33
250 0 34
250 0 36
250 0 37
250 0 38
250 0 39
250 0 41
250 0 42
250 0 43
250 0 44
250 0 45
250 0 47
250 0 48
250 0 49
250 0 50
250 0 51
249 0 52
249 0 54
249 0 55
249 0 56
249 0 57
248 0 58
248 0 59
248 0 60
248 0 61
248 0 63
247 0 64
247 0 65
247 0 66
246 0 67
246 0 68
246 1 69
246 2 70
245 3 71
245 4 72
245 5 73
244 6 74
244 8 75
244 9 76
243 10 77
243 11 78
243 12 79
242 13 80
242 14 81
241 15 82
241 16 83
241 17 84
240 19 84
240 20 85
239 21 86
239 22 87
239 23 88
238 24 89
238 25 90
237 26 91
237 27 91
236 28 92
236 29 93
235 30 94
235 31 95
235 32 96
234 33 96
234 34 97
233 35 98
233 36 99
232 37 99
232 38 100
231 39 101
231 39 102
230 40 102
230 41 103
229 42 104
229 43 105
228 44 105
228 45 106
169 0 0
170 0 0
171 0 0
172 0 0
173 0 0
174 0 0
175 0 0
176 0 0
176 0 0
177 0 0
178 0 0
179 0 0
180 0 0
181 0 0
182 0 0
183 0 0
184 0 0
185 0 0
185 0 0
186 0 0
187 0 0
188 0 0
189 0 0
190 0 0
191 0 0
192 0 0
193 0 0
194 0 0
194 0 0
195 0 0
196 0 0
197 0 0
198 0 0
199 0 0
200 0 0
201 0 0
202 0 0
203 0 0
203 0 0
204 0 0
205 0 0
206 0 0
207 0 0
208 0 0
209 0 0
210 0 0
210 0 0
211 0 0
212 0 0
213 0 0
214 0 0
215 0 0
215 0 0
216 0 0
217 0 0
218 0 0
219 0 0
219 0 0
220 0 0
221 0 0
222 0 0
223 0 0
223 0 0
224 0 0
225 0 0
226 0 0
226 0 0
227 0 0
228 0 0
229 0 0
229 0 0
230 0 0
231 0 0
231 0 0
232 0 0
233 0 0
233 0 0
234 0 0
235 0 0
235 0 0
236 0 0
236 0 0
237 0 0
237 0 0
238 0 0
239 0 0
239 0 0
240 0 0
240 0 0
241 0 0
241 0 0
242 0 0
242 0 0
243 0 0
243 0 0
243 0 0
244 0 0
244 0 0
245 0 0
245 0 1
245 0 2
246 0 3
246 0 4
246 0 6
247 0 7
247 0 8
247 0 10
248 0 11
248 0 12
248 0 14
248 0 15
248 0 16
249 0 18
249 0 19
249 0 20
249 0 21
249 0 23
250 0 24
250 0 25
250 0 26
250 0 28
250 0 29
250 0 30
250 0 32
250 0 33
250 0 34
250 0 35
250 0 37
250 0 38
250 0 39
250 0 40
250 0 41
250 0 43
250 0 44
250 0 45
250 0 46
250 0 47
250 0 49
250 0 50
249 0 51
249 0 52
249 0 53
249 0 54
249 0 55
249 0 57
248 0 58
248 0 59
248 0 60
248 0 61
248 0 62
247 0 63
247 0 64
247 0 65
247 0 66
246 0 67
246 0 69
246 0 70
245 1 71
245 2 72
245 3 73
244 4 74
244 5 75
244 6 76
243 7 77
243 9 78
243 10 79
242 11 79
242 12 80
242 13 81
241 14 82
241 15 83
241 16 84
240 17 85
240 18 86
239 19 87
239 21 88
238 22 89
238 23 89
238 24 90
237 25 91
237 26 92
236 27 93
236 28 94
235 29 94
235 30 95
235 31 96
234 32 97
234 33 98
233 34 98
233 35 99
232 35 100
232 36 101
231 37 101
231 38 102
230 39 103
230 40 104
229 41 104
229 42 105
228 43 106
228 44 106
170 0 0
170 0 0
171 0 0
172 0 0
173 0 0
174 0 0
175 0 0
176 0 0
177 0 0
177 0 0
178 0 0
179 0 0
180 0 0
181 0 0
182 0 0
183 0 0
184 0 0
185 0 0
186 0 0
186 0 0
187 0 0
188 0 0
189 0 0
190 0 0
191 0 0
192 0 0
193 0 0
194 0 0
195 0 0
195 0 0
196 0 0
197 0 0
198 0 0
199 0 0
200 0 0
201 0 0
202 0 0
203 0 0
203 0 0
204 0 0
205 0 0
206 0 0
207 0 0
208 0 0
209 0 0
209 0 0
210 0 0
211 0 0
212 0 0
213 0 0
214 0 0
215 0 0
215 0 0
216 0 0
217 0 0
218 0 0
219 0 0
219 0 0
220 0 0
221 0 0
222 0 0
223 0 0
223 0 0
224 0 0
225 0 0
226 0 0
226 0 0
227 0 0
228 0 0
228 0 0
229 0 0
230 0 0
230 0 0
231 0 0
232 0 0
232 0 0
233 0 0
234 0 0
234 0 0
235 0 0
236 0 0
236 0 0
237 0 0
237 0 0
238 0 0
238 0 0
239 0 0
239 0 0
240 0 0
240 0 0
241 0 0
241 0 0
242 0 0
242 0 0
243 0 0
243 0 0
244 0 0
244 0 0
244 0 0
245 0 2
245 0 3
245 0 4
246 0 5
246 0 7
246 0 8
247 0 9
247 0 11
247 0 12
248 0 13
248 0 15
248 0 16
248 0 17
248 0 18
249 0 20
249 0 21
249 0 22
249 0 24
249 0 25
249 0 26
249 0 27
250 0 29
250 0 30
250 0 31
250 0 32
250 0 34
250 0 35
250 0 36
250 0 37
250 0 38
250 0 40
250 0 41
250 0 42
250 0 43
250 0 45
250 0 46
250 0 47
250 0 48
249 0 49
249 0 50
249 0 52
249 0 53
249 0 54
249 0 55
249 0 56
248 0 57
248 0 58
248 0 59
248 0 61
248 0 62
247 0 63
247 0 64
247 0 65
247 0 66
246 0 67
246 0 68
246 0 69
246 0 70
245 0 71
245 1 72
245 2 73
244 3 74
244 4 75
244 5 76
243 6 77
243 7 78
243 9 79
242 10 80
242 11 81
242 12 82
241 13 83
241 14 84
240 15 85
240 16 86
240 17 86
239 18 87
239 19 88
238 20 89
238 21 90
238 22 91
237 24 92
237 25 92
236 26 93
236 27 94
235 28 95
235 29 96
234 30 97
234 30 97
234 31 98
233 32 99
233 33 100
232 34 100
232 35 101
231 36 102
231 37 103
230 38 103
230 39 104
229 40 105
229 41 106
228 42 106
228 42 107
170 0 0
171 0 0
171 0 0
172 0 0
173 0 0
174 0 0
175 0 0
176 0 0
177 0 0
178 0 0
179 0 0
179 0 0
180 0 0
181 0 0
182 0 0
183 0 0
184 0 0
185 0 0
186 0 0
187 0 0
187 0 0
188 0 0
189 0 0
190 0 0
191 0 0
192 0 0
193 0 0
194 0 0
195 0 0
196 0 0
196 0 0
197 0 0
198 0 0
199 0 0
200 0 0
201 0 0
202 0 0
203 0 0
203 0 0
204 0 0
205 0 0
206 0 0
207 0 0
208 0 0
209 0 0
209 0 0
210 0 0
211 0 0
212 0 0
213 0 0
214 0 0
214 0 0
215 0 0
216 0 0
217 0 0
218 0 0
219 0 0
219 0 0
220 0 0
221 0 0
222 0 0
222 0 0
223 0 0
224 0 0
225 0 0
225 0 0
226 0 0
227 0 0
228 0 0
228 0 0
229 0 0
230 0 0
230 0 0
231 0 0
232 0 0
232 0 0
233 0 0
233 0 0
234 0 0
235 0 0
235 0 0
236 0 0
236 0 0
237 0 0
238 0 0
238 0 0
239 0 0
239 0 0
240 0 0
240 0 0
241 0 0
241 0 0
242 0 0
242 0 0
242 0 0
243 0 0
243 0 0
244 0 0
244 0 1
244 0 2
245 0 4
245 0 5
245 0 6
246 0 8
246 0 9
246 0 10
247 0 12
247 0 13
247 0 14
247 0 15
248 0 17
248 0 18
248 0 19
248 0 21
248 0 22
249 0 23
249 0 24
249 0 26
249 0 27
249 0 28
249 0 29
249 0 31
249 0 32
250 0 33
250 0 34
250 0 36
250 0 37
250 0 38
250 0 39
250 0 40
250 0 42
250 0 43
250 0 44
249 0 45
249 0 46
249 0 48
249 0 49
249 0 50
249 0 51
249 0 52
249 0 53
249 0 55
249 0 56
248 0 57
248 0 58
248 0 59
248 0 60
248 0 61
247 0 62
247 0 63
247 0 64
247 0 66
246 0 67
246 0 68
246 0 69
246 0 70
245 0 71
245 0 72
245 0 73
244 1 74
244 2 75
244 3 76
244 4 77
243 5 78
243 6 79
243 7 80
242 8 81
242 10 81
241 11 82
241 12 83
241 13 84
240 14 85
240 15 86
240 16 87
239 17 88
239 18 89
238 19 90
238 20 90
237 21 91
237 22 92
237 23 93
236 24 94
236 25 95
235 26 95
235 27 96
234 28 97
234 29 98
234 30 99
233 31 99
233 32 100
232 33 101
232 34 102
231 35 102
231 36 103
230 37 104
230 38 105
229 39 105
229 40 106
228 40 107
228 41 107
170 0 0
171 0 0
172 0 0
173 0 0
173 0 0
174 0 0
175 0 0
176 0 0
177 0 0
178 0 0
179 0 0
180 0 0
180 0 0
181 0 0
182 0 0
183 0 0
184 0 0
185 0 0
186 0 0
187 0 0
188 0 0
188 0 0
189 0 0
190 0 0
191 0 0
192 0 0
193 0 0
194 0 0
195 0 0
196 0 0
196 0 0
197 0 0
198 0 0
199 0 0
200 0 0
201 0 0
202 0 0
203 0 0
203 0 0
204 0 0
205 0 0
206 0 0
207 0 0
208 0 0
209 0 0
209 0 0
210 0 0
211 0 0
212 0 0
213 0 0
214 0 0
214 0 0
215 0 0
216 0 0
217 0 0
218 0 0
218 0 0
219 0 0
220 0 0
221 0 0
222 0 0
222 0 0
223 0 0
224 0 0
224 0 0
225 0 0
226 0 0
227 0 0
227 0 0
228 0 0
229 0 0
229 0 0
230 0 0
231 0 0
231 0 0
232 0 0
233 0 0
233 0 0
234 0 0
234 0 0
235 0 0
236 0 0
236 0 0
237 0 0
237 0 0
238 0 0
238 0 0
239 0 0
239 0 0
240 0 0
240 0 0
241 0 0
241 0 0
242 0 0
242 0 0
243 0 0
243 0 0
243 0 1
244 0 2
244 0 3
245 0 5
245 0 6
245 0 7
246 0 9
246 0 10
246 0 11
246 0 12
247 0 14
247 0 15
247 0 16
247 0 18
248 0 19
248 0 20
248 0 21
248 0 23
248 0 24
249 0 25
249 0 26
249 0 28
249 0 29
249 0 30
249 0 31
249 0 33
249 0 34
249 0 35
249 0 36
249 0 38
249 0 39
249 0 40
249 0 41
249 0 42
249 0 44
249 0 45
249 0 46
249 0 47
249 0 48
249 0 49
249 0 51
249 0 52
249 0 53
249 0 54
248 0 55
248 0 56
248 0 57
248 0 59
248 0 60
248 0 61
247 0 62
247 0 63
247 0 64
247 0 65
246 0 66
246 0 67
246 0 68
246 0 69
245 0 70
245 0 71
245 0 72
245 0 73
244 0 74
244 1 75
244 2 76
243 3 77
243 4 78
243 5 79
242 6 80
242 7 81
242 8 82
241 9 83
241 11 84
241 12 85
240 13 86
240 14 87
239 15 87
239 16 88
239 17 89
238 18 90
238 19 91
237 20 92
237 21 93
237 22 93
236 23 94
236 24 95
235 25 96
235 26 97
234 27 97
234 28 98
233 29 99
233 30 100
233 31 101
232 32 101
232 33 102
231 34 103
231 35 104
230 36 104
230 37 105
229 38 106
229 38 106
228 39 107
228 40 108
170 0 0
171 0 0
172 0 0
173 0 0
174 0 0
174 0 0
175 0 0
176 0 0
177 0 0
178 0 0
179 0 0
180 0 0
181 0 0
181 0 0
182 0 0
183 0 0
184 0 0
185 0 0
186 0 0
187 0 0
188 0 0
189 0 0
189 0 0
190 0 0
191 0 0
192 0 0
193 0 0
194 0 0
195 0 0
196 0 0
197 0 0
197 0 0
198 0 0
199 0 0
200 0 0
201 0 0
202 0 0
203 0 0
203 0 0
204 0 0
205 0 0
206 0 0
207 0 0
208 0 0
209 0 0
209 0 0
210 0 0
211 0 0
212 0 0
213 0 0
214 0 0
214 0 0
215 0 0
216 0 0
217 0 0
218 0 0
218 0 0
219 0 0
220 0 0
221 0 0
221 0 0
222 0 0
223 0 0
224 0 0
224 0 0
225 0 0
226 0 0
226 0 0
227 0 0
228 0 0
229 0 0
229 0 0
230 0 0
231 0 0
231 0 0
232 0 0
232 0 0
233 0 0
234 0 0
234 0 0
235 0 0
235 0 0
236 0 0
237 0 0
237 0 0
238 0 0
238 0 0
239 0 0
239 0 0
240 0 0
240 0 0
241 0 0
241 0 0
241 0 0
242 0 0
242 0 0
243 0 0
243 0 2
244 0 3
244 0 4
244 0 6
245 0 7
245 0 8
245 0 9
246 0 11
246 0 12
246 0 13
246 0 15
247 0 16
247 0 17
247 0 18
247 0 20
248 0 21
248 0 22
248 0 23
248 0 25
248 0 26
248 0 27
248 0 28
249 0 30
249 0 31
249 0 32
249 0 33
249 0 35
249 0 36
249 0 37
249 0 38
249 0 40
249 0 41
249 0 42
249 0 43
249 0 44
249 0 45
249 0 47
249 0 48
249 0 49
249 0 50
249 0 51
249 0 52
248 0 54
248 0 55
248 0 56
248 0 57
248 0 58
248 0 59
248 0 60
247 0 61
247 0 62
247 0 64
247 0 65
247 0 66
246 0 67
246 0 68
246 0 69
246 0 70
245 0 71
245 0 72
245 0 73
244 0 74
244 0 75
244 0 76
244 1 77
243 2 78
243 3 79
243 4 80
242 5 81
242 6 82
242 7 83
241 8 83
241 9 84
240 11 85
240 12 86
240 13 87
239 14 88
239 15 89
239 16 90
238 17 91
238 18 91
237 19 92
237 20 93
236 21 94
236 22 95
236 23 96
235 24 96
235 25 97
234 26 98
234 27 99
233 28 99
233 29 100
233 30 101
232 31 102
232 32 102
231 33 103
231 34 104
230 35 105
230 35 105
229 36 106
229 37 107
228 38 107
228 39 108
170 0 0
171 0 0
172 0 0
173 0 0
174 0 0
175 0 0
176 0 0
176 0 0
177 0 0
178 0 0
179 0 0
180 0 0
181 0 0
182 0 0
183 0 0
183 0 0
184 0 0
185 0 0
186 0 0
187 0 0
188 0 0
189 0 0
190 0 0
190 0 0
191 0 0
192 0 0
193 0 0
194 0 0
195 0 0
196 0 0
197 0 0
197 0 0
198 0 0
199 0 0
200 0 0
201 0 0
202 0 0
203 0 0
203 0 0
204 0 0
205 0 0
206 0 0
207 0 0
208 0 0
209 0 0
209 0 0
210 0 0
211 0 0
212 0 0
213 0 0
213 0 0
214 0 0
215 0 0
216 0 0
217 0 0
217 0 0
218 0 0
219 0 0
220 0 0
220 0 0
221 0 0
222 0 0
223 0 0
223 0 0
224 0 0
225 0 0
226 0 0
226 0 0
227 0 0
228 0 0
228 0 0
229 0 0
230 0 0
230 0 0
231 0 0
232 0 0
232 0 0
233 0 0
233 0 0
234 0 0
235 0 0
235 0 0
236 0 0
236 0 0
237 0 0
237 0 0
238 0 0
238 0 0
239 0 0
239 0 0
240 0 0
240 0 0
241 0 0
241 0 0
242 0 0
242 0 0
242 0 1
243 0 3
243 0 4
244 0 5
244 0 7
244 0 8
245 0 9
245 0 10
245 0 12
246 0 13
246 0 14
246 0 15
246 0 17
247 0 18
247 0 19
247 0 21
247 0 22
247 0 23
248 0 24
248 0 26
248 0 27
248 0 28
248 0 29
248 0 31
248 0 32
248 0 33
249 0 34
249 0 35
249 0 37
249 0 38
249 0 39
249 0 40
249 0 41
249 0 43
249 0 44
249 0 45
249 0 46
249 0 47
249 0 49
249 0 50
248 0 51
248 0 52
248 0 53
248 0 54
248 0 55
248 0 57
248 0 58
248 0 59
247 0 60
247 0 61
247 0 62
247 0 63
247 0 64
247 0 65
246 0 66
246 0 67
246 0 68
246 0 69
245 0 70
245 0 71
245 0 72
245 0 73
244 0 74
244 0 75
244 0 76
243 0 77
243 1 78
243 2 79
242 3 80
242 4 81
242 5 82
241 6 83
241 7 84
241 8 85
240 9 86
240 10 87
240 12 88
239 13 88
239 14 89
238 15 90
238 16 91
238 17 92
237 18 93
237 19 94
236 20 94
236 21 95
236 22 96
235 23 97
235 24 98
234 25 98
234 26 99
233 27 100
233 28 101
233 29 101
232 30 102
232 31 103
231 32 104
231 32 104
230 33 105
230 34 106
229 35 107
229 36 107
228 37 108
228 38 109
